<?xml version="1.0" encoding="UTF-8"?>
<map version="1.11" tiledversion="1.12.2" orientation="orthogonal" renderorder="right-down" width="28" height="16" tilewidth="40" tileheight="40" infinite="0" nextlayerid="17" nextobjectid="77">
 <editorsettings>
  <export target="data.lua" format="lua"/>
 </editorsettings>
 <properties>
  <property name="border" value="church_d"/>
  <property name="music" value="tiling"/>
 </properties>
 <tileset firstgid="1" source="../../../tilesets/bg_dw_library_tileset_new.tsx"/>
 <tileset firstgid="831" source="../../../tilesets/bg_dw_dither_overlay_tileset.tsx"/>
 <tileset firstgid="877" source="../../../tilesets/church_objects.tsx"/>
 <tileset firstgid="987" source="../../../tilesets/bg_dw_church_tileset_new.tsx"/>
 <objectgroup id="12" name="objects_bg2" visible="0" parallaxx="0.2">
  <object id="44" gid="881" x="240" y="1280" width="640" height="1600">
   <properties>
    <property name="color" type="color" value="#ffc927ff"/>
   </properties>
  </object>
  <object id="45" gid="878" x="600" y="1280" width="200" height="1240">
   <properties>
    <property name="color" type="color" value="#ffc927ff"/>
   </properties>
  </object>
 </objectgroup>
 <objectgroup id="10" name="objects_bg1" visible="0" parallaxx="0.5">
  <object id="39" gid="877" x="-200" y="1000" width="400" height="578"/>
  <object id="40" gid="877" x="200" y="1000" width="400" height="578"/>
  <object id="41" gid="877" x="600" y="1000" width="400" height="578"/>
 </objectgroup>
 <objectgroup id="13" name="markers">
  <object id="54" name="entry" x="90" y="440">
   <point/>
  </object>
 </objectgroup>
 <layer id="2" name="Tile Layer 2" width="28" height="16">
  <data encoding="csv">
0,0,0,0,0,0,0,0,0,0,0,0,0,0,0,0,0,0,0,0,0,0,0,0,0,0,0,0,
0,0,0,0,0,0,0,0,0,0,0,0,0,0,0,0,0,0,0,0,0,0,0,0,0,0,0,0,
0,0,0,0,0,0,0,0,0,0,0,0,0,0,0,0,0,0,0,0,0,0,0,0,0,0,0,0,
0,0,0,0,0,0,0,0,769,770,769,770,769,770,769,770,769,770,769,770,0,0,0,0,0,0,0,0,
0,0,0,0,0,0,0,0,789,790,789,790,789,790,789,790,789,790,789,790,0,0,0,0,0,0,0,0,
0,0,0,0,0,0,0,0,819,820,819,820,819,820,819,820,819,820,819,820,0,0,0,0,0,0,0,0,
0,0,779,778,778,778,780,0,829,830,829,830,829,830,829,830,829,830,829,830,0,779,778,778,778,780,0,0,
0,0,779,778,778,778,780,0,0,0,0,0,0,0,0,0,0,0,0,0,0,779,778,778,778,780,0,0,
0,0,779,778,778,778,780,0,0,0,0,0,0,0,0,0,0,0,0,0,0,779,778,778,778,780,0,0,
0,0,789,788,788,788,790,717,0,0,0,0,0,0,0,0,0,0,0,0,717,789,788,788,788,790,0,0,
0,0,0,0,0,0,0,0,0,0,0,0,0,0,0,0,0,0,0,0,0,0,0,0,0,0,0,0,
0,0,0,0,0,0,0,0,0,0,0,0,0,0,0,0,0,0,0,0,0,0,0,0,0,0,0,0,
0,0,0,0,0,0,0,0,0,0,0,0,0,0,0,0,0,0,0,0,0,0,0,0,0,0,0,0,
0,0,0,0,0,0,0,0,0,0,0,0,0,0,0,0,0,0,0,0,0,0,0,0,0,0,0,0,
0,0,0,0,0,0,0,0,0,0,0,0,0,0,0,0,0,0,0,0,0,0,0,0,0,0,0,0,
0,0,0,0,0,0,0,0,0,0,0,0,0,0,0,0,0,0,0,0,0,0,0,0,0,0,0,0
</data>
 </layer>
 <layer id="1" name="Tile Layer 1" width="28" height="16">
  <data encoding="csv">
0,0,0,0,0,0,0,0,0,0,0,0,0,0,0,0,0,0,0,0,0,0,0,0,0,0,0,0,
0,0,0,0,0,0,0,0,0,0,0,0,0,0,0,0,0,0,0,0,0,0,0,0,0,0,0,0,
0,0,0,0,0,0,0,0,0,0,0,0,0,0,0,0,0,0,0,0,0,0,0,0,0,0,0,0,
0,0,0,0,0,0,0,0,0,0,0,0,0,0,0,0,0,0,0,0,0,0,0,0,0,0,0,0,
0,0,0,0,0,0,0,771,0,0,0,0,0,0,0,0,0,0,0,0,771,0,0,0,0,0,0,0,
0,0,0,0,0,0,0,781,0,0,0,0,0,0,0,0,0,0,0,0,781,0,0,0,0,0,0,0,
0,0,0,0,0,0,0,781,746,746,746,746,746,746,746,746,746,746,746,746,781,0,0,0,0,0,0,0,
0,0,0,0,0,0,0,791,717,717,717,717,717,717,717,717,717,717,717,717,791,0,0,0,0,0,0,0,
0,0,0,0,0,0,0,801,717,717,717,717,717,717,717,726,717,717,717,717,801,0,0,0,0,0,0,0,
0,0,745,746,746,746,747,811,717,717,717,717,717,717,717,717,717,717,717,717,811,745,746,746,746,747,0,0,
0,0,715,717,717,717,717,717,727,717,717,717,717,717,717,717,717,717,717,717,717,717,717,717,717,718,0,0,
0,0,715,717,717,717,717,717,717,717,717,717,717,717,717,717,717,717,717,717,717,717,717,717,717,718,0,0,
0,0,765,766,766,766,766,766,715,717,717,717,717,717,717,717,717,717,717,718,766,766,766,766,766,767,0,0,
0,0,0,0,0,0,0,0,765,766,715,717,717,717,717,717,717,718,766,767,0,0,0,0,0,0,0,0,
0,0,0,0,0,0,0,0,0,0,765,766,766,766,766,766,766,767,0,0,0,0,0,0,0,0,0,0,
0,0,0,0,0,0,0,0,0,0,0,0,0,0,0,0,0,0,0,0,0,0,0,0,0,0,0,0
</data>
 </layer>
 <layer id="14" name="decor" width="28" height="16">
  <data encoding="csv">
0,0,0,0,0,0,0,0,0,0,0,0,0,0,0,0,0,0,0,0,0,0,0,0,0,0,0,0,
0,0,0,0,0,0,0,0,0,0,0,0,0,0,0,0,0,0,0,0,0,0,0,0,0,0,0,0,
0,0,0,0,0,0,0,0,0,0,0,0,0,0,0,0,0,0,0,0,0,0,0,0,0,0,0,0,
0,0,0,0,0,0,0,0,0,0,0,0,0,0,0,0,0,0,0,0,0,0,0,0,0,0,0,0,
0,0,0,0,0,0,0,0,0,0,0,0,0,0,0,0,0,0,0,0,0,0,0,0,0,0,0,0,
0,0,0,0,0,0,0,0,0,0,0,0,0,0,0,0,0,0,0,0,0,0,0,0,0,0,0,0,
0,0,0,0,0,0,0,0,0,0,0,0,0,0,0,0,0,0,0,0,0,0,0,0,0,0,0,0,
0,0,0,0,0,0,0,0,571,566,566,566,566,566,566,566,566,566,566,566,0,0,0,0,0,0,0,0,
0,0,0,0,0,0,0,0,566,566,562,0,566,561,566,573,566,566,566,572,0,0,0,0,0,0,0,0,
0,0,0,0,0,0,0,0,566,566,0,0,566,566,566,566,562,566,566,566,0,0,0,0,0,0,0,0,
0,0,0,0,0,0,0,0,561,566,0,0,566,566,0,566,566,0,551,566,0,0,0,0,0,0,0,0,
0,0,0,0,0,0,0,0,0,566,0,552,566,566,0,571,566,0,566,561,0,0,0,0,0,0,0,0,
0,0,0,0,0,0,0,0,0,566,0,566,566,0,566,551,566,566,566,566,0,0,0,0,0,0,0,0,
0,0,0,0,0,0,0,0,566,566,0,566,566,0,566,566,566,566,566,566,0,0,0,0,0,0,0,0,
0,0,0,0,0,0,0,0,0,0,0,0,0,0,0,0,0,0,0,0,0,0,0,0,0,0,0,0,
0,0,0,0,0,0,0,0,0,0,0,0,0,0,0,0,0,0,0,0,0,0,0,0,0,0,0,0
</data>
 </layer>
 <objectgroup id="8" name="collision" visible="0">
  <object id="5" x="320" y="0" width="480" height="280"/>
  <object id="6" x="0" y="0" width="320" height="400"/>
  <object id="7" x="0" y="480" width="320" height="160"/>
  <object id="8" x="320" y="520" width="80" height="120"/>
  <object id="9" x="400" y="560" width="320" height="80"/>
  <object id="10" x="720" y="520" width="80" height="120"/>
  <object id="11" x="800" y="480" width="240" height="160"/>
  <object id="12" x="800" y="0" width="240" height="400"/>
  <object id="17" x="1040" y="0" width="80" height="640"/>
  <object id="46" x="663" y="190" width="110" height="110"/>
 </objectgroup>
 <objectgroup id="7" name="objects_under_party">
  <object id="57" name="churchmagicglass" x="0" y="400" width="80" height="80">
   <properties>
    <property name="hiddenalpha" type="float" value="0.01"/>
    <property name="idlealpha" type="float" value="0.01"/>
    <property name="starthidden" type="bool" value="false"/>
   </properties>
  </object>
  <object id="61" name="interactable" gid="980" x="640" y="300" width="156" height="80">
   <properties>
    <property name="color" type="color" value="#ffffe100"/>
    <property name="cutscene" value="breaks.one"/>
    <property name="solid" type="bool" value="true"/>
    <property name="usetile" type="bool" value="true"/>
   </properties>
  </object>
 </objectgroup>
 <objectgroup id="6" name="objects_party">
  <object id="24" gid="917" x="491" y="280" width="140" height="68"/>
  <object id="26" gid="962" x="630" y="240" width="26" height="36"/>
  <object id="52" name="interactable" x="1040" y="400" width="40" height="80">
   <properties>
    <property name="cutscene" value="finale.demoend"/>
   </properties>
  </object>
  <object id="55" name="transition" x="-40" y="400" width="40" height="80">
   <properties>
    <property name="map" value="3_4th_sanctuary/fourth_sanctum_11"/>
    <property name="marker" value="plorgentry"/>
   </properties>
  </object>
  <object id="69" name="highlight" x="80" y="360" width="48" height="120"/>
  <object id="74" name="highlight" x="232" y="360" width="48" height="120"/>
  <object id="75" name="highlight" x="840" y="360" width="48" height="120"/>
  <object id="76" name="highlight" x="992" y="360" width="48" height="120"/>
 </objectgroup>
 <layer id="3" name="Tile Layer 3" width="28" height="16">
  <data encoding="csv">
0,0,0,0,0,0,0,0,0,0,0,0,0,0,0,0,0,0,0,0,0,0,0,0,0,0,0,0,
0,0,0,0,0,0,0,0,0,0,0,0,0,0,0,0,0,0,0,0,0,0,0,0,0,0,0,0,
0,0,0,0,0,0,0,0,0,0,0,0,0,0,0,0,0,0,0,0,0,0,0,0,0,0,0,0,
0,0,0,0,0,0,0,0,0,0,0,0,0,0,0,0,0,0,0,0,0,0,0,0,0,0,0,0,
0,0,0,0,0,0,0,0,0,0,0,358,359,0,0,358,359,0,0,0,0,0,0,0,0,0,0,0,
0,0,0,0,0,0,0,0,0,0,0,368,369,0,0,368,369,0,0,0,0,0,0,0,0,0,0,0,
0,0,0,0,0,0,0,0,0,0,0,0,0,0,0,0,0,0,0,0,0,0,0,0,0,0,0,0,
0,0,0,0,0,0,0,0,0,0,0,0,0,0,0,0,0,0,0,0,0,0,0,0,0,0,0,0,
0,0,0,0,0,0,0,0,0,0,0,0,0,0,0,0,0,0,0,0,0,0,0,0,0,0,0,0,
0,0,0,0,0,0,0,0,0,0,0,0,0,0,0,0,0,0,0,0,0,0,0,0,0,0,0,0,
0,0,0,0,0,0,0,0,0,0,0,0,0,0,0,0,0,0,0,0,0,0,0,0,0,0,0,0,
0,0,717,0,0,0,717,0,0,0,0,0,0,0,0,0,0,0,0,0,0,717,0,0,0,717,0,0,
0,0,0,0,0,0,0,0,0,0,0,0,0,0,0,0,0,0,0,0,0,0,0,0,0,0,0,0,
0,0,0,0,0,0,0,0,0,0,0,0,0,0,0,0,0,0,0,0,0,0,0,0,0,0,0,0,
0,0,0,0,0,0,0,0,0,0,0,0,0,0,0,0,0,0,0,0,0,0,0,0,0,0,0,0,
0,0,0,0,0,0,0,0,0,0,0,0,0,0,0,0,0,0,0,0,0,0,0,0,0,0,0,0
</data>
 </layer>
 <layer id="16" name="Tile Layer 3" width="28" height="16" offsetx="-20" offsety="0">
  <data encoding="csv">
0,0,0,0,0,0,0,0,0,0,0,0,0,0,0,0,0,0,0,0,0,0,0,0,0,0,0,0,
0,0,0,0,0,0,0,0,0,0,0,0,0,0,0,0,0,0,0,0,0,0,0,0,0,0,0,0,
0,0,0,0,0,0,0,0,0,0,0,0,0,0,0,0,0,0,0,0,0,0,0,0,0,0,0,0,
0,0,0,0,0,0,0,0,0,0,0,0,0,0,0,0,0,0,0,0,0,0,0,0,0,0,0,0,
0,0,0,0,0,0,0,0,0,0,0,0,0,0,0,0,0,0,0,0,0,0,0,0,0,0,0,0,
0,0,0,0,0,0,0,0,0,0,0,0,0,0,0,0,0,0,0,0,0,0,0,0,0,0,0,0,
0,0,0,0,358,359,0,0,0,0,0,0,0,0,0,0,0,0,0,0,0,0,0,358,359,0,0,0,
0,0,0,0,368,369,0,0,0,0,0,0,0,0,0,0,0,0,0,0,0,0,0,368,369,0,0,0,
0,0,0,0,0,0,0,0,0,0,0,0,0,0,0,0,0,0,0,0,0,0,0,0,0,0,0,0,
0,0,0,0,0,0,0,0,0,0,0,0,0,0,0,0,0,0,0,0,0,0,0,0,0,0,0,0,
0,0,0,0,0,0,0,0,0,0,0,0,0,0,0,0,0,0,0,0,0,0,0,0,0,0,0,0,
0,0,0,0,0,0,0,0,0,0,0,0,0,0,0,0,0,0,0,0,0,0,0,0,0,0,0,0,
0,0,0,0,0,0,0,0,0,0,0,0,0,0,0,0,0,0,0,0,0,0,0,0,0,0,0,0,
0,0,0,0,0,0,0,0,0,0,0,0,0,0,0,0,0,0,0,0,0,0,0,0,0,0,0,0,
0,0,0,0,0,0,0,0,0,0,0,0,0,0,0,0,0,0,0,0,0,0,0,0,0,0,0,0,
0,0,0,0,0,0,0,0,0,0,0,0,0,0,0,0,0,0,0,0,0,0,0,0,0,0,0,0
</data>
 </layer>
 <layer id="5" name="Tile Layer 4" width="28" height="16">
  <data encoding="csv">
0,0,0,0,0,0,0,0,0,0,0,0,0,0,0,0,0,0,0,0,0,0,0,0,0,0,0,0,
0,0,0,0,0,0,0,745,746,746,746,746,746,746,746,746,746,746,746,746,747,0,0,0,0,0,0,0,
0,0,0,0,0,0,0,755,756,756,756,756,756,756,756,756,756,756,756,756,757,0,0,0,0,0,0,0,
0,0,745,746,746,746,747,765,766,766,766,766,766,766,766,766,766,766,766,766,767,745,746,746,746,747,0,0,
0,0,755,756,756,756,757,0,805,806,806,806,806,806,806,806,806,806,806,807,0,755,756,756,756,757,0,0,
0,0,765,766,766,766,767,0,815,816,0,0,0,0,0,0,0,0,0,817,0,765,766,766,766,767,0,0,
0,0,771,772,773,774,771,0,825,0,0,0,0,0,0,0,0,0,0,827,0,771,772,773,774,771,0,0,
0,0,781,782,783,784,781,0,0,803,0,0,0,0,0,0,0,0,0,0,0,781,782,783,784,781,0,0,
0,0,781,792,793,794,781,0,0,813,0,0,0,0,0,0,0,0,0,0,0,781,792,793,794,781,0,0,
0,0,791,802,803,804,791,0,0,0,0,0,0,0,0,0,0,0,0,0,0,791,802,803,804,791,0,0,
0,0,801,812,813,814,801,0,0,0,0,0,0,0,0,0,0,0,0,0,0,801,812,813,814,801,0,0,
0,0,811,822,823,824,811,0,0,0,0,0,0,0,0,0,0,0,0,0,0,811,822,823,824,811,0,0,
0,0,0,0,0,0,0,0,0,0,0,0,0,0,0,0,0,0,0,0,0,0,0,0,0,0,0,0,
0,0,0,0,0,0,0,0,0,0,0,0,0,0,0,0,0,0,0,0,0,0,0,0,0,0,0,0,
0,0,0,0,0,0,0,0,0,0,0,0,0,0,0,0,0,0,0,0,0,0,0,0,0,0,0,0,
0,0,0,0,0,0,0,0,0,0,0,0,0,0,0,0,0,0,0,0,0,0,0,0,0,0,0,0
</data>
 </layer>
 <objectgroup id="9" name="objects_top">
  <object id="13" name="churchfog" x="-115.333" y="16">
   <point/>
  </object>
  <object id="14" name="filter" x="-75.333" y="16">
   <properties>
    <property name="type" value="hsv3"/>
   </properties>
   <point/>
  </object>
 </objectgroup>
</map>
