<?xml version="1.0" encoding="UTF-8"?>
<map version="1.11" tiledversion="1.12.2" orientation="orthogonal" renderorder="right-down" width="34" height="44" tilewidth="40" tileheight="40" infinite="0" nextlayerid="25" nextobjectid="212">
 <editorsettings>
  <export target="data.lua" format="lua"/>
 </editorsettings>
 <properties>
  <property name="border" value="church_flooded_dynamic"/>
  <property name="music" value="floodedsanctuary"/>
 </properties>
 <tileset firstgid="1" source="../../../tilesets/bg_dw_church_watertileset.tsx"/>
 <tileset firstgid="151" source="../../../tilesets/bg_dw_church_c_tileset.tsx"/>
 <tileset firstgid="430" source="../../../tilesets/bg_dw_church_tileset_new.tsx"/>
 <tileset firstgid="1012" source="../../../tilesets/libraryexcerpt.tsx"/>
 <tileset firstgid="1060" source="../../../tilesets/bg_dw_church_watertileset_drained.tsx"/>
 <tileset firstgid="1078" source="../../../tilesets/bg_dw_church_library_2_tileset.tsx"/>
 <tileset firstgid="1338" source="../../../tilesets/flooded_sanctuary_extra.tsx"/>
 <tileset firstgid="1401" source="../../../tilesets/bg_dw_church_2_tileset.tsx"/>
 <tileset firstgid="1599" source="../../../tilesets/ExtraClimbingTiles.tsx"/>
 <tileset firstgid="1608" source="../../../tilesets/church_objects.tsx"/>
 <tileset firstgid="1718" source="../../../tilesets/ClimbableBrickTilesSilhouette.tsx"/>
 <tileset firstgid="1739" source="../../../tilesets/ExtraWallArchTiles.tsx"/>
 <tileset firstgid="1805" source="../../../tilesets/light_areas.tsx"/>
 <layer id="20" name="mask" width="34" height="44">
  <data encoding="csv">
562,562,562,562,562,562,562,562,0,0,0,562,562,0,0,562,562,562,562,562,562,562,562,562,562,562,562,562,562,562,562,562,562,562,
562,562,562,562,562,562,562,562,0,0,0,562,562,0,0,562,562,562,562,562,562,562,562,562,562,562,562,562,562,562,562,562,562,562,
562,562,562,562,562,562,562,562,0,0,0,562,562,0,0,562,562,562,562,562,562,562,562,562,562,562,562,562,562,562,562,562,562,562,
0,0,0,0,0,0,0,0,0,0,0,562,562,0,0,562,562,562,562,562,562,562,562,562,562,562,562,562,562,562,562,562,562,562,
0,0,0,0,0,0,0,0,0,0,0,562,562,0,0,0,0,0,0,0,0,0,0,0,0,0,0,0,0,0,0,0,0,0,
0,0,0,0,0,0,0,0,0,0,0,562,562,0,0,0,0,0,0,0,0,0,0,0,0,0,0,0,0,0,0,0,0,0,
562,562,562,562,562,562,562,562,562,562,562,562,562,562,562,562,562,562,562,562,562,562,562,562,562,562,562,562,562,562,562,562,562,562,
562,562,562,562,562,562,562,562,562,562,562,562,562,562,562,562,562,562,562,562,562,562,562,562,562,562,562,562,562,562,562,562,562,562,
562,562,562,562,562,562,562,562,562,562,562,562,562,562,562,562,562,562,562,562,562,562,562,562,562,562,562,562,562,562,562,562,562,562,
562,562,562,562,562,562,562,562,562,562,562,562,562,562,562,562,562,562,562,562,562,562,562,562,562,562,562,562,562,562,562,562,562,562,
562,562,562,562,562,562,562,562,562,562,562,562,562,562,562,562,562,562,562,562,562,562,562,562,562,562,562,562,562,562,562,562,562,562,
562,562,562,562,562,562,562,562,562,562,562,562,562,562,562,562,562,562,562,562,562,562,562,562,562,562,562,562,562,562,562,562,562,562,
562,562,562,562,562,562,562,562,562,562,562,562,562,562,562,562,562,562,562,562,562,562,562,562,562,562,562,562,562,562,562,562,562,562,
0,0,0,0,0,0,0,0,0,0,0,0,0,562,562,0,0,0,0,0,0,0,0,0,0,0,0,0,0,0,0,0,0,0,
0,0,0,0,0,0,0,0,0,0,0,0,0,562,562,0,0,0,0,0,0,0,0,0,0,0,0,0,0,0,0,0,0,0,
0,0,0,0,0,0,0,0,0,0,0,0,0,562,562,0,0,0,0,0,0,0,0,0,0,0,0,0,0,0,0,0,0,0,
562,562,562,562,562,562,562,562,562,0,562,562,562,562,562,562,562,562,562,562,562,562,562,562,562,562,562,562,562,562,562,562,562,562,
562,562,562,562,562,562,562,562,562,0,562,562,562,562,562,562,562,562,562,562,562,562,562,562,562,562,562,562,562,562,562,562,562,562,
562,562,562,562,562,562,562,562,562,0,562,562,562,562,562,562,562,562,562,562,562,562,562,562,562,562,562,562,562,562,562,562,562,562,
562,562,562,562,562,562,562,562,562,0,562,562,562,562,562,562,562,562,562,562,562,562,562,562,562,562,562,562,562,562,562,562,562,562,
562,562,562,562,562,562,562,562,562,0,562,562,562,562,562,562,562,562,562,562,562,562,562,562,562,562,562,562,562,562,562,562,562,562,
562,562,562,562,562,562,562,562,562,0,562,562,562,562,562,562,562,562,562,562,562,562,562,562,562,562,562,562,562,562,562,562,562,562,
562,562,562,562,562,562,562,562,562,0,562,562,562,562,562,562,562,562,562,562,562,562,562,562,562,562,562,562,562,562,562,562,562,562,
562,562,562,562,562,562,562,562,562,0,562,562,562,562,562,562,562,562,562,562,562,562,562,562,562,562,562,562,562,562,562,562,562,562,
562,562,562,562,562,562,562,562,562,0,562,562,562,562,562,562,562,562,562,562,562,562,562,562,562,562,562,562,562,562,562,562,562,562,
0,0,0,0,0,0,0,0,0,0,0,0,0,0,0,0,0,0,0,0,0,0,0,0,562,562,562,562,562,562,0,0,0,0,
0,0,0,0,0,0,0,0,0,0,0,0,0,0,0,0,0,0,0,0,0,0,0,0,562,562,562,562,562,562,0,0,0,0,
562,562,562,562,562,562,562,562,562,0,562,562,562,562,562,562,562,562,562,562,562,562,562,562,562,562,562,562,562,562,562,562,562,562,
562,562,562,562,562,562,562,562,562,0,562,562,562,562,562,562,562,562,562,562,562,562,562,562,562,562,562,562,562,562,562,562,562,562,
562,562,562,562,562,562,562,562,0,0,0,0,0,0,0,562,0,0,0,0,0,0,0,562,562,562,562,562,562,562,562,562,562,562,
562,562,562,562,562,562,562,562,0,0,0,0,0,0,0,562,0,0,0,0,0,0,0,562,562,562,562,562,562,562,562,562,562,562,
562,562,562,562,562,562,562,562,562,562,562,562,562,562,562,562,562,562,562,562,562,562,562,562,562,562,562,562,562,562,562,562,562,562,
562,562,562,562,562,562,562,562,562,562,562,562,562,562,562,0,562,562,562,562,562,562,562,562,562,562,562,562,562,562,562,562,562,562,
562,562,562,562,562,562,562,562,562,562,562,562,562,562,562,0,562,562,562,562,562,562,562,562,562,562,562,562,562,562,562,562,562,562,
562,562,562,562,562,562,562,1383,0,0,0,0,0,0,0,0,0,0,0,0,0,0,0,562,562,562,562,562,562,562,562,562,562,562,
562,562,562,562,562,562,1383,0,0,0,0,0,0,0,0,0,0,0,0,0,0,0,0,562,562,562,562,562,562,562,562,562,562,562,
562,562,562,562,562,1383,0,1393,562,562,562,562,562,562,562,562,562,562,562,562,562,562,562,562,562,562,562,562,562,562,562,562,562,562,
562,562,562,562,1383,0,1393,562,562,562,562,562,562,562,562,562,562,562,562,562,562,562,562,562,562,562,562,562,562,562,562,562,562,562,
562,562,0,0,0,1393,562,562,562,562,562,562,562,562,562,562,562,562,562,562,562,562,562,562,562,562,562,562,562,562,562,562,562,562,
562,562,0,0,1393,562,562,562,562,562,562,562,562,562,562,562,562,562,562,562,562,562,562,562,562,562,562,562,562,562,562,562,562,562,
562,562,0,0,562,562,562,562,562,562,562,562,562,562,562,562,562,562,562,562,562,562,562,562,562,562,562,562,562,562,562,562,562,562,
562,562,0,0,0,0,0,0,0,0,0,0,0,0,0,0,0,0,0,0,0,0,0,0,0,0,0,0,0,0,0,0,0,0,
562,562,0,0,0,0,0,0,0,0,0,0,0,0,0,0,0,0,0,0,0,0,0,0,0,0,0,0,0,0,0,0,0,0,
562,562,562,562,562,562,562,562,562,562,562,562,562,562,562,562,562,562,562,562,562,562,562,562,562,562,562,562,562,562,562,562,562,562
</data>
 </layer>
 <objectgroup id="16" name="objects_bg">
  <object id="146" name="lavawaverbg" x="80" y="0">
   <point/>
  </object>
 </objectgroup>
 <layer id="19" name="tiles6" width="34" height="44" tintcolor="#586798">
  <data encoding="csv">
0,0,0,0,0,0,0,0,0,0,0,0,0,502,502,1380,0,0,0,0,0,0,0,0,0,0,0,0,0,0,0,0,0,0,
0,0,0,0,0,0,0,0,0,0,0,0,0,502,502,1380,0,0,0,0,0,0,0,0,0,0,0,0,0,0,0,0,0,0,
0,0,0,0,0,0,0,0,0,0,0,0,0,502,502,1380,0,0,0,0,0,0,0,0,0,0,0,0,0,0,0,0,0,0,
0,0,0,0,0,0,0,0,0,0,0,0,0,502,502,1380,0,0,0,0,0,0,0,0,0,0,0,0,0,0,0,0,0,0,
0,0,0,0,0,0,0,0,0,0,0,0,0,502,502,502,502,502,502,502,502,502,502,502,502,502,502,502,502,502,502,502,502,502,
0,0,0,0,0,0,0,0,0,0,0,0,0,502,502,502,502,502,502,502,502,502,502,502,502,502,502,502,502,502,502,502,502,502,
0,0,0,0,0,0,0,0,0,0,0,0,0,1390,1390,1390,1390,1390,1390,1390,1390,1390,1390,1390,1390,1390,1390,1390,1390,1390,1390,1390,1390,1390,
0,0,0,0,0,0,0,0,0,0,0,0,0,0,0,0,0,0,0,0,0,0,0,0,0,0,0,0,0,0,0,0,0,0,
0,0,0,0,0,0,0,0,0,0,0,0,0,0,0,0,0,0,0,0,0,0,0,0,0,0,0,0,0,0,0,0,0,0,
0,0,0,0,0,0,0,0,0,0,0,0,0,0,0,0,0,0,0,0,0,0,0,0,0,0,0,0,0,0,0,0,0,0,
0,0,0,0,0,0,0,0,0,0,0,0,0,0,0,0,0,0,0,0,0,0,0,0,0,0,0,0,0,0,0,0,0,0,
0,0,0,0,0,0,0,0,0,0,0,0,0,0,0,0,0,0,0,0,0,0,0,0,0,0,0,0,0,0,0,0,0,0,
0,0,0,0,0,0,0,0,0,0,0,0,0,0,0,0,0,0,0,0,0,0,0,0,0,0,0,0,0,0,0,0,0,0,
0,0,0,0,0,0,0,0,0,0,0,0,0,0,0,0,0,0,0,0,0,0,0,0,0,0,0,0,0,0,0,0,0,0,
0,0,0,0,0,0,0,0,0,0,0,0,0,0,0,0,0,0,0,0,0,0,0,0,0,0,0,0,0,0,0,0,0,0,
0,0,0,0,0,0,0,0,0,0,0,0,0,0,0,0,0,0,0,0,0,0,0,0,0,0,0,0,0,0,0,0,0,0,
0,0,0,0,0,0,0,0,0,0,0,0,0,0,0,0,0,0,0,0,0,0,0,0,0,0,0,0,0,0,0,0,0,0,
0,0,0,0,0,0,0,0,0,0,0,0,0,0,0,0,0,0,0,0,0,0,0,0,0,0,0,0,0,0,0,0,0,0,
0,0,0,0,0,0,0,0,0,0,0,0,0,0,0,0,0,0,0,0,0,0,0,0,0,0,0,0,0,0,0,0,0,0,
0,0,0,0,0,0,0,0,0,0,0,0,0,0,0,0,0,0,0,0,0,0,0,0,0,0,0,0,0,0,0,0,0,0,
0,0,0,0,0,0,0,0,0,0,0,0,0,0,0,0,0,0,0,0,0,0,0,0,0,0,0,0,0,0,0,0,0,0,
0,0,0,0,0,0,0,0,0,0,0,0,0,0,0,0,0,0,0,0,0,0,0,0,0,0,0,0,0,0,0,0,0,0,
0,0,0,0,0,0,0,0,0,0,0,0,0,0,0,0,0,0,0,0,0,0,0,0,0,0,0,0,0,0,0,0,0,0,
0,0,0,0,0,0,0,0,0,0,0,0,0,0,0,0,0,0,0,0,0,0,0,0,0,0,0,0,0,0,0,0,0,0,
0,0,0,0,0,0,0,0,0,0,0,0,0,0,0,0,0,0,0,0,0,0,0,0,0,0,0,0,0,0,0,0,0,0,
0,0,0,0,0,0,0,0,0,0,0,0,0,0,0,0,0,0,0,0,0,0,0,0,0,0,0,0,0,0,0,0,0,0,
0,0,0,0,0,0,0,0,0,0,0,0,0,0,0,0,0,0,0,0,0,0,0,0,0,0,0,0,0,0,0,0,0,0,
0,0,0,0,0,0,0,0,0,0,0,0,0,0,0,0,0,0,0,0,0,0,0,0,0,0,0,0,0,0,0,0,0,0,
0,0,0,0,0,0,0,0,0,0,0,0,0,0,0,0,0,0,0,0,0,0,0,0,0,0,0,0,0,0,0,0,0,0,
0,0,0,0,0,0,0,0,0,0,0,0,0,0,0,0,0,0,0,0,0,0,0,0,0,0,0,0,0,0,0,0,0,0,
0,0,0,0,0,0,0,0,0,0,0,0,0,0,0,0,0,0,0,0,0,0,0,0,0,0,0,0,0,0,0,0,0,0,
0,0,0,0,0,0,0,0,0,0,0,0,0,0,0,0,0,0,0,0,0,0,0,0,0,0,0,0,0,0,0,0,0,0,
0,0,0,0,0,0,0,0,0,0,0,0,0,0,0,0,0,0,0,0,0,0,0,0,0,0,0,0,0,0,0,0,0,0,
0,0,0,0,0,0,0,0,0,0,0,0,0,0,0,0,0,0,0,0,0,0,0,0,0,0,0,0,0,0,0,0,0,0,
0,0,0,0,0,0,0,0,0,0,0,0,0,0,0,0,0,0,0,0,0,0,0,0,0,0,0,0,0,0,0,0,0,0,
0,0,0,0,0,0,0,0,0,0,0,0,0,0,0,0,0,0,0,0,0,0,0,0,0,0,0,0,0,0,0,0,0,0,
0,0,0,0,0,0,0,0,0,0,0,0,0,0,0,0,0,0,0,0,0,0,0,0,0,0,0,0,0,0,0,0,0,0,
0,0,0,0,0,0,0,0,0,0,0,0,0,0,0,0,0,0,0,0,0,0,0,0,0,0,0,0,0,0,0,0,0,0,
0,0,0,0,0,0,0,0,0,0,0,0,0,0,0,0,0,0,0,0,0,0,0,0,0,0,0,0,0,0,0,0,0,0,
0,0,0,0,0,0,0,0,0,0,0,0,0,0,0,0,0,0,0,0,0,0,0,0,0,0,0,0,0,0,0,0,0,0,
0,0,0,0,0,0,0,0,0,0,0,0,0,0,0,0,0,0,0,0,0,0,0,0,0,0,0,0,0,0,0,0,0,0,
0,0,0,0,0,0,0,0,0,0,0,0,0,0,0,0,0,0,0,0,0,0,0,0,0,0,0,0,0,0,0,0,0,0,
0,0,0,0,0,0,0,0,0,0,0,0,0,0,0,0,0,0,0,0,0,0,0,0,0,0,0,0,0,0,0,0,0,0,
0,0,0,0,0,0,0,0,0,0,0,0,0,0,0,0,0,0,0,0,0,0,0,0,0,0,0,0,0,0,0,0,0,0
</data>
 </layer>
 <layer id="13" name="tiles5" width="34" height="44" tintcolor="#586798">
  <data encoding="csv">
0,0,0,0,0,0,0,0,0,0,0,0,0,0,0,0,0,0,0,0,0,0,0,0,0,0,0,0,0,0,0,0,0,0,
0,0,0,0,0,0,0,0,0,0,0,0,0,0,0,0,0,0,0,0,0,0,0,0,0,0,0,0,0,0,0,0,0,0,
0,0,0,0,0,0,0,0,0,0,0,0,0,0,0,0,0,0,0,0,0,0,0,0,0,0,0,0,0,0,0,0,0,0,
0,0,0,0,0,0,0,0,0,0,0,0,0,0,0,0,0,0,0,0,0,0,0,0,0,0,0,0,0,0,0,0,0,0,
0,0,0,0,0,0,0,0,0,0,0,0,0,0,0,0,0,0,0,0,0,0,0,0,0,0,0,0,0,0,0,0,0,0,
0,0,0,0,0,0,0,0,0,0,0,0,0,0,0,0,0,0,0,0,0,0,0,0,0,0,0,0,0,0,0,0,0,0,
0,0,0,0,0,0,0,0,0,0,0,0,0,1374,1374,1374,1374,1374,1374,1374,1374,1374,1374,1374,1374,1374,1374,1374,1374,1374,1374,1374,1374,1374,
0,0,0,0,0,0,0,0,0,0,0,0,0,0,0,0,0,0,0,0,0,0,0,0,0,0,0,0,0,0,0,0,0,0,
0,0,0,0,0,0,0,0,0,0,0,0,0,0,0,0,0,0,0,0,0,0,0,0,0,0,0,0,0,0,0,0,0,0,
0,0,0,0,0,0,0,0,0,0,0,0,0,0,0,0,0,0,0,0,0,0,0,0,0,0,0,0,0,0,0,0,0,0,
0,0,0,0,0,0,0,0,0,0,0,0,0,0,0,0,0,0,0,0,0,0,0,0,0,0,0,0,0,0,0,0,0,0,
0,0,0,0,0,0,0,0,0,0,0,0,0,0,0,0,0,0,0,0,0,0,0,0,0,0,0,0,0,0,0,0,0,0,
0,0,0,0,0,0,0,0,0,0,0,0,0,0,0,0,0,0,0,0,0,0,0,0,0,0,0,0,0,0,0,0,0,0,
0,0,0,0,0,0,0,0,0,0,0,0,0,0,0,0,0,0,0,0,0,0,0,0,0,0,0,0,0,0,0,0,0,0,
0,0,0,0,0,0,0,0,0,0,0,0,0,0,0,0,0,0,0,0,0,0,0,0,0,0,0,0,0,0,0,0,0,0,
0,0,0,0,0,0,0,0,0,0,0,0,0,0,0,0,0,0,0,0,0,0,0,0,0,0,0,0,0,0,0,0,0,0,
0,0,0,0,0,0,0,0,0,0,0,0,0,0,0,0,0,0,0,0,0,0,0,0,0,0,0,0,0,0,0,0,0,0,
0,0,0,0,0,0,0,0,0,0,0,0,0,0,0,0,0,0,0,0,0,0,0,0,0,0,0,0,0,0,0,0,0,0,
0,0,0,0,0,0,0,0,0,0,0,0,0,0,0,0,0,0,0,0,0,0,0,0,0,0,0,0,0,0,0,0,0,0,
0,0,0,0,0,0,0,0,0,0,0,0,0,0,0,0,0,0,0,0,0,0,0,0,0,0,0,0,0,0,0,0,0,0,
0,0,0,0,0,0,0,0,0,0,0,0,0,0,0,0,0,0,0,0,0,0,0,0,0,0,0,0,0,0,0,0,0,0,
0,0,0,0,0,0,0,0,0,0,0,0,0,0,0,0,0,0,0,0,0,0,0,0,0,0,0,0,0,0,0,0,0,0,
0,0,0,0,0,0,0,0,0,0,0,0,0,0,0,0,0,0,0,0,0,0,0,0,0,0,0,0,0,0,0,0,0,0,
0,0,0,0,0,0,0,0,0,0,0,0,0,0,0,0,0,0,0,0,0,0,0,0,0,0,0,0,0,0,0,0,0,0,
0,0,0,0,0,0,0,0,0,0,0,0,0,0,0,0,0,0,0,0,0,0,0,0,0,0,0,0,0,0,0,0,0,0,
0,0,0,0,0,0,0,0,0,0,0,0,0,0,0,0,0,0,0,0,0,0,0,0,0,0,0,0,0,0,0,0,0,0,
0,0,0,0,0,0,0,0,0,0,0,0,0,0,0,0,0,0,0,0,0,0,0,0,0,0,0,0,0,0,0,0,0,0,
0,0,0,0,0,0,0,0,0,0,0,0,0,0,0,0,0,0,0,0,0,0,0,0,0,0,0,0,0,0,0,0,0,0,
0,0,0,0,0,0,0,0,0,0,0,0,0,0,0,0,0,0,0,0,0,0,0,0,0,0,0,0,0,0,0,0,0,0,
0,0,0,0,0,0,0,0,0,0,0,0,0,0,0,0,0,0,0,0,0,0,0,0,0,0,0,0,0,0,0,0,0,0,
0,0,0,0,0,0,0,0,0,0,0,0,0,0,0,0,0,0,0,0,0,0,0,0,0,0,0,0,0,0,0,0,0,0,
0,0,0,0,0,0,0,0,0,0,0,0,0,0,0,0,0,0,0,0,0,0,0,0,0,0,0,0,0,0,0,0,0,0,
0,0,0,0,0,0,0,0,0,0,0,0,0,0,0,0,0,0,0,0,0,0,0,0,0,0,0,0,0,0,0,0,0,0,
0,0,0,0,0,0,0,0,0,0,0,0,0,0,0,0,0,0,0,0,0,0,0,0,0,0,0,0,0,0,0,0,0,0,
0,0,0,0,0,0,0,0,0,0,0,0,0,0,0,0,0,0,0,0,0,0,0,0,0,0,0,0,0,0,0,0,0,0,
0,0,0,0,0,0,0,0,0,0,0,0,0,0,0,0,0,0,0,0,0,0,0,0,0,0,0,0,0,0,0,0,0,0,
0,0,0,0,0,0,0,0,0,0,0,0,0,0,0,0,0,0,0,0,0,0,0,0,0,0,0,0,0,0,0,0,0,0,
0,0,0,0,0,0,0,0,0,0,0,0,0,0,0,0,0,0,0,0,0,0,0,0,0,0,0,0,0,0,0,0,0,0,
0,0,0,0,0,0,0,0,0,0,0,0,0,0,0,0,0,0,0,0,0,0,0,0,0,0,0,0,0,0,0,0,0,0,
0,0,0,0,0,0,0,0,0,0,0,0,0,0,0,0,0,0,0,0,0,0,0,0,0,0,0,0,0,0,0,0,0,0,
0,0,0,0,0,0,0,0,0,0,0,0,0,0,0,0,0,0,0,0,0,0,0,0,0,0,0,0,0,0,0,0,0,0,
0,0,0,0,0,0,0,0,0,0,0,0,0,0,0,0,0,0,0,0,0,0,0,0,0,0,0,0,0,0,0,0,0,0,
0,0,0,0,0,0,0,0,0,0,0,0,0,0,0,0,0,0,0,0,0,0,0,0,0,0,0,0,0,0,0,0,0,0,
0,0,0,0,0,0,0,0,0,0,0,0,0,0,0,0,0,0,0,0,0,0,0,0,0,0,0,0,0,0,0,0,0,0
</data>
 </layer>
 <objectgroup id="23" name="objects_water_optimization">
  <object id="206" name="tile_oscillate" x="0" y="0" width="520" height="280">
   <properties>
    <property name="type" value="water"/>
   </properties>
  </object>
  <object id="207" name="tile_oscillate" x="0" y="280" width="1360" height="720">
   <properties>
    <property name="type" value="water"/>
   </properties>
  </object>
  <object id="208" name="wateranimator" x="120" y="0">
   <properties>
    <property name="color" type="color" value="#ff586798"/>
   </properties>
   <point/>
  </object>
 </objectgroup>
 <layer id="14" name="tiles4" width="34" height="44" tintcolor="#586798">
  <data encoding="csv">
0,0,0,0,0,0,0,0,0,0,0,0,0,1371,0,0,0,0,0,0,0,0,0,0,0,0,0,0,0,0,0,0,0,0,
0,0,0,0,0,0,0,0,0,0,0,0,0,1371,0,0,0,0,0,0,0,0,0,0,0,0,0,0,0,0,0,0,0,0,
0,0,0,0,0,0,0,0,0,0,0,0,0,1371,0,0,0,0,0,0,0,0,0,0,0,0,0,0,0,0,0,0,0,0,
0,0,0,0,0,0,0,0,0,0,0,0,0,1371,0,1363,1363,1363,1363,1363,1363,1363,1363,1363,1363,1363,1363,1363,1363,1363,1363,1363,1363,1363,
0,0,0,0,0,0,0,0,0,0,0,0,0,1371,0,0,0,0,0,0,0,0,0,0,0,0,0,0,0,0,0,0,0,0,
0,0,0,0,0,0,0,0,0,0,0,0,0,1371,0,0,0,0,0,0,0,0,0,0,0,0,0,0,0,0,0,0,0,0,
0,0,0,0,0,0,0,0,0,0,0,0,0,0,0,0,0,0,0,0,0,0,0,0,0,0,0,0,0,0,0,0,0,0,
0,0,0,0,0,0,0,0,0,0,0,0,0,0,0,0,0,0,0,0,0,0,0,0,0,0,0,0,0,0,0,0,0,0,
0,0,0,0,0,0,0,0,0,0,0,0,0,0,0,0,0,0,0,0,0,0,0,0,0,0,0,0,0,0,0,0,0,0,
0,0,0,0,0,0,0,0,0,0,0,0,0,0,0,0,0,0,0,0,0,0,0,0,0,0,0,0,0,0,0,0,0,0,
0,0,0,0,0,0,0,0,0,0,0,0,0,0,0,0,0,0,0,0,0,0,0,0,0,0,0,0,0,0,0,0,0,0,
0,0,0,0,0,0,0,0,0,0,0,0,0,0,0,0,0,0,0,0,0,0,0,0,0,0,0,0,0,0,0,0,0,0,
0,0,0,0,0,0,0,0,0,0,0,0,0,0,0,0,0,0,0,0,0,0,0,0,0,0,0,0,0,0,0,0,0,0,
0,0,0,0,0,0,0,0,0,0,0,0,0,0,0,0,0,0,0,0,0,0,0,0,0,0,0,0,0,0,0,0,0,0,
0,0,0,0,0,0,0,0,0,0,0,0,0,0,0,0,0,0,0,0,0,0,0,0,0,0,0,0,0,0,0,0,0,0,
0,0,0,0,0,0,0,0,0,0,0,0,0,0,0,0,0,0,0,0,0,0,0,0,0,0,0,0,0,0,0,0,0,0,
0,0,0,0,0,0,0,0,0,0,0,0,0,0,0,0,0,0,0,0,0,0,0,0,0,0,0,0,0,0,0,0,0,0,
0,0,0,0,0,0,0,0,0,0,0,0,0,0,0,0,0,0,0,0,0,0,0,0,0,0,0,0,0,0,0,0,0,0,
0,0,0,0,0,0,0,0,0,0,0,0,0,0,0,0,0,0,0,0,0,0,0,0,0,0,0,0,0,0,0,0,0,0,
0,0,0,0,0,0,0,0,0,0,0,0,0,0,0,0,0,0,0,0,0,0,0,0,0,0,0,0,0,0,0,0,0,0,
0,0,0,0,0,0,0,0,0,0,0,0,0,0,0,0,0,0,0,0,0,0,0,0,0,0,0,0,0,0,0,0,0,0,
0,0,0,0,0,0,0,0,0,0,0,0,0,0,0,0,0,0,0,0,0,0,0,0,0,0,0,0,0,0,0,0,0,0,
0,0,0,0,0,0,0,0,0,0,0,0,0,0,0,0,0,0,0,0,0,0,0,0,0,0,0,0,0,0,0,0,0,0,
0,0,0,0,0,0,0,0,0,0,0,0,0,0,0,0,0,0,0,0,0,0,0,0,0,0,0,0,0,0,0,0,0,0,
1363,1363,1363,1363,1363,1363,1363,1363,1363,1363,1363,1363,1363,1363,1363,1363,1363,1363,1363,1363,1363,1363,1363,1363,1363,1363,1363,1363,1363,1363,1363,1363,1363,1363,
502,502,502,502,502,502,502,502,502,502,502,502,502,502,502,502,502,502,502,502,502,502,502,502,502,502,502,502,502,502,502,502,502,502,
502,502,502,502,502,502,502,502,502,502,502,502,502,502,502,502,502,502,502,502,502,502,502,502,502,502,502,502,502,502,502,502,502,502,
1391,1391,1391,1391,1391,1391,1391,1391,1391,1391,1391,1391,1391,1391,1391,1391,1391,1391,1391,1391,1391,1391,1391,1391,1391,1391,1391,1391,1391,1391,1391,1391,1391,1391,
0,0,0,0,0,0,0,0,0,961,962,963,0,0,0,0,0,0,0,0,0,0,0,0,0,0,0,0,0,0,0,0,0,0,
0,0,0,0,0,0,0,0,0,967,968,969,0,0,0,0,0,0,0,0,0,0,0,0,0,0,0,0,0,0,0,0,0,0,
0,0,0,0,0,0,0,0,0,973,974,975,0,0,0,0,0,0,0,0,0,0,0,0,0,0,0,0,0,0,0,0,961,962,
0,0,0,0,0,0,0,0,0,0,0,0,0,0,0,0,0,0,0,0,0,0,0,0,0,0,0,0,0,0,0,0,967,968,
0,0,0,0,0,0,0,0,0,0,0,0,0,0,0,0,0,0,0,0,0,0,0,0,0,0,0,0,0,0,0,0,973,974,
0,0,0,0,0,0,0,0,0,0,0,0,0,0,0,0,0,0,0,0,0,0,0,0,0,0,0,0,0,0,0,0,0,0,
0,0,0,0,0,0,0,0,0,0,0,0,0,0,0,0,0,0,0,0,0,0,0,0,0,0,0,0,0,0,0,0,0,0,
0,0,0,0,0,0,0,0,0,0,0,0,0,0,0,0,0,0,0,0,0,0,0,0,0,0,0,0,0,0,0,0,0,0,
0,0,0,0,0,0,0,0,0,0,0,0,713,713,714,0,0,0,0,0,713,713,714,0,0,0,0,0,0,0,0,0,0,0,
0,0,0,0,0,0,0,0,1134,1135,1136,1136,1135,1135,1137,0,1134,1135,1136,1136,1135,1135,1137,0,0,0,0,0,0,0,0,0,0,0,
0,0,0,0,0,0,0,0,1089,1090,1090,1090,1090,1090,1091,0,1089,1090,1090,1090,1090,1090,1091,0,0,0,0,0,0,0,0,0,0,0,
0,0,0,0,0,0,0,0,1099,1100,1100,1100,1100,1100,1101,0,1099,1100,1100,1100,1100,1100,1101,0,0,0,0,0,0,961,962,963,0,0,
0,0,0,0,0,588,0,0,1109,1110,1110,1110,1110,1110,1111,0,1109,1110,1110,1110,1110,1110,1111,0,0,0,0,0,0,967,968,969,0,0,
0,0,0,0,0,0,0,0,0,0,0,0,0,0,0,0,0,0,0,0,0,0,0,0,0,0,0,0,0,973,974,975,0,0,
0,0,0,0,0,0,0,0,0,0,0,0,0,0,0,0,0,0,0,0,0,0,0,0,0,0,0,0,0,0,0,0,0,0,
0,0,0,0,0,0,0,0,0,0,0,0,0,0,0,0,0,0,0,0,0,0,0,0,0,0,0,0,0,0,0,0,0,0
</data>
 </layer>
 <layer id="1" name="tiles3" width="34" height="44">
  <data encoding="csv">
0,0,0,0,0,0,0,0,502,502,502,0,0,0,0,0,0,0,0,0,0,0,0,0,0,0,0,0,0,0,0,0,0,0,
0,0,0,0,0,0,0,0,502,502,502,0,0,0,0,0,0,0,0,0,0,0,0,0,0,0,0,0,0,0,0,0,0,0,
1005,1005,1005,1005,1005,1005,1005,1005,502,502,502,0,0,0,0,0,0,0,0,0,0,0,0,0,0,0,0,0,0,0,0,0,0,0,
502,502,1353,502,502,502,502,502,502,1342,1351,0,0,0,0,0,0,0,0,0,0,0,0,0,0,0,0,0,0,0,0,0,0,0,
502,502,502,502,502,502,502,502,502,1347,1352,0,0,0,0,0,0,0,0,0,0,0,0,0,0,0,0,0,0,0,0,0,0,0,
1344,502,502,502,502,1343,502,502,502,502,502,0,0,0,0,0,0,0,0,0,0,0,0,0,0,0,0,0,0,0,0,0,0,0,
514,514,514,514,514,514,514,514,514,514,514,0,0,0,0,0,0,0,0,0,0,0,0,0,0,0,0,0,0,0,0,0,0,0,
0,0,0,0,0,0,0,0,0,0,0,0,0,0,0,0,0,0,0,0,0,0,0,0,0,0,0,0,0,0,0,0,0,0,
0,0,0,0,0,0,0,0,0,0,0,0,0,0,0,0,0,0,0,0,0,0,0,0,0,0,0,0,0,0,0,0,0,0,
0,0,0,0,0,0,0,0,0,0,0,0,0,0,0,0,0,0,0,0,0,0,0,0,0,0,0,0,0,0,0,0,0,0,
0,0,0,0,0,0,0,0,0,0,0,0,0,0,0,0,0,0,0,0,0,0,0,0,0,0,0,0,0,0,0,0,0,0,
0,0,0,0,0,0,0,0,0,0,0,0,0,0,0,0,0,0,0,0,0,0,0,0,0,0,0,0,0,0,0,0,0,0,
1005,1005,1005,1005,1005,1005,1005,1005,1005,1005,1005,1005,1005,0,0,0,1005,1005,1005,1005,1005,1005,1005,1005,1005,1005,1005,1005,1005,1005,1005,1005,1005,1005,
1341,1342,502,1347,1348,502,502,502,502,502,502,502,502,0,0,0,1340,1341,1342,502,502,1353,502,502,502,502,502,502,1347,1348,502,502,1343,1352,
1350,1348,502,502,502,502,502,1343,502,502,502,502,502,0,0,0,1349,1350,502,502,502,502,502,1353,502,502,502,502,502,502,502,1338,1340,1341,
502,502,502,502,502,1344,1342,1351,1352,1339,502,502,502,0,0,0,502,1338,1339,502,1344,502,502,502,1343,502,502,1351,1342,502,502,1347,1349,1350,
514,514,514,514,514,514,514,514,514,514,514,514,514,0,0,0,514,514,514,514,514,514,514,514,514,514,514,514,514,514,514,514,514,514,
0,0,0,0,0,0,0,0,0,0,0,0,0,0,0,0,0,0,0,0,0,0,0,0,0,0,0,0,0,0,0,0,0,0,
0,0,0,0,0,0,0,0,0,0,0,0,0,0,0,0,0,0,0,0,0,0,0,0,0,0,0,0,0,0,0,0,0,0,
0,0,0,0,0,0,0,0,0,0,0,0,0,0,0,0,0,0,0,0,0,0,0,0,0,0,0,0,0,0,0,0,0,0,
0,0,0,0,0,0,0,0,0,0,0,0,0,0,0,0,0,0,0,0,0,0,0,0,0,0,0,0,0,0,0,0,0,0,
0,0,0,0,0,0,0,0,0,0,0,0,0,0,0,0,0,0,0,0,0,0,0,0,0,0,0,0,0,0,0,0,0,0,
0,0,0,0,0,0,0,0,0,0,0,0,0,0,0,0,0,0,0,0,0,0,0,0,0,0,0,0,0,0,0,0,0,0,
0,0,0,0,0,0,0,0,0,0,0,0,0,0,0,0,0,0,0,0,0,0,0,961,962,963,0,963,0,0,0,0,0,0,
0,0,0,0,0,0,0,0,0,0,0,0,0,0,0,0,0,0,0,0,0,0,0,967,968,969,0,968,963,0,0,0,0,0,
0,0,0,0,0,0,0,0,0,0,0,0,0,0,0,0,0,0,0,0,0,0,0,967,968,969,0,968,968,963,0,0,0,0,
0,0,0,0,0,0,0,0,0,0,0,0,0,0,0,0,0,0,0,0,0,0,0,973,974,975,0,0,961,962,963,0,0,0,
0,0,0,0,0,0,0,0,0,0,0,0,0,0,0,0,0,0,0,0,0,0,0,0,0,0,0,0,967,968,969,0,0,0,
0,0,0,0,0,0,0,0,0,0,0,0,0,0,0,0,0,0,0,0,0,0,0,0,0,973,974,974,973,974,975,0,0,0,
0,0,0,0,0,0,0,0,0,0,0,0,1125,1125,1127,0,1124,1125,1126,1126,1125,1126,1127,0,0,0,961,962,0,962,962,963,0,0,
0,0,0,0,0,0,0,0,1134,1136,1135,1135,1136,1136,1137,0,1134,1135,1136,1136,1135,1135,1137,0,0,0,967,968,0,968,968,969,0,0,
0,0,0,0,0,0,0,0,1089,1090,1090,1090,1090,1090,1091,1005,1089,1090,1090,1090,1090,1090,1091,0,0,0,973,974,961,962,963,0,0,0,
0,0,0,0,0,0,0,0,1099,1100,1100,1100,1100,1100,1101,502,1099,1100,1100,1100,1100,1100,1101,0,0,0,0,0,967,968,969,0,0,0,
0,0,0,0,0,0,0,0,1109,1110,1110,1110,1110,1110,1111,502,1109,1110,1110,1110,1110,1110,1111,0,0,0,0,0,973,974,975,967,968,969,
0,0,0,0,0,0,0,564,1340,1341,1351,502,502,502,502,502,502,502,1338,1339,502,1343,502,0,0,0,0,0,0,0,0,967,968,969,
0,0,0,0,0,0,564,570,1349,1350,1342,502,502,502,502,502,502,1352,1347,1348,502,502,1344,0,0,0,0,0,0,0,0,967,968,969,
0,0,0,0,0,564,570,1358,508,508,508,508,508,508,508,508,508,508,508,508,508,508,508,0,0,0,0,0,0,0,961,962,963,0,
0,0,0,0,564,570,1358,593,588,0,0,0,0,0,0,0,0,0,0,0,0,0,0,0,0,0,0,0,0,0,967,968,961,962,
0,0,502,1344,570,1358,593,588,0,0,0,0,0,0,0,0,0,0,0,0,0,0,0,0,0,0,0,0,0,0,973,974,967,968,
0,0,502,502,1358,593,588,0,0,0,0,0,0,0,0,0,0,0,0,0,0,0,0,0,0,0,0,0,0,0,0,0,973,974,
0,0,502,502,1368,1005,1005,1005,1005,1005,1005,1005,1005,1005,1005,1005,1005,1005,1005,1005,1005,1005,1005,1005,1005,1005,1005,1005,1005,1005,1005,1005,0,1005,
0,0,1340,1341,1338,1339,502,502,502,502,502,1342,1338,1339,1352,502,502,502,502,1353,1338,1339,502,1340,1341,1352,502,1344,502,502,502,1343,502,502,
0,0,1349,1350,1342,1348,502,502,502,1343,1353,502,1347,1351,502,502,502,502,502,502,1347,1348,1342,1349,1350,1351,502,502,502,1344,1343,502,502,1338,
0,0,1356,1356,1356,1356,1356,1356,1356,1356,1356,1356,1356,1356,1356,1356,1356,1356,1356,1356,1356,1356,1356,1356,1356,1356,1356,1356,1356,1356,1356,1356,1356,1356
</data>
 </layer>
 <objectgroup id="17" name="objects_tile">
  <object id="109" name="lavagradient" x="80" y="1720" width="1280" height="40">
   <properties>
    <property name="additive" type="bool" value="true"/>
    <property name="color" type="color" value="#ffffa040"/>
    <property name="scale" type="float" value="0.75"/>
   </properties>
  </object>
  <object id="114" name="lavagradient" x="0" y="1080" width="1360" height="40">
   <properties>
    <property name="additive" type="bool" value="true"/>
    <property name="color" type="color" value="#ffffa040"/>
    <property name="scale" type="float" value="0.75"/>
   </properties>
  </object>
 </objectgroup>
 <layer id="2" name="tiles2" width="34" height="44">
  <data encoding="csv">
0,0,0,0,0,0,0,0,0,0,0,0,0,0,0,0,0,0,0,0,0,0,0,0,0,0,0,0,0,0,0,0,0,0,
0,0,0,0,0,0,0,0,0,0,0,0,0,0,0,0,0,0,0,0,0,0,0,0,0,0,0,0,0,0,0,0,0,0,
0,0,0,0,0,0,0,0,0,0,0,0,0,0,0,0,0,0,0,0,0,0,0,0,0,0,0,0,0,0,0,0,0,0,
0,0,0,0,0,0,0,0,0,0,0,0,0,0,0,0,0,0,0,0,0,0,0,0,0,0,0,0,0,0,0,0,0,0,
0,0,0,0,0,0,0,0,0,0,0,0,0,0,0,0,0,0,0,0,0,0,0,0,0,0,0,0,0,0,0,0,0,0,
0,0,0,0,0,0,0,0,0,0,0,0,0,0,0,0,0,0,0,0,0,0,0,0,0,0,0,0,0,0,0,0,0,0,
0,0,0,0,0,0,0,0,0,0,0,0,0,0,0,0,0,0,0,0,0,0,0,0,0,0,0,0,0,0,0,0,0,0,
0,0,0,0,0,0,0,0,0,0,0,0,0,0,0,0,0,0,0,0,0,0,0,0,0,0,0,0,0,0,0,0,0,0,
0,0,0,0,0,0,0,0,0,0,0,0,0,0,0,0,0,0,0,0,0,0,0,0,0,0,0,0,0,0,0,0,0,0,
0,0,0,0,0,0,0,0,0,0,0,0,0,0,0,0,0,0,0,0,0,0,0,0,0,0,0,0,0,0,0,0,0,0,
0,0,0,0,0,0,0,0,0,0,0,0,0,0,0,0,0,0,0,0,0,0,0,0,0,0,0,0,0,0,0,0,0,0,
0,0,0,0,0,0,0,0,0,0,0,0,0,0,0,0,0,0,0,0,0,0,0,0,0,0,0,0,0,0,0,0,0,0,
0,0,0,0,0,0,0,0,0,0,0,0,0,0,0,0,0,0,0,0,0,0,0,0,0,0,0,0,0,0,0,0,0,0,
0,0,0,0,0,0,0,0,0,0,0,0,0,0,0,0,0,0,0,0,0,0,0,0,0,0,0,0,0,0,0,0,0,0,
0,0,0,0,0,0,0,0,0,0,0,0,0,0,0,0,0,0,0,0,0,0,0,0,0,0,0,0,0,0,0,0,0,0,
0,0,0,0,0,0,0,0,0,0,0,0,0,0,0,0,0,0,0,0,0,0,0,0,0,0,0,0,0,0,0,0,0,0,
0,0,0,0,0,0,0,0,0,0,0,0,0,0,0,0,0,0,0,0,0,0,0,0,0,0,0,0,0,0,0,0,0,0,
0,0,0,0,0,0,0,0,0,0,0,0,0,0,0,0,0,0,0,0,0,0,0,0,0,0,0,0,0,0,0,0,0,0,
0,0,0,0,0,0,0,0,0,0,0,0,0,0,0,0,0,0,0,0,0,0,0,0,0,0,0,0,0,0,0,0,0,0,
0,0,0,0,0,0,0,0,0,0,0,0,0,0,0,0,0,0,0,0,0,0,0,0,0,0,0,0,0,0,0,0,0,0,
0,0,0,0,0,0,0,0,0,0,0,0,0,0,0,0,0,0,0,0,0,0,0,0,0,0,0,0,0,0,0,0,0,0,
0,0,0,0,0,0,0,0,0,0,0,0,0,0,0,0,0,0,0,0,0,0,0,0,0,0,0,0,0,0,0,0,0,0,
0,0,0,0,0,0,0,0,0,0,0,0,0,0,0,0,0,0,0,0,0,0,0,0,964,959,960,0,0,0,0,0,0,0,
0,0,0,0,0,0,0,0,0,0,0,0,0,0,0,0,0,0,0,0,0,0,0,0,964,965,965,960,0,0,0,0,0,0,
0,0,0,0,0,0,0,0,0,0,0,0,0,0,0,0,0,0,0,0,0,0,0,0,964,1603,965,966,0,0,0,0,0,0,
0,0,0,0,0,0,0,0,0,0,0,0,0,0,0,0,0,0,0,0,0,0,0,0,964,965,965,965,959,960,0,0,0,0,
0,0,0,0,0,0,0,0,0,0,0,0,0,0,0,0,0,0,0,0,0,0,0,0,964,1603,965,1603,1603,966,0,0,0,0,
0,0,0,0,0,0,0,0,958,959,960,0,0,0,0,0,0,0,0,0,0,0,0,0,970,967,968,965,965,966,0,0,0,0,
0,0,0,0,0,0,0,0,964,965,966,0,0,0,0,0,0,0,0,0,0,0,0,0,0,0,0,964,965,966,0,0,0,0,
0,0,0,0,0,0,0,0,970,971,972,0,0,0,0,0,0,1168,0,0,0,0,0,0,0,0,0,964,1603,966,0,0,0,0,
0,0,0,0,0,0,0,0,0,0,1168,0,0,0,0,0,0,0,0,0,0,0,0,0,0,0,0,964,1603,966,958,959,959,960,
0,0,0,0,0,0,0,0,0,0,0,0,0,0,0,0,0,0,0,0,0,0,0,0,0,0,0,964,1603,965,965,1603,703,966,
0,0,0,0,0,0,0,0,0,0,0,0,0,0,0,0,0,0,0,0,0,0,0,0,0,0,0,970,971,971,971,965,1603,966,
0,0,0,0,0,0,0,0,0,0,0,0,0,0,0,0,0,0,0,0,0,0,0,0,0,0,0,0,0,0,0,970,971,972,
0,0,0,0,0,0,0,0,0,0,0,0,0,0,0,0,0,1159,0,0,1180,0,0,0,0,0,0,0,0,0,0,0,0,0,
0,0,0,0,0,0,0,0,0,0,0,0,1169,0,0,0,0,0,0,0,0,0,0,0,0,0,0,0,0,0,0,958,959,960,
0,0,0,0,0,0,0,0,0,0,0,0,0,0,0,0,0,0,0,0,0,0,0,0,0,0,0,0,0,0,0,964,965,966,
0,0,0,0,0,0,0,0,0,0,0,0,0,0,0,0,0,0,0,0,0,0,0,0,0,0,0,0,0,0,0,964,965,966,
0,0,0,0,0,0,0,0,0,0,0,0,0,0,0,0,0,0,0,0,0,0,0,0,0,0,0,0,0,0,0,964,965,966,
0,0,0,0,0,0,0,0,0,0,0,0,0,0,0,0,0,0,0,0,0,0,0,0,0,0,0,0,0,0,0,964,965,966,
0,0,0,0,1005,0,0,0,0,0,0,0,0,0,0,0,0,0,0,0,0,0,0,0,0,0,0,0,0,0,0,964,707,966,
0,0,0,0,0,0,0,0,0,1178,0,0,0,0,0,0,0,0,0,0,0,0,0,0,0,0,0,0,0,0,0,0,0,0,
0,0,0,0,0,0,0,0,0,0,0,0,0,0,0,0,0,0,0,0,0,0,0,0,0,0,0,0,0,0,0,0,0,0,
0,0,0,0,0,0,0,0,0,0,0,0,0,0,0,0,0,0,0,0,0,0,0,0,0,0,0,0,0,0,0,0,0,0
</data>
 </layer>
 <layer id="4" name="tiles1" width="34" height="44">
  <data encoding="csv">
0,0,0,0,0,0,0,0,0,0,0,0,0,0,0,0,0,1572,1555,1556,1557,1572,1572,1555,1556,1557,1572,0,0,0,0,0,0,0,
0,0,0,0,0,0,0,0,0,0,0,0,0,0,0,0,0,1536,1564,1565,1566,1536,1536,1564,1565,1566,1536,0,0,0,0,0,0,0,
0,0,0,0,0,0,0,0,0,0,0,0,0,0,0,0,0,1536,1555,0,1566,1536,1536,1555,0,1566,1536,0,0,0,0,0,0,0,
0,0,0,0,0,0,0,0,0,0,0,0,0,0,0,0,0,1536,1742,1743,1744,1536,1536,1742,1743,1744,1536,0,0,0,0,0,0,0,
0,0,0,0,0,0,0,0,0,0,0,0,0,0,0,0,0,1536,1748,1749,1750,1536,1536,1748,1749,1750,1536,0,0,0,0,0,0,0,
0,0,0,0,0,0,0,0,0,0,0,0,0,0,0,0,0,1536,1766,1767,1768,1536,1536,1766,1767,1768,1536,0,0,0,0,0,0,0,
0,0,0,0,0,0,0,0,0,0,0,0,0,0,0,0,0,1536,1772,1773,1774,1536,1536,1772,1773,1774,1536,0,0,0,0,0,0,0,
0,0,0,0,0,0,0,0,0,0,0,0,0,0,0,0,0,1536,1778,1779,1780,1536,1536,1778,1779,1780,1536,0,0,0,0,0,0,0,
0,0,1572,1784,1785,1786,1572,1572,1784,1785,1786,1572,0,0,0,0,0,1572,1784,1785,1786,1572,1572,1784,1785,1786,1572,0,0,0,0,0,0,0,
0,0,1536,1546,1565,1548,1536,1536,1546,1565,1548,1536,0,0,0,0,0,1536,1546,1565,1548,1536,1536,1546,1565,1548,1536,0,0,0,0,0,0,0,
0,0,1545,1564,1565,1566,1545,1545,1564,1565,1566,1545,0,0,0,0,0,1545,1564,1565,1566,1545,1545,1564,1565,1566,1545,0,0,0,0,0,0,0,
0,0,1554,1564,1565,1566,1554,1554,1564,1565,1566,1554,0,0,0,0,0,1554,1564,1565,1566,1554,1554,1564,1565,1566,1554,0,0,0,0,0,0,0,
0,0,1563,1005,1005,1005,1563,1563,1005,1005,1005,1563,0,0,0,0,0,1563,1005,1005,1005,1563,1563,1005,1005,1005,1563,0,0,0,0,0,0,0,
0,0,0,0,0,0,0,0,0,0,0,0,0,0,0,0,0,0,0,0,0,0,0,0,0,0,0,0,0,0,0,0,0,0,
0,0,0,0,0,0,0,0,0,0,0,0,0,0,0,0,0,0,0,0,0,0,0,0,0,0,0,0,0,0,0,0,0,0,
0,0,0,0,0,0,0,0,0,0,0,0,0,0,0,0,0,0,0,0,0,0,0,0,0,0,0,0,0,0,0,0,0,0,
0,0,0,0,0,0,0,0,0,475,0,0,0,0,0,0,0,0,0,0,0,0,0,0,0,475,0,0,0,0,0,0,0,0,
0,0,0,0,0,0,0,0,0,481,0,0,0,0,0,0,0,0,0,0,0,0,0,0,0,481,0,0,0,0,0,0,0,0,
0,0,0,0,0,0,0,0,0,481,0,0,0,0,0,0,0,0,0,0,0,0,0,0,0,481,0,0,0,0,0,0,0,0,
0,0,0,0,0,0,0,0,0,481,0,0,0,0,0,0,0,0,0,0,0,0,0,0,0,481,0,0,0,0,0,0,0,0,
0,0,0,0,0,0,0,0,0,481,0,0,0,0,0,0,0,0,0,0,0,0,0,0,0,481,0,0,0,0,0,0,0,0,
0,0,0,0,0,0,0,0,0,481,0,0,0,0,0,0,0,0,0,0,0,0,0,0,0,481,0,0,0,0,0,0,0,0,
0,0,0,0,0,0,0,0,0,481,0,0,0,0,0,0,0,0,0,0,0,0,0,0,0,487,0,0,0,0,0,0,0,0,
0,0,0,0,0,0,0,0,0,481,0,0,0,0,0,0,0,0,0,0,0,0,0,0,0,0,0,0,0,0,0,0,0,0,
0,0,0,0,0,0,0,0,0,481,0,0,0,0,0,0,0,0,0,0,0,0,0,0,0,0,0,0,0,0,0,0,0,0,
0,0,0,0,0,0,0,0,0,481,0,0,0,0,0,0,0,0,0,0,0,0,0,0,0,0,0,0,0,0,0,0,0,0,
0,0,0,0,0,0,0,0,0,481,0,0,0,0,0,0,0,0,0,0,0,0,0,0,0,0,0,0,0,0,0,0,0,0,
0,0,0,0,0,0,0,0,0,481,0,0,0,0,0,0,0,0,0,0,0,0,0,0,0,971,971,0,0,0,0,0,0,0,
0,0,0,0,0,0,0,0,0,487,0,0,0,0,0,0,0,0,0,0,0,0,0,0,0,0,0,0,0,0,0,0,0,0,
0,0,0,0,0,0,0,0,1124,1126,1125,1125,0,0,0,0,0,0,0,0,0,0,0,0,0,0,0,0,0,0,0,0,0,0,
0,0,0,0,0,0,0,0,0,0,0,0,0,0,0,0,0,0,0,0,0,0,0,0,0,0,0,0,0,0,0,0,0,0,
0,0,0,0,0,0,0,0,0,0,0,1133,0,0,0,0,0,0,0,1133,0,0,0,0,0,0,0,0,0,0,0,0,0,0,
0,0,0,0,0,0,0,0,0,0,0,1143,0,0,0,0,0,0,0,1143,0,0,0,0,0,0,0,0,0,0,0,0,0,0,
0,0,0,0,0,0,0,0,0,0,0,1153,0,0,0,0,0,0,0,1153,0,0,0,0,0,0,0,0,0,0,0,0,0,0,
0,0,0,0,0,0,0,0,0,0,0,0,0,0,0,0,0,0,0,0,0,0,0,0,0,0,0,0,0,0,0,0,0,0,
0,0,0,0,0,0,0,0,0,0,0,0,0,0,0,0,0,0,0,0,0,0,0,0,0,0,0,0,0,0,0,0,475,0,
0,0,0,0,0,0,0,0,0,0,0,0,0,0,0,0,0,0,0,0,0,0,0,0,0,0,0,0,0,0,0,0,481,0,
0,0,0,0,0,0,0,0,0,0,0,0,0,0,0,0,0,0,0,0,0,0,0,0,0,0,0,0,0,0,0,0,481,0,
0,0,0,0,0,0,0,0,0,0,0,0,0,0,0,0,0,0,0,0,0,0,0,0,0,0,0,0,0,0,0,0,481,0,
0,0,0,0,0,0,0,0,0,0,0,0,0,0,0,0,0,0,0,0,0,0,0,0,0,0,0,0,0,0,0,0,481,0,
0,0,0,0,0,0,0,0,0,0,0,0,0,0,0,0,0,0,0,0,0,0,0,0,0,0,0,0,0,0,0,0,487,0,
0,0,0,0,0,0,0,0,0,0,0,0,0,0,0,0,0,0,0,0,0,0,0,0,0,0,0,0,0,0,0,0,0,0,
0,0,0,0,0,0,0,0,0,0,0,0,0,0,0,0,0,0,0,0,0,0,0,0,0,0,0,0,0,0,0,0,0,0,
0,0,0,0,0,0,0,0,0,0,0,0,0,0,0,0,0,0,0,0,0,0,0,0,0,0,0,0,0,0,0,0,0,0
</data>
 </layer>
 <layer id="21" name="tile_silhouette" width="34" height="44">
  <data encoding="csv">
0,0,0,0,0,0,0,0,0,0,0,0,0,0,0,0,0,0,0,0,0,0,0,0,0,0,0,0,0,0,0,0,0,0,
0,0,0,0,0,0,0,0,0,0,0,0,0,0,0,0,0,0,0,0,0,0,0,0,0,0,0,0,0,0,0,0,0,0,
0,0,0,0,0,0,0,0,0,0,0,0,0,0,0,0,0,0,0,0,0,0,0,0,0,0,0,0,0,0,0,0,0,0,
0,0,0,0,0,0,0,0,0,0,0,0,0,0,0,0,0,0,0,0,0,0,0,0,0,0,0,0,0,0,0,0,0,0,
0,0,0,0,0,0,0,0,0,0,0,0,0,0,0,0,0,0,0,0,0,0,0,0,0,0,0,0,0,0,0,0,0,0,
0,0,0,0,0,0,0,0,0,0,0,0,0,0,0,0,0,0,0,0,0,0,0,0,0,0,0,0,0,0,0,0,0,0,
0,0,0,0,0,0,0,0,0,0,0,0,0,0,0,0,0,0,0,0,0,0,0,0,0,0,0,0,0,0,0,0,0,0,
0,0,0,0,0,0,0,0,0,0,0,0,0,0,0,0,0,0,0,0,0,0,0,0,0,0,0,0,0,0,0,0,0,0,
0,0,0,0,0,0,0,0,0,0,0,0,0,0,0,0,0,0,0,0,0,0,0,0,0,0,0,0,0,0,0,0,0,0,
0,0,0,0,0,0,0,0,0,0,0,0,0,0,0,0,0,0,0,0,0,0,0,0,0,0,0,0,0,0,0,0,0,0,
0,0,0,0,0,0,0,0,0,0,0,0,0,0,0,0,0,0,0,0,0,0,0,0,0,0,0,0,0,0,0,0,0,0,
0,0,0,0,0,0,0,0,0,0,0,0,0,0,0,0,0,0,0,0,0,0,0,0,0,0,0,0,0,0,0,0,0,0,
0,0,0,0,0,0,0,0,0,0,0,0,0,0,0,0,0,0,0,0,0,0,0,0,0,0,0,0,0,0,0,0,0,0,
0,0,0,0,0,0,0,0,0,0,0,0,0,0,0,0,0,0,0,0,0,0,0,0,0,0,0,0,0,0,0,0,0,0,
0,0,0,0,0,0,0,0,0,0,0,0,0,0,0,0,0,0,0,0,0,0,0,0,0,0,0,0,0,0,0,0,0,0,
0,0,0,0,0,0,0,0,0,0,0,0,0,0,0,0,0,0,0,0,0,0,0,0,0,0,0,0,0,0,0,0,0,0,
0,0,0,0,0,0,0,0,0,475,0,0,0,0,0,0,0,0,0,0,0,0,0,0,0,475,0,0,0,0,0,0,0,0,
0,0,0,0,0,0,0,0,0,481,0,0,0,0,0,0,0,0,0,0,0,0,0,0,0,481,0,0,0,0,0,0,0,0,
0,0,0,0,0,0,0,0,0,481,0,0,0,0,0,0,0,0,0,0,0,0,0,0,0,481,0,0,0,0,0,0,0,0,
0,0,0,0,0,0,0,0,0,481,0,0,0,0,0,0,0,0,0,0,0,0,0,0,0,481,0,0,0,0,0,0,0,0,
0,0,0,0,0,0,0,0,0,481,0,0,0,0,0,0,0,0,0,0,0,0,0,0,0,481,0,0,0,0,0,0,0,0,
0,0,0,0,0,0,0,0,0,481,0,0,0,0,0,0,0,0,0,0,0,0,0,0,0,481,0,0,0,0,0,0,0,0,
0,0,0,0,0,0,0,0,0,481,0,0,0,0,0,0,0,0,0,0,0,0,0,0,0,487,0,0,0,0,0,0,0,0,
0,0,0,0,0,0,0,0,0,481,0,0,0,0,0,0,0,0,0,0,0,0,0,0,0,0,0,0,0,0,0,0,0,0,
0,0,0,0,0,0,0,0,0,481,0,0,0,0,0,0,0,0,0,0,0,0,0,0,0,1726,0,0,0,0,0,0,0,0,
0,0,0,0,0,0,0,0,0,481,0,0,0,0,0,0,0,0,0,0,0,0,0,0,0,0,0,0,0,0,0,0,0,0,
0,0,0,0,0,0,0,0,0,481,0,0,0,0,0,0,0,0,0,0,0,0,0,0,0,1726,0,1726,1726,0,0,0,0,0,
0,0,0,0,0,0,0,0,0,481,0,0,0,0,0,0,0,0,0,0,0,0,0,0,0,0,0,0,0,0,0,0,0,0,
0,0,0,0,0,0,0,0,0,487,0,0,0,0,0,0,0,0,0,0,0,0,0,0,0,0,0,0,0,0,0,0,0,0,
0,0,0,0,0,0,0,0,0,0,0,0,0,0,0,0,0,0,0,0,0,0,0,0,0,0,0,0,1726,0,0,0,0,0,
0,0,0,0,0,0,0,0,0,0,0,0,0,0,0,0,0,0,0,0,0,0,0,0,0,0,0,0,1726,0,0,0,0,0,
0,0,0,0,0,0,0,0,0,0,0,475,0,0,0,0,0,0,0,475,0,0,0,0,0,0,0,0,1726,0,0,1726,1729,0,
0,0,0,0,0,0,0,0,0,0,0,481,0,0,0,0,0,0,0,481,0,0,0,0,0,0,0,0,0,0,0,0,1726,0,
0,0,0,0,0,0,0,0,0,0,0,487,0,0,0,0,0,0,0,487,0,0,0,0,0,0,0,0,0,0,0,0,0,0,
0,0,0,0,0,0,0,0,0,0,0,0,0,0,0,0,0,0,0,0,0,0,0,0,0,0,0,0,0,0,0,0,0,0,
0,0,0,0,0,0,0,0,0,0,0,0,0,0,0,0,0,0,0,0,0,0,0,0,0,0,0,0,0,0,0,0,475,0,
0,0,0,0,0,0,0,0,0,0,0,0,0,0,0,0,0,0,0,0,0,0,0,0,0,0,0,0,0,0,0,0,481,0,
0,0,0,0,0,0,0,0,0,0,0,0,0,0,0,0,0,0,0,0,0,0,0,0,0,0,0,0,0,0,0,0,481,0,
0,0,0,0,0,0,0,0,0,0,0,0,0,0,0,0,0,0,0,0,0,0,0,0,0,0,0,0,0,0,0,0,481,0,
0,0,0,0,0,0,0,0,0,0,0,0,0,0,0,0,0,0,0,0,0,0,0,0,0,0,0,0,0,0,0,0,481,0,
0,0,0,0,0,0,0,0,0,0,0,0,0,0,0,0,0,0,0,0,0,0,0,0,0,0,0,0,0,0,0,0,487,0,
0,0,0,0,0,0,0,0,0,0,0,0,0,0,0,0,0,0,0,0,0,0,0,0,0,0,0,0,0,0,0,0,0,0,
0,0,0,0,0,0,0,0,0,0,0,0,0,0,0,0,0,0,0,0,0,0,0,0,0,0,0,0,0,0,0,0,0,0,
0,0,0,0,0,0,0,0,0,0,0,0,0,0,0,0,0,0,0,0,0,0,0,0,0,0,0,0,0,0,0,0,0,0
</data>
 </layer>
 <objectgroup color="#00ffff" id="15" name="climbing" class="objects">
  <object id="119" type="climbarea" x="1280" y="1400" width="40" height="200"/>
  <object id="120" type="climbarea" x="1280" y="1240" width="40" height="80"/>
  <object id="121" type="climbarea" x="1240" y="1240" width="40" height="40"/>
  <object id="122" type="climbarea" x="1120" y="1240" width="40" height="40"/>
  <object id="123" type="climbarea" x="1120" y="1160" width="40" height="80"/>
  <object id="126" type="climbarea" x="1080" y="1040" width="80" height="40"/>
  <object id="127" type="climbarea" x="1000" y="1040" width="40" height="40"/>
  <object id="128" type="climbarea" x="1000" y="960" width="40" height="40"/>
  <object id="129" type="climbarea" x="1000" y="680" width="40" height="240"/>
  <object id="134" type="climbarea" x="360" y="680" width="40" height="440"/>
 </objectgroup>
 <objectgroup id="6" name="collision">
  <object id="22" x="160" y="1600" width="1200" height="40"/>
  <object id="40" x="80" y="1480" width="80" height="40"/>
  <object id="42" x="80" y="1720" width="1280" height="40"/>
  <object id="44" x="40" y="1520" width="40" height="200"/>
  <object id="45" x="160" y="1520">
   <polygon points="0,0 160,-160 0,-160 0,0"/>
  </object>
  <object id="46" x="160" y="1600">
   <polygon points="0,0 160,-160 160,0"/>
  </object>
  <object id="47" x="320" y="1440" width="600" height="40"/>
  <object id="49" x="920" y="1360" width="40" height="80"/>
  <object id="66" x="920" y="1160" width="40" height="80"/>
  <object id="67" x="642" y="1240" width="118" height="120"/>
  <object id="68" x="320" y="1240" width="120" height="120"/>
  <object id="69" x="600" y="1160" width="40" height="120"/>
  <object id="71" x="320" y="1120" width="600" height="40"/>
  <object id="72" x="280" y="1160" width="40" height="80"/>
  <object id="90" x="0" y="640" width="1360" height="40"/>
  <object id="91" x="0" y="480" width="1360" height="40"/>
  <object id="131" x="0" y="0" width="320" height="120"/>
  <object id="132" x="440" y="0" width="40" height="240"/>
  <object id="133" x="0" y="240" width="480" height="40"/>
  <object id="137" x="520" y="520" width="120" height="120"/>
  <object id="180" x="480" y="1240" width="120" height="120"/>
  <object id="181" x="800" y="1240" width="118" height="120"/>
 </objectgroup>
 <objectgroup color="#aa00ff" id="8" name="markers">
  <object id="11" name="spawn" x="400" y="600">
   <point/>
  </object>
  <object id="29" name="entry" x="40" y="580">
   <point/>
  </object>
  <object id="75" name="entry2" x="1320" y="590">
   <point/>
  </object>
  <object id="93" name="entry3" x="1320" y="1680">
   <point/>
  </object>
  <object id="148" name="entry4" x="40" y="180">
   <point/>
  </object>
  <object id="167" x="380" y="610">
   <point/>
  </object>
  <object id="168" x="1020" y="610">
   <point/>
  </object>
  <object id="171" x="1300" y="1700">
   <point/>
  </object>
  <object id="182" x="380" y="1220">
   <point/>
  </object>
  <object id="195" x="460" y="1420">
   <point/>
  </object>
  <object id="196" x="460" y="1210">
   <point/>
  </object>
  <object id="204" x="780" y="1420">
   <point/>
  </object>
  <object id="205" x="780" y="1210">
   <point/>
  </object>
 </objectgroup>
 <objectgroup color="#ff00b2" id="11" name="objects"/>
 <objectgroup color="#ff02ff" id="7" name="objects_party">
  <object id="150" name="transition" x="1360" y="1640" width="40" height="80">
   <properties>
    <property name="map" value="2_flooded_sanctuary/flooded_1_hellentrance"/>
    <property name="marker" value="entry"/>
   </properties>
  </object>
  <object id="151" name="transition" x="-40" y="520" width="40" height="120">
   <properties>
    <property name="map" value="2_flooded_sanctuary/flooded_0_between"/>
    <property name="marker" value="entry"/>
   </properties>
  </object>
  <object id="152" name="transition" x="1360" y="520" width="40" height="120">
   <properties>
    <property name="map" value="2_flooded_sanctuary/flooded_2"/>
    <property name="marker" value="entry"/>
   </properties>
  </object>
  <object id="153" name="transition" x="-40" y="120" width="40" height="120">
   <properties>
    <property name="map" value="2_flooded_sanctuary/flooded_0_between"/>
    <property name="marker" value="entry4"/>
   </properties>
  </object>
  <object id="159" name="npc" x="860" y="1200">
   <properties>
    <property name="actor" value="lobbyman"/>
    <property name="cutscene" value="lobbyman.flood"/>
   </properties>
   <point/>
  </object>
  <object id="165" name="climbentry" x="360" y="640" width="40" height="40">
   <properties>
    <property name="target" type="object" value="166"/>
   </properties>
  </object>
  <object id="166" name="climbexit" x="360" y="680" width="40" height="40">
   <properties>
    <property name="target" type="object" value="167"/>
   </properties>
  </object>
  <object id="169" name="climbentry" x="1000" y="640" width="40" height="40">
   <properties>
    <property name="target" type="object" value="170"/>
   </properties>
  </object>
  <object id="170" name="climbexit" x="1000" y="680" width="40" height="40">
   <properties>
    <property name="target" type="object" value="168"/>
   </properties>
  </object>
  <object id="172" name="climbentry" x="1280" y="1600" width="40" height="40">
   <properties>
    <property name="target" type="object" value="173"/>
   </properties>
  </object>
  <object id="173" name="climbexit" x="1280" y="1560" width="40" height="40">
   <properties>
    <property name="target" type="object" value="171"/>
   </properties>
  </object>
  <object id="183" name="climbentry" x="360" y="1120" width="40" height="40">
   <properties>
    <property name="target" type="object" value="184"/>
   </properties>
  </object>
  <object id="184" name="climbexit" x="360" y="1080" width="40" height="40">
   <properties>
    <property name="target" type="object" value="182"/>
   </properties>
  </object>
  <object id="190" type="climbarea" x="440" y="1240" width="40" height="120"/>
  <object id="191" name="climbentry" x="440" y="1240" width="40" height="40">
   <properties>
    <property name="target" type="object" value="192"/>
   </properties>
  </object>
  <object id="192" name="climbexit" x="440" y="1240" width="40" height="40">
   <properties>
    <property name="target" type="object" value="196"/>
   </properties>
  </object>
  <object id="193" name="climbentry" x="440" y="1320" width="40" height="40">
   <properties>
    <property name="target" type="object" value="194"/>
   </properties>
  </object>
  <object id="194" name="climbexit" x="440" y="1320" width="40" height="40">
   <properties>
    <property name="target" type="object" value="195"/>
   </properties>
  </object>
  <object id="199" type="climbarea" x="760" y="1240" width="40" height="120"/>
  <object id="200" name="climbentry" x="760" y="1240" width="40" height="40">
   <properties>
    <property name="target" type="object" value="201"/>
   </properties>
  </object>
  <object id="201" name="climbexit" x="760" y="1240" width="40" height="40">
   <properties>
    <property name="target" type="object" value="205"/>
   </properties>
  </object>
  <object id="202" name="climbentry" x="760" y="1320" width="40" height="40">
   <properties>
    <property name="target" type="object" value="203"/>
   </properties>
  </object>
  <object id="203" name="climbexit" x="760" y="1320" width="40" height="40">
   <properties>
    <property name="target" type="object" value="204"/>
   </properties>
  </object>
 </objectgroup>
 <layer id="24" name="tiles0" width="34" height="44">
  <data encoding="csv">
0,0,1572,1555,1556,1557,1572,1572,1555,1556,1557,1572,0,0,0,0,0,0,0,0,0,0,0,0,0,0,0,0,0,0,0,0,0,0,
0,0,1536,1564,1565,1566,1536,1536,1555,0,1566,1536,0,0,0,0,0,0,0,0,0,0,0,0,0,0,0,0,0,0,0,0,0,0,
0,0,1536,1555,0,1566,1536,1536,1555,0,1566,1536,0,0,0,0,0,0,0,0,0,0,0,0,0,0,0,0,0,0,0,0,0,0,
0,0,1536,1742,1743,1744,1536,1536,1742,1743,1744,1536,0,0,0,0,0,0,0,0,0,0,0,0,0,0,0,0,0,0,0,0,0,0,
0,0,1536,1748,1749,1750,1536,1536,1748,1749,1750,1536,0,0,0,0,0,0,0,0,0,0,0,0,0,0,0,0,0,0,0,0,0,0,
0,0,1536,1766,1767,1768,1536,1536,1766,1767,1768,1536,0,0,0,0,0,0,0,0,0,0,0,0,0,0,0,0,0,0,0,0,0,0,
0,0,1536,1772,1773,1774,1536,1536,1772,1773,1774,1536,0,0,0,0,0,0,0,0,0,0,0,0,0,0,0,0,0,0,0,0,0,0,
0,0,1536,1778,1779,1780,1536,1536,1778,1779,1780,1536,0,0,0,0,0,0,0,0,0,0,0,0,0,0,0,0,0,0,0,0,0,0,
0,0,0,0,0,0,0,0,0,0,0,0,0,0,0,0,0,0,0,0,0,0,0,0,0,0,0,0,0,0,0,0,0,0,
0,0,0,0,0,0,0,0,0,0,0,0,0,0,0,0,0,0,0,0,0,0,0,0,0,0,0,0,0,0,0,0,0,0,
0,0,0,0,0,0,0,0,0,0,0,0,0,0,0,0,0,0,0,0,0,0,0,0,0,0,0,0,0,0,0,0,0,0,
0,0,0,0,0,0,0,0,0,0,0,0,0,0,0,0,0,0,0,0,0,0,0,0,0,0,0,0,0,0,0,0,0,0,
0,0,0,0,0,0,0,0,0,0,0,0,0,0,0,0,0,0,0,0,0,0,0,0,0,0,0,0,0,0,0,0,0,0,
0,0,0,0,0,0,0,0,0,0,0,0,0,0,0,0,0,0,0,0,0,0,0,0,0,0,0,0,0,0,0,0,0,0,
0,0,0,0,0,0,0,0,0,0,0,0,0,0,0,0,0,0,0,0,0,0,0,0,0,0,0,0,0,0,0,0,0,0,
0,0,0,0,0,0,0,0,0,0,0,0,0,0,0,0,0,0,0,0,0,0,0,0,0,0,0,0,0,0,0,0,0,0,
0,0,0,0,0,0,0,0,0,0,0,0,0,0,0,0,0,0,0,0,0,0,0,0,0,0,0,0,0,0,0,0,0,0,
0,0,0,0,0,0,0,0,0,0,0,0,0,0,0,0,0,0,0,0,0,0,0,0,0,0,0,0,0,0,0,0,0,0,
0,0,0,0,0,0,0,0,0,0,0,0,0,0,0,0,0,0,0,0,0,0,0,0,0,0,0,0,0,0,0,0,0,0,
0,0,0,0,0,0,0,0,0,0,0,0,0,0,0,0,0,0,0,0,0,0,0,0,0,0,0,0,0,0,0,0,0,0,
0,0,0,0,0,0,0,0,0,0,0,0,0,0,0,0,0,0,0,0,0,0,0,0,0,0,0,0,0,0,0,0,0,0,
0,0,0,0,0,0,0,0,0,0,0,0,0,0,0,0,0,0,0,0,0,0,0,0,0,0,0,0,0,0,0,0,0,0,
0,0,0,0,0,0,0,0,0,0,0,0,0,0,0,0,0,0,0,0,0,0,0,0,0,0,0,0,0,0,0,0,0,0,
0,0,0,0,0,0,0,0,0,0,0,0,0,0,0,0,0,0,0,0,0,0,0,0,0,0,0,0,0,0,0,0,0,0,
0,0,0,0,0,0,0,0,0,0,0,0,0,0,0,0,0,0,0,0,0,0,0,0,0,0,0,0,0,0,0,0,0,0,
0,0,0,0,0,0,0,0,0,0,0,0,0,0,0,0,0,0,0,0,0,0,0,0,0,0,0,0,0,0,0,0,0,0,
0,0,0,0,0,0,0,0,0,0,0,0,0,0,0,0,0,0,0,0,0,0,0,0,0,0,0,0,0,0,0,0,0,0,
0,0,0,0,0,0,0,0,0,0,0,0,0,0,0,0,0,0,0,0,0,0,0,0,0,0,0,0,0,0,0,0,0,0,
0,0,0,0,0,0,0,0,0,0,0,0,0,0,0,0,0,0,0,0,0,0,0,0,0,0,0,0,0,0,0,0,0,0,
0,0,0,0,0,0,0,0,0,0,0,0,0,0,0,0,0,0,0,0,0,0,0,0,0,0,0,0,0,0,0,0,0,0,
0,0,0,0,0,0,0,0,0,0,0,0,0,0,0,0,0,0,0,0,0,0,0,0,0,0,0,0,0,0,0,0,0,0,
0,0,0,0,0,0,0,0,0,0,0,0,0,0,0,0,0,0,0,0,0,0,0,0,0,0,0,0,0,0,0,0,0,0,
0,0,0,0,0,0,0,0,0,0,0,0,0,0,0,0,0,0,0,0,0,0,0,0,0,0,0,0,0,0,0,0,0,0,
0,0,0,0,0,0,0,0,0,0,0,0,0,0,0,0,0,0,0,0,0,0,0,0,0,0,0,0,0,0,0,0,0,0,
0,0,0,0,0,0,0,0,0,0,0,0,0,0,0,0,0,0,0,0,0,0,0,0,0,0,0,0,0,0,0,0,0,0,
0,0,0,0,0,0,0,0,0,0,0,0,0,0,0,0,0,0,0,0,0,0,0,0,0,0,0,0,0,0,0,0,0,0,
0,0,0,0,0,0,0,0,0,0,0,0,0,0,0,0,0,0,0,0,0,0,0,0,0,0,0,0,0,0,0,0,0,0,
0,0,0,0,0,0,0,0,0,0,0,0,0,0,0,0,0,0,0,0,0,0,0,0,0,0,0,0,0,0,0,0,0,0,
0,0,0,0,0,0,0,0,0,0,0,0,0,0,0,0,0,0,0,0,0,0,0,0,0,0,0,0,0,0,0,0,0,0,
0,0,0,0,0,0,0,0,0,0,0,0,0,0,0,0,0,0,0,0,0,0,0,0,0,0,0,0,0,0,0,0,0,0,
0,0,0,0,0,0,0,0,0,0,0,0,0,0,0,0,0,0,0,0,0,0,0,0,0,0,0,0,0,0,0,0,0,0,
0,0,0,0,0,0,0,0,0,0,0,0,0,0,0,0,0,0,0,0,0,0,0,0,0,0,0,0,0,0,0,0,0,0,
0,0,0,0,0,0,0,0,0,0,0,0,0,0,0,0,0,0,0,0,0,0,0,0,0,0,0,0,0,0,0,0,0,0,
0,0,0,0,0,0,0,0,0,0,0,0,0,0,0,0,0,0,0,0,0,0,0,0,0,0,0,0,0,0,0,0,0,0
</data>
 </layer>
 <objectgroup id="22" name="objects_lightarea" visible="0">
  <object id="160" gid="1807" x="100" y="760" width="160" height="720">
   <properties>
    <property name="light" type="bool" value="true"/>
    <property name="light_alpha" type="float" value="0.1"/>
    <property name="light_color" type="color" value="#ffffffff"/>
    <property name="light_type" type="int" value="1"/>
   </properties>
  </object>
  <object id="161" gid="1807" x="300" y="760" width="160" height="720">
   <properties>
    <property name="light" type="bool" value="true"/>
    <property name="light_alpha" type="float" value="0.1"/>
    <property name="light_color" type="color" value="#ffffffff"/>
    <property name="light_type" type="int" value="1"/>
   </properties>
  </object>
  <object id="162" gid="1807" x="700" y="760" width="160" height="720">
   <properties>
    <property name="light" type="bool" value="true"/>
    <property name="light_alpha" type="float" value="0.1"/>
    <property name="light_color" type="color" value="#ffffffff"/>
    <property name="light_type" type="int" value="1"/>
   </properties>
  </object>
  <object id="163" gid="1807" x="900" y="760" width="160" height="720">
   <properties>
    <property name="light" type="bool" value="true"/>
    <property name="light_alpha" type="float" value="0.1"/>
    <property name="light_color" type="color" value="#ffffffff"/>
    <property name="light_type" type="int" value="1"/>
   </properties>
  </object>
  <object id="164" name="lightbeamfx" x="120" y="0">
   <point/>
  </object>
 </objectgroup>
 <objectgroup id="9" name="objects_overlay" locked="1">
  <object id="17" name="texturescroller" x="40" y="0">
   <properties>
    <property name="type" value="hsv"/>
   </properties>
   <point/>
  </object>
  <object id="18" name="churchfog" x="0" y="0">
   <point/>
  </object>
  <object id="154" name="parallax_waterfall" x="480" y="0" width="80" height="1760">
   <properties>
    <property name="parallax_x" type="float" value="1.2"/>
    <property name="parallax_y" type="float" value="1.2"/>
   </properties>
  </object>
  <object id="158" name="parallax_waterfall" x="1280" y="0" width="80" height="1760">
   <properties>
    <property name="parallax_x" type="float" value="1.2"/>
    <property name="parallax_y" type="float" value="1.2"/>
   </properties>
  </object>
 </objectgroup>
</map>
