<?xml version="1.0" encoding="UTF-8"?>
<map version="1.11" tiledversion="1.12.2" orientation="orthogonal" renderorder="right-down" width="30" height="24" tilewidth="40" tileheight="40" infinite="0" nextlayerid="20" nextobjectid="73">
 <editorsettings>
  <export target="data.lua" format="lua"/>
 </editorsettings>
 <properties>
  <property name="border" value="base_sanctum"/>
  <property name="ft_whitelist" type="bool" value="true"/>
  <property name="music" value="homebase"/>
  <property name="name" value="Base Sanctum - Center"/>
 </properties>
 <tileset firstgid="1" source="../../../tilesets/libraryexcerpt.tsx"/>
 <tileset firstgid="49" source="../../../tilesets/castle.tsx"/>
 <tileset firstgid="89" source="../../../tilesets/bg_dw_church_library_2_tileset.tsx"/>
 <tileset firstgid="349" source="../../../tilesets/bg_dw_church_tileset_new.tsx"/>
 <tileset firstgid="931" source="../../../tilesets/light_areas.tsx"/>
 <tileset firstgid="941" source="../../../tilesets/bg_dw_library_tileset_new.tsx"/>
 <tileset firstgid="1771" source="../../../tilesets/bg_dw_dither_overlay_tileset.tsx"/>
 <tileset firstgid="1817" source="../../../tilesets/church_objects.tsx"/>
 <objectgroup id="12" name="objects_bg">
  <object id="39" name="basesanctum_bg" x="40" y="0">
   <point/>
  </object>
 </objectgroup>
 <layer id="13" name="roomglow_dark_bg" width="30" height="24" visible="0">
  <data encoding="csv">
0,0,0,0,0,0,0,0,0,0,0,0,0,0,0,0,0,0,0,0,0,0,0,0,0,0,0,0,0,0,
0,0,0,0,0,0,0,0,0,0,0,0,0,0,0,0,0,0,0,0,0,0,0,0,0,0,0,0,0,0,
0,0,0,0,0,0,0,0,0,0,0,0,0,0,0,0,0,0,0,0,0,0,0,0,0,0,0,0,0,0,
0,0,0,0,0,0,0,0,0,0,0,0,0,0,0,0,0,0,0,0,0,0,0,0,0,0,0,0,0,0,
0,0,0,0,0,0,0,0,0,0,0,0,0,0,0,0,0,0,0,0,0,0,0,0,0,0,0,0,0,0,
0,0,0,0,0,0,0,0,0,0,0,0,0,0,0,0,0,0,0,0,0,0,0,0,0,0,0,0,0,0,
0,0,0,0,0,0,0,0,59,59,59,59,59,59,59,59,59,59,59,59,59,59,0,0,0,0,0,0,0,0,
0,0,0,0,0,0,0,0,59,59,59,59,59,59,59,59,59,59,59,59,59,59,0,0,0,0,0,0,0,0,
0,0,0,0,0,0,0,0,59,59,59,59,59,59,59,59,59,59,59,59,59,59,59,59,59,59,59,59,59,59,
0,0,0,0,0,0,0,0,0,0,0,0,0,0,0,0,0,0,0,0,0,0,0,0,0,0,0,0,0,0,
0,0,0,0,0,0,0,0,0,0,0,0,0,0,0,0,0,0,0,0,0,0,0,0,0,0,0,0,0,0,
0,0,0,0,0,0,0,0,0,0,0,0,0,0,0,0,0,0,0,0,0,0,0,0,0,0,0,0,0,0,
0,0,0,0,0,0,0,0,0,0,0,0,0,0,0,0,0,0,0,0,0,0,0,0,0,0,0,0,0,0,
0,0,0,0,0,0,0,0,0,0,0,0,0,0,0,0,0,0,0,0,0,0,0,0,0,0,0,0,0,0,
0,0,0,0,0,0,0,0,0,0,0,0,0,0,0,0,0,0,0,0,0,0,0,0,0,0,0,0,0,0,
0,0,0,0,0,0,0,0,0,0,0,0,0,0,0,0,0,0,0,0,0,0,0,0,0,0,0,0,0,0,
0,0,0,0,0,0,0,0,0,0,0,0,0,0,0,0,0,0,0,0,0,0,0,0,0,0,0,0,0,0,
0,0,0,0,0,0,0,0,0,0,0,0,0,0,0,0,0,0,0,0,0,0,0,0,0,0,0,0,0,0,
0,0,0,0,0,0,0,0,0,0,0,0,0,0,0,0,0,0,0,0,0,0,0,0,0,0,0,0,0,0,
0,0,0,0,0,0,0,0,0,0,0,0,0,0,0,0,0,0,0,0,0,0,0,0,0,0,0,0,0,0,
0,0,0,0,0,0,0,0,0,0,0,0,0,0,0,0,0,0,0,0,0,0,0,0,0,0,0,0,0,0,
0,0,0,0,0,0,0,0,0,0,0,0,0,0,0,0,0,0,0,0,0,0,0,0,0,0,0,0,0,0,
0,0,0,0,0,0,0,0,0,0,0,0,0,0,0,0,0,0,0,0,0,0,0,0,0,0,0,0,0,0,
0,0,0,0,0,0,0,0,0,0,0,0,0,0,0,0,0,0,0,0,0,0,0,0,0,0,0,0,0,0
</data>
 </layer>
 <layer id="16" name="black" width="30" height="24">
  <data encoding="csv">
0,0,0,0,0,0,0,0,0,0,0,0,0,0,0,0,0,0,0,0,0,0,0,0,0,0,0,0,0,0,
0,0,0,0,0,0,0,0,0,0,0,0,0,0,0,0,0,0,0,0,0,0,0,0,0,0,0,0,0,0,
0,0,0,0,0,0,0,0,0,0,0,0,0,0,0,0,0,0,0,0,0,0,0,0,0,0,0,0,0,0,
0,0,0,0,0,0,0,0,0,0,0,0,0,0,0,0,0,0,0,0,0,0,0,0,0,0,0,0,0,0,
0,0,0,0,0,0,0,0,0,0,0,0,0,0,0,0,0,0,0,0,0,0,0,0,0,0,0,0,0,0,
0,0,0,0,0,0,0,0,0,0,0,0,0,0,0,0,0,0,0,0,0,0,0,0,0,0,0,0,0,0,
0,0,0,0,0,0,0,0,0,0,0,0,0,0,0,0,0,0,0,0,0,0,0,0,0,0,0,0,0,0,
0,0,0,0,0,0,0,0,0,0,0,0,0,0,0,0,0,0,0,0,0,0,0,0,0,0,0,0,0,0,
0,0,0,0,0,0,0,0,0,0,0,0,0,0,0,0,0,0,0,0,0,0,0,0,0,0,0,0,0,0,
0,0,0,0,0,0,0,0,0,0,0,0,0,0,0,0,0,0,0,0,0,0,0,0,0,0,0,0,0,0,
0,0,0,0,0,0,0,0,0,0,0,0,0,0,0,0,0,0,0,0,0,0,0,0,0,0,0,0,0,0,
0,0,0,0,0,0,0,0,0,0,0,0,0,0,0,0,0,0,0,0,0,0,0,0,0,0,0,0,0,0,
0,0,0,0,0,0,0,0,0,0,0,0,0,0,0,0,0,0,0,0,0,0,0,0,0,0,0,0,0,0,
0,0,0,0,0,0,0,0,0,0,0,0,0,0,0,0,0,0,0,0,0,0,0,0,0,0,0,0,0,0,
0,0,0,0,0,0,0,0,0,0,0,0,0,0,0,0,0,0,0,0,0,0,0,0,0,0,0,0,0,0,
0,0,0,0,0,0,0,0,0,0,0,0,0,0,0,0,0,0,0,0,0,0,0,0,0,0,0,0,0,0,
0,0,0,0,0,0,0,0,0,0,0,0,0,0,0,0,0,0,0,0,0,0,0,0,0,0,0,0,0,0,
0,0,0,0,0,0,0,0,0,0,0,0,0,0,0,0,0,0,0,0,0,0,0,0,0,0,0,0,0,0,
0,0,0,0,0,0,0,0,0,0,0,0,0,0,0,0,0,0,0,0,0,0,0,0,0,0,0,0,0,0,
0,0,0,0,0,0,0,0,0,0,0,0,0,0,0,0,0,0,0,0,0,0,0,0,0,0,0,0,0,0,
0,0,0,0,0,0,0,0,0,0,0,0,0,0,0,0,0,0,0,0,0,0,0,0,0,0,0,0,0,0,
0,0,0,0,0,0,0,0,0,0,0,0,0,0,0,0,0,0,0,0,0,0,0,0,0,0,0,0,0,0,
0,0,0,0,0,0,0,0,0,0,0,0,0,0,0,0,0,0,0,0,0,0,0,0,0,0,0,0,0,0,
0,0,0,0,0,0,0,0,0,0,0,0,0,0,0,0,0,0,0,0,0,0,0,0,0,0,0,0,0,0
</data>
 </layer>
 <layer id="8" name="Tile Layer 3" width="30" height="24" tintcolor="#000000">
  <data encoding="csv">
0,0,0,0,0,0,0,0,0,0,0,0,0,0,0,0,0,0,0,0,0,0,0,0,0,0,0,0,0,0,
0,0,0,0,0,0,0,0,0,0,0,0,0,0,0,0,0,0,0,0,0,0,0,0,0,0,0,0,0,0,
0,0,0,0,0,0,0,0,0,0,0,0,0,0,0,0,0,0,0,0,0,0,0,0,0,0,0,0,0,0,
0,0,0,0,0,0,0,0,0,0,0,0,0,0,0,0,0,0,0,0,0,0,0,0,0,0,904,904,904,0,
0,0,0,0,0,0,0,0,0,0,0,0,0,0,0,0,0,0,0,0,0,0,0,0,0,0,904,904,904,0,
0,0,0,0,0,0,0,0,0,0,0,0,0,0,0,0,0,0,0,0,0,0,0,0,0,0,904,904,904,0,
0,0,0,0,0,0,0,0,0,0,0,0,0,0,0,0,0,0,0,0,0,0,0,0,0,0,904,904,904,0,
0,0,0,0,0,0,0,0,0,0,0,0,0,0,0,0,0,0,0,0,0,0,0,0,0,0,904,904,904,0,
0,0,0,0,0,0,0,0,0,0,0,0,0,0,0,0,0,0,0,0,0,0,0,0,0,0,904,904,904,0,
0,0,0,0,0,0,0,0,0,0,0,0,0,0,0,0,0,0,0,0,0,0,0,0,0,0,0,0,0,0,
0,0,0,0,0,0,0,0,0,0,0,0,0,0,0,0,0,0,0,0,0,0,0,0,0,0,0,0,0,0,
0,0,811,801,802,803,812,804,0,0,0,0,0,0,0,0,0,0,0,0,0,0,1555,1556,1263,1261,1555,1556,1557,1263,
0,0,817,807,808,809,818,810,0,0,0,0,0,0,0,0,0,0,0,0,0,0,1565,1566,1273,1271,1565,1566,1567,1273,
0,0,0,0,0,0,0,0,1262,1261,0,0,1555,1554,0,0,1554,1555,1556,1557,1261,1262,0,0,0,0,0,0,0,0,
0,0,0,0,0,0,0,0,1272,1271,0,0,1565,1564,0,0,1564,1565,1566,1567,1271,1272,0,0,0,0,0,0,0,0,
0,0,0,0,0,0,0,0,0,0,0,0,0,0,0,0,0,0,0,0,0,0,0,0,0,0,0,0,0,0,
0,0,0,0,0,0,0,0,0,0,0,0,0,0,0,0,0,0,0,0,0,0,0,0,0,0,0,0,0,0,
0,0,0,0,0,0,0,0,0,0,0,0,0,0,0,0,0,0,0,0,0,0,0,0,0,0,0,0,0,0,
0,0,0,0,0,0,0,0,0,0,0,0,0,0,0,0,0,0,0,0,0,0,0,0,0,0,0,0,0,0,
0,0,0,0,0,0,0,1555,1557,1262,1261,1556,0,0,0,0,0,0,0,0,0,0,0,0,0,0,0,0,0,0,
0,0,0,1261,1262,1554,1555,1565,1567,1272,1271,1566,0,0,0,0,0,0,0,0,0,0,0,0,0,0,0,0,0,0,
0,0,0,1271,1272,1564,1565,0,0,0,0,0,0,0,0,0,0,0,0,0,0,0,0,0,0,0,0,0,0,0,
0,0,0,0,0,0,0,0,0,0,0,0,0,0,0,0,0,0,0,0,0,0,0,0,0,0,0,0,0,0,
0,0,0,0,0,0,0,0,0,0,0,0,0,0,0,0,0,0,0,0,0,0,0,0,0,0,0,0,0,0
</data>
 </layer>
 <layer id="1" name="Tile Layer 1" width="30" height="24">
  <data encoding="csv">
0,0,0,0,0,0,0,0,0,0,0,0,0,0,1061,1063,0,0,0,0,0,0,0,0,0,0,0,0,0,0,
0,0,0,0,0,0,0,0,0,0,0,0,0,0,1061,1063,0,0,0,0,0,0,0,0,0,0,0,0,0,0,
0,0,0,0,0,0,0,0,0,0,0,0,0,0,1061,1063,0,0,0,0,0,0,0,0,0,0,0,0,0,0,
0,0,0,0,0,0,0,0,0,0,0,0,0,0,1061,1063,0,0,0,0,0,0,0,0,0,0,0,0,0,0,
0,0,0,0,0,0,0,0,0,0,0,0,0,0,1061,1063,0,0,0,0,0,0,0,0,0,0,0,0,0,0,
0,0,0,0,0,0,0,0,0,0,0,0,0,0,1061,1063,0,0,0,0,0,0,0,0,0,0,0,0,0,0,
0,0,0,0,0,0,0,0,0,0,0,0,0,0,1061,1063,0,0,0,0,0,0,0,0,0,0,0,0,0,0,
0,0,0,0,0,0,0,0,1051,1052,1052,1052,1052,1052,1057,1058,1052,1052,1052,1052,1052,1053,0,0,0,0,0,0,0,0,
0,0,0,0,0,0,0,0,1061,1062,1062,1062,1062,1062,1062,1062,1062,1062,1062,1062,1062,1063,0,0,0,0,0,0,0,0,
0,0,782,785,785,785,785,786,1061,1062,1062,1062,1062,1062,1062,1062,1062,1062,1062,1062,1062,1058,1052,1052,1052,1052,1052,1052,1052,1052,
0,0,794,795,795,795,795,798,1061,1062,1062,1062,1062,1062,1062,1062,1062,1062,1062,1062,1062,1068,1072,1072,1072,1072,1072,1072,1072,1072,
0,0,0,0,0,0,0,0,1061,1062,1062,1062,1062,1062,1062,1062,1062,1062,1062,1062,1062,1063,0,0,0,0,0,0,0,0,
0,0,0,0,0,0,0,0,1071,1072,1062,1062,1072,1072,1067,1068,1072,1072,1072,1072,1072,1073,0,0,0,0,0,0,0,0,
0,0,0,0,0,0,0,0,0,0,992,994,0,0,1061,1063,0,0,0,0,0,0,0,0,0,0,0,0,0,0,
0,0,0,0,0,0,0,0,0,0,1002,1004,0,0,1061,1063,0,0,0,0,0,0,0,0,0,0,0,0,0,0,
0,0,0,0,0,0,0,0,0,0,992,994,0,0,1061,1063,0,0,0,0,0,0,0,0,0,0,0,0,0,0,
0,0,0,1051,1052,1052,1053,0,0,0,1002,1004,0,0,1061,1063,0,0,0,0,0,0,0,0,0,0,0,0,0,0,
0,0,0,1061,1062,1062,1058,1052,1052,1052,1012,1014,0,0,1061,1063,0,0,0,0,0,0,0,0,0,0,0,0,0,0,
0,0,0,1061,1062,1062,1068,1072,1072,1072,1072,1073,0,0,1061,1063,0,0,0,0,0,0,0,0,0,0,0,0,0,0,
0,0,0,1071,1072,1072,1073,0,0,0,0,0,0,0,1061,1063,0,0,0,0,0,0,0,0,0,0,0,0,0,0,
0,0,0,0,0,0,0,0,0,0,0,0,0,0,1061,1063,0,0,0,0,0,0,0,0,0,0,0,0,0,0,
0,0,0,0,0,0,0,0,0,0,0,0,0,0,1061,1063,0,0,0,0,0,0,0,0,0,0,0,0,0,0,
0,0,0,0,0,0,0,0,0,0,0,0,0,0,1061,1063,0,0,0,0,0,0,0,0,0,0,0,0,0,0,
0,0,0,0,0,0,0,0,0,0,0,0,0,0,1061,1063,0,0,0,0,0,0,0,0,0,0,0,0,0,0
</data>
 </layer>
 <layer id="11" name="Tile Layer 5" width="30" height="24">
  <data encoding="csv">
0,0,0,0,0,0,0,0,0,0,0,0,0,0,0,0,0,0,0,0,0,0,0,0,0,691,767,767,767,691,
0,0,0,0,0,0,0,0,0,0,0,0,0,0,0,0,0,0,0,0,0,0,0,0,0,697,767,767,767,697,
0,0,0,0,0,0,0,0,0,0,0,0,0,0,0,0,0,0,0,0,0,0,0,0,0,703,767,767,767,697,
0,0,0,0,0,0,0,0,0,0,0,0,0,0,0,0,0,0,0,0,0,0,0,0,0,703,730,731,732,697,
0,0,0,0,0,0,0,0,0,0,0,0,0,0,0,0,0,0,0,0,0,0,0,0,0,697,736,737,738,697,
0,0,0,0,0,0,0,0,0,0,0,0,0,0,0,0,0,0,0,0,0,0,0,0,0,703,742,743,744,703,
0,0,0,0,0,0,0,0,924,924,924,924,924,924,0,0,924,924,924,924,924,924,0,0,0,709,748,749,750,709,
0,0,0,0,0,0,0,0,0,0,0,0,0,0,0,0,0,0,0,0,0,0,0,0,0,709,754,755,756,709,
0,0,0,0,0,0,0,0,0,0,0,0,0,0,0,0,0,0,0,0,0,0,924,924,924,715,924,924,924,715,
0,0,0,0,0,0,0,0,0,0,0,0,0,0,0,0,0,0,0,0,0,0,0,0,0,0,0,0,0,0,
0,0,0,0,0,0,0,0,0,0,0,0,0,0,0,0,0,0,0,0,0,0,0,0,0,0,0,0,0,0,
0,0,0,0,0,0,0,0,0,0,0,0,0,0,0,0,0,0,0,0,0,0,0,0,0,0,0,0,0,0,
0,0,0,0,0,0,0,0,0,0,0,0,0,0,0,0,0,0,0,0,0,0,0,0,0,0,0,0,0,0,
0,0,0,0,0,0,0,0,0,0,0,0,0,0,0,0,0,0,0,0,0,0,0,0,0,0,0,0,0,0,
0,0,0,0,0,0,0,0,0,0,0,0,0,0,0,0,0,0,0,0,0,0,0,0,0,0,0,0,0,0,
0,0,0,0,0,0,0,0,0,0,0,0,0,0,0,0,0,0,0,0,0,0,0,0,0,0,0,0,0,0,
0,0,0,0,0,0,0,0,0,0,0,0,0,0,0,0,0,0,0,0,0,0,0,0,0,0,0,0,0,0,
0,0,0,0,0,0,0,0,0,0,0,0,0,0,0,0,0,0,0,0,0,0,0,0,0,0,0,0,0,0,
0,0,0,0,0,0,0,0,0,0,0,0,0,0,0,0,0,0,0,0,0,0,0,0,0,0,0,0,0,0,
0,0,0,0,0,0,0,0,0,0,0,0,0,0,0,0,0,0,0,0,0,0,0,0,0,0,0,0,0,0,
0,0,0,0,0,0,0,0,0,0,0,0,0,0,0,0,0,0,0,0,0,0,0,0,0,0,0,0,0,0,
0,0,0,0,0,0,0,0,0,0,0,0,0,0,0,0,0,0,0,0,0,0,0,0,0,0,0,0,0,0,
0,0,0,0,0,0,0,0,0,0,0,0,0,0,0,0,0,0,0,0,0,0,0,0,0,0,0,0,0,0,
0,0,0,0,0,0,0,0,0,0,0,0,0,0,0,0,0,0,0,0,0,0,0,0,0,0,0,0,0,0
</data>
 </layer>
 <layer id="3" name="decal" width="30" height="24" offsetx="20" offsety="0">
  <data encoding="csv">
0,0,0,0,0,0,0,0,0,0,0,0,0,0,0,0,0,0,0,0,0,0,0,0,0,0,0,0,0,0,
0,0,0,0,0,0,0,0,0,0,0,0,0,0,0,0,0,0,0,0,0,0,0,0,0,0,0,0,0,0,
0,0,0,0,0,0,0,0,0,0,0,0,0,0,0,0,0,0,0,0,0,0,0,0,0,0,0,0,0,0,
0,0,0,0,0,0,0,0,0,0,0,0,0,0,0,0,0,0,0,0,0,0,0,0,0,0,0,0,0,0,
0,0,0,0,0,0,0,0,0,0,0,0,0,0,0,0,0,0,0,0,0,0,0,0,0,0,0,0,0,0,
0,0,0,0,0,0,0,0,0,0,0,0,0,0,0,0,0,0,0,0,0,0,0,0,0,0,0,0,0,0,
0,0,0,0,0,0,0,0,0,0,0,0,0,0,0,0,0,0,0,0,0,0,0,0,0,0,0,0,0,0,
0,0,0,0,0,0,0,0,0,0,0,0,0,0,0,0,0,0,0,0,0,0,0,0,0,0,0,0,0,0,
0,0,0,0,0,0,0,0,0,0,0,0,0,78,79,80,0,0,0,0,0,0,0,0,0,0,0,0,0,0,
0,0,0,0,0,0,0,0,0,0,0,0,0,82,83,84,0,0,0,0,0,0,0,0,0,0,0,0,0,0,
0,0,0,0,0,0,0,0,0,0,0,0,0,86,87,88,0,0,0,0,0,0,0,0,0,0,0,0,0,0,
0,0,0,0,0,0,0,0,0,0,0,0,0,0,0,0,0,0,0,0,0,0,0,0,0,0,0,0,0,0,
0,0,0,0,0,0,0,0,0,0,0,0,0,0,0,0,0,0,0,0,0,0,0,0,0,0,0,0,0,0,
0,0,0,0,0,0,0,0,0,0,0,0,0,0,0,0,0,0,0,0,0,0,0,0,0,0,0,0,0,0,
0,0,0,0,0,0,0,0,0,0,0,0,0,0,0,0,0,0,0,0,0,0,0,0,0,0,0,0,0,0,
0,0,0,0,0,0,0,0,0,0,0,0,0,0,0,0,0,0,0,0,0,0,0,0,0,0,0,0,0,0,
0,0,0,0,0,0,0,0,0,0,0,0,0,0,0,0,0,0,0,0,0,0,0,0,0,0,0,0,0,0,
0,0,0,0,0,0,0,0,0,0,0,0,0,0,0,0,0,0,0,0,0,0,0,0,0,0,0,0,0,0,
0,0,0,0,0,0,0,0,0,0,0,0,0,0,0,0,0,0,0,0,0,0,0,0,0,0,0,0,0,0,
0,0,0,0,0,0,0,0,0,0,0,0,0,0,0,0,0,0,0,0,0,0,0,0,0,0,0,0,0,0,
0,0,0,0,0,0,0,0,0,0,0,0,0,0,0,0,0,0,0,0,0,0,0,0,0,0,0,0,0,0,
0,0,0,0,0,0,0,0,0,0,0,0,0,0,0,0,0,0,0,0,0,0,0,0,0,0,0,0,0,0,
0,0,0,0,0,0,0,0,0,0,0,0,0,0,0,0,0,0,0,0,0,0,0,0,0,0,0,0,0,0,
0,0,0,0,0,0,0,0,0,0,0,0,0,0,0,0,0,0,0,0,0,0,0,0,0,0,0,0,0,0
</data>
 </layer>
 <layer id="17" name="Tile Layer 8" width="30" height="24">
  <data encoding="csv">
0,0,0,0,0,0,0,0,0,0,0,0,0,0,0,0,0,0,0,0,0,0,0,0,0,0,0,0,0,0,
0,0,0,0,0,0,0,0,0,0,0,0,0,0,0,0,0,0,0,0,0,0,0,0,0,0,0,0,0,0,
0,0,0,0,0,0,0,0,0,0,0,0,0,0,0,0,0,0,0,0,0,0,0,0,0,0,0,0,0,0,
0,0,0,0,0,0,0,0,0,0,0,0,0,0,0,0,0,0,0,0,0,0,0,0,0,0,0,0,0,0,
0,0,0,0,0,0,0,0,0,0,0,0,0,0,0,0,0,0,0,0,0,0,0,0,0,0,0,0,0,0,
0,0,0,0,0,0,0,0,0,0,0,0,0,0,0,0,0,0,0,0,0,0,0,0,0,0,0,0,0,0,
0,0,0,0,0,0,0,0,0,0,0,0,0,0,0,0,0,0,0,0,0,0,0,0,0,0,0,0,0,0,
0,0,0,0,0,0,0,0,0,0,0,0,0,0,0,0,0,0,0,0,0,0,0,0,0,0,0,0,0,0,
0,0,0,0,0,0,0,0,0,0,0,0,0,0,0,0,0,0,0,0,0,0,0,0,0,0,0,0,0,0,
0,0,0,0,0,0,0,0,0,0,0,0,0,0,0,0,0,0,0,0,0,0,0,0,0,0,0,0,0,0,
0,0,0,0,0,0,0,0,0,0,0,0,0,0,0,0,0,0,0,0,0,0,0,0,0,0,0,0,0,0,
0,0,811,801,802,803,812,804,0,0,0,0,0,0,0,0,0,0,0,0,0,0,1555,1556,1263,1261,1555,1556,1557,1263,
0,0,817,807,808,809,818,810,0,0,0,0,0,0,0,0,0,0,0,0,0,0,1565,1566,1273,1271,1565,1566,1567,1273,
0,0,0,0,0,0,0,0,1262,1261,0,0,1555,1554,0,0,1554,1555,1556,1557,1261,1262,0,0,0,0,0,0,0,0,
0,0,0,0,0,0,0,0,1272,1271,0,0,1565,1564,0,0,1564,1565,1566,1567,1271,1272,0,0,0,0,0,0,0,0,
0,0,0,0,0,0,0,0,0,0,0,0,0,0,0,0,0,0,0,0,0,0,0,0,0,0,0,0,0,0,
0,0,0,0,0,0,0,0,0,0,0,0,0,0,0,0,0,0,0,0,0,0,0,0,0,0,0,0,0,0,
0,0,0,0,0,0,0,0,0,0,0,0,0,0,0,0,0,0,0,0,0,0,0,0,0,0,0,0,0,0,
0,0,0,0,0,0,0,0,0,0,0,0,0,0,0,0,0,0,0,0,0,0,0,0,0,0,0,0,0,0,
0,0,0,0,0,0,0,1555,1557,1262,1261,1556,0,0,0,0,0,0,0,0,0,0,0,0,0,0,0,0,0,0,
0,0,0,1261,1262,1554,1555,1565,1567,1272,1271,1566,0,0,0,0,0,0,0,0,0,0,0,0,0,0,0,0,0,0,
0,0,0,1271,1272,1564,1565,0,0,0,0,0,0,0,0,0,0,0,0,0,0,0,0,0,0,0,0,0,0,0,
0,0,0,0,0,0,0,0,0,0,0,0,0,0,0,0,0,0,0,0,0,0,0,0,0,0,0,0,0,0,
0,0,0,0,0,0,0,0,0,0,0,0,0,0,0,0,0,0,0,0,0,0,0,0,0,0,0,0,0,0
</data>
 </layer>
 <objectgroup id="18" name="objects_eye">
  <object id="58" name="eye_glow" x="180.313" y="830.5">
   <point/>
  </object>
  <object id="54" name="eye_glow" x="200" y="474">
   <point/>
  </object>
 </objectgroup>
 <layer id="9" name="roomglow_dark" width="30" height="24" visible="0">
  <data encoding="csv">
1778,1778,1778,1778,1778,1778,1778,1778,1778,1778,1778,1778,1778,1778,0,0,1778,1778,1778,1778,1778,1778,1778,1778,1778,0,0,0,0,0,
1778,1778,1778,1778,1778,1778,1778,1778,1778,1778,1778,1778,1778,1778,0,0,1778,1778,1778,1778,1778,1778,1778,1778,1778,0,0,0,0,0,
1778,1778,1778,1778,1778,1778,1778,1778,1778,1778,1778,1778,1778,1778,0,0,1778,1778,1778,1778,1778,1778,1778,1778,1778,0,0,0,0,0,
1778,1778,1778,1778,1778,1778,1778,1778,1778,1778,1778,1778,1778,1778,0,0,1778,1778,1778,1778,1778,1778,1778,1778,1778,0,0,0,0,0,
1778,1778,1778,1778,1778,1778,1778,1778,1778,1778,1778,1778,1778,1778,0,0,1778,1778,1778,1778,1778,1778,1778,1778,1778,0,0,0,0,0,
1778,1778,1778,1778,1778,1778,1778,1778,1778,1778,1778,1778,1778,1778,0,0,1778,1778,1778,1778,1778,1778,1778,1778,1778,0,0,0,0,0,
1778,1778,1778,1778,1778,1778,1778,1778,0,0,0,0,0,0,0,0,0,0,0,0,0,0,1778,1778,1778,0,0,0,0,0,
1778,1778,1778,1778,1778,1778,1778,1778,0,0,0,0,0,0,0,0,0,0,0,0,0,0,1778,1778,1778,0,0,0,0,0,
1778,1778,1778,1778,1778,1778,1778,1778,0,0,0,0,0,0,0,0,0,0,0,0,0,0,0,0,0,0,0,0,0,0,
1778,1778,0,0,0,0,0,0,0,0,0,0,0,0,0,0,0,0,0,0,0,0,0,0,0,0,0,0,0,0,
1778,1778,0,0,0,0,0,0,0,0,0,0,0,0,0,0,0,0,0,0,0,0,0,0,0,0,0,0,0,0,
1778,1778,1778,1778,1778,1778,1778,1778,0,0,0,0,0,0,0,0,0,0,0,0,0,0,1778,1778,1778,1778,1778,1778,1778,1778,
1778,1778,1778,1778,1778,1778,1778,1778,0,0,0,0,0,0,0,0,0,0,0,0,0,0,1778,1778,1778,1778,1778,1778,1778,1778,
1778,1778,1778,1778,1778,1778,1778,1778,1778,1778,1813,1813,1778,1778,0,0,1778,1778,1778,1778,1778,1778,1778,1778,1778,1778,1778,1778,1778,1778,
1778,1778,1778,1778,1778,1778,1778,1778,1778,1778,1815,1815,1778,1778,0,0,1778,1778,1778,1778,1778,1778,1778,1778,1778,1778,1778,1778,1778,1778,
1778,1778,1778,1778,1778,1778,1778,1778,1778,1778,1813,1813,1778,1778,0,0,1778,1778,1778,1778,1778,1778,1778,1778,1778,1778,1778,1778,1778,1778,
1778,1778,1778,0,0,0,0,1778,1778,1778,1815,1815,1778,1778,0,0,1778,1778,1778,1778,1778,1778,1778,1778,1778,1778,1778,1778,1778,1778,
1778,1778,1778,0,0,0,0,0,0,0,0,0,1778,1778,0,0,1778,1778,1778,1778,1778,1778,1778,1778,1778,1778,1778,1778,1778,1778,
1778,1778,1778,0,0,0,0,0,0,0,0,0,1778,1778,0,0,1778,1778,1778,1778,1778,1778,1778,1778,1778,1778,1778,1778,1778,1778,
1778,1778,1778,0,0,0,0,1778,1778,1778,1778,1778,1778,1778,0,0,1778,1778,1778,1778,1778,1778,1778,1778,1778,1778,1778,1778,1778,1778,
1778,1778,1778,1778,1778,1778,1778,1778,1778,1778,1778,1778,1778,1778,0,0,1778,1778,1778,1778,1778,1778,1778,1778,1778,1778,1778,1778,1778,1778,
1778,1778,1778,1778,1778,1778,1778,1778,1778,1778,1778,1778,1778,1778,0,0,1778,1778,1778,1778,1778,1778,1778,1778,1778,1778,1778,1778,1778,1778,
1778,1778,1778,1778,1778,1778,1778,1778,1778,1778,1778,1778,1778,1778,0,0,1778,1778,1778,1778,1778,1778,1778,1778,1778,1778,1778,1778,1778,1778,
1778,1778,1778,1778,1778,1778,1778,1778,1778,1778,1778,1778,1778,1778,0,0,1778,1778,1778,1778,1778,1778,1778,1778,1778,1778,1778,1778,1778,1778
</data>
 </layer>
 <objectgroup id="15" name="objects_shards">
  <object id="48" gid="1901" x="490" y="510" width="222" height="140"/>
 </objectgroup>
 <objectgroup color="#0000ff" id="7" name="collision" locked="1">
  <object id="6" x="80" y="240" width="240" height="120"/>
  <object id="8" x="320" y="0" width="240" height="280"/>
  <object id="9" x="640" y="0" width="240" height="280"/>
  <object id="10" x="880" y="280" width="320" height="80"/>
  <object id="11" x="880" y="440" width="320" height="80"/>
  <object id="12" x="640" y="520" width="240" height="440"/>
  <object id="13" x="480" y="520" width="80" height="440"/>
  <object id="14" x="280" y="520" width="120" height="160"/>
  <object id="15" x="80" y="440" width="240" height="80"/>
  <object id="16" x="120" y="600" width="160" height="40"/>
  <object id="17" x="80" y="640" width="40" height="160"/>
  <object id="18" x="120" y="800" width="160" height="40"/>
  <object id="19" x="280" y="760" width="200" height="40"/>
  <object id="31" x="40" y="360" width="40" height="80"/>
 </objectgroup>
 <objectgroup id="2" name="markers">
  <object id="1" name="spawn" x="600" y="400">
   <properties>
    <property name="comment" value="Like, Titan spawn?"/>
   </properties>
   <point/>
  </object>
  <object id="25" name="entry_south" x="600" y="920">
   <point/>
  </object>
  <object id="26" name="suspoint" x="150" y="400">
   <point/>
  </object>
  <object id="27" name="kpoint" x="200" y="400">
   <point/>
  </object>
  <object id="28" name="ralpoint" x="250" y="400">
   <point/>
  </object>
  <object id="29" name="suspoint2" x="360" y="400">
   <point/>
  </object>
  <object id="30" name="entry_east" x="1160" y="400">
   <point/>
  </object>
  <object id="38" name="targ" x="200" y="340">
   <point/>
  </object>
  <object id="41" name="entry_north" x="600" y="40">
   <point/>
  </object>
  <object id="51" name="entry_fast_travel" x="600" y="40">
   <point/>
  </object>
 </objectgroup>
 <objectgroup id="19" name="objects_windows">
  <object id="59" name="window_glow" x="760" y="240">
   <point/>
  </object>
  <object id="63" name="window_glow" x="40" y="760">
   <point/>
  </object>
  <object id="64" name="window_glow" x="760" y="720">
   <point/>
  </object>
  <object id="62" name="window_glow" x="1100" y="322.5">
   <point/>
  </object>
  <object id="61" name="window_glow" x="940" y="320">
   <point/>
  </object>
  <object id="60" name="window_glow" x="440" y="240">
   <point/>
  </object>
 </objectgroup>
 <objectgroup id="5" name="objects_party">
  <object id="2" name="savepoint" x="740" y="280">
   <properties>
    <property name="text1" value="* (... This certainly isn't a normal Dark Sanctuary.)"/>
    <property name="text2">* (The air has changed.)[wait:5]
* (The colors have shifted even more.)</property>
    <property name="text3" value="* (But despite all that...)"/>
    <property name="text4" value="* (You are filled with the power of liminal exploration.)"/>
   </properties>
  </object>
  <object id="20" name="prophecy" x="80" y="360" width="240" height="80">
   <properties>
    <property name="fade_edges" type="bool" value="true"/>
    <property name="no_back" type="bool" value="true"/>
    <property name="offx" type="float" value="90"/>
    <property name="offy" type="float" value="-90"/>
    <property name="spr_offx" type="float" value="63"/>
    <property name="spr_offy" type="float" value="81"/>
    <property name="text">WORLDS ENTER COLLISION.
THE KNIGHT IS TO NO FAULT.</property>
    <property name="texture" value="collide"/>
    <property name="txt_offy" type="float" value="-40"/>
   </properties>
  </object>
  <object id="21" name="npc" x="200" y="720">
   <properties>
    <property name="actor" value="lobbyman"/>
    <property name="cutscene" value="primary.lobby"/>
   </properties>
   <point/>
  </object>
  <object id="22" name="transition" x="560" y="960" width="80" height="40">
   <properties>
    <property name="map" value="0_base_sanctum/base_south_1"/>
    <property name="marker" value="entry"/>
   </properties>
  </object>
  <object id="23" name="transition" x="1200" y="360" width="40" height="80">
   <properties>
    <property name="map" value="0_base_sanctum/base_east_1"/>
    <property name="marker" value="entry"/>
   </properties>
  </object>
  <object id="24" name="transition" x="560" y="-40" width="80" height="40">
   <properties>
    <property name="map" value="0_base_sanctum/base_fast_travel"/>
    <property name="marker" value="entry_primary"/>
   </properties>
  </object>
  <object id="32" name="roomglow" x="80" y="0">
   <properties>
    <property name="prophecy" type="bool" value="true"/>
   </properties>
   <point/>
  </object>
  <object id="37" name="cameratarget" x="80" y="360" width="240" height="80">
   <properties>
    <property name="lockx" type="bool" value="false"/>
    <property name="locky" type="bool" value="true"/>
    <property name="marker" value="targ"/>
    <property name="time" type="float" value="0.25"/>
   </properties>
  </object>
  <object id="53" name="interactable" x="540" y="380" width="120" height="40">
   <properties>
    <property name="text1" value="* (You saw your reflection in the shards of glass.)"/>
   </properties>
  </object>
  <object id="68" name="npc" x="600" y="240">
   <properties>
    <property name="actor" value="organik"/>
    <property name="cond" value="not Game:getFlag(&quot;unlock_travel&quot;)"/>
    <property name="sprite" value="br"/>
    <property name="text1" value="* (They don't look like they'll be moving any time soon.)"/>
   </properties>
   <point/>
  </object>
  <object id="69" name="npc" x="920" y="420">
   <properties>
    <property name="actor" value="organik"/>
    <property name="cond" value="not Game:getFlag(&quot;unlock_travel&quot;)"/>
    <property name="sprite" value="c"/>
    <property name="text1" value="* (This one won't budge either.)"/>
   </properties>
   <point/>
  </object>
  <object id="71" name="npc" x="840" y="340">
   <properties>
    <property name="actor" value="organik"/>
    <property name="cond" value="Game:getFlag(&quot;unlock_travel&quot;)"/>
    <property name="sprite" value="c"/>
    <property name="text1_1" value="* (It looks like they're in a heated debate...)"/>
    <property name="text2_1" value="* Progression Locking? What are you on about? I was just simply resting on the walkway!"/>
   </properties>
   <point/>
  </object>
  <object id="72" name="npc" x="780" y="340">
   <properties>
    <property name="actor" value="organik"/>
    <property name="cond" value="Game:getFlag(&quot;unlock_travel&quot;)"/>
    <property name="sprite" value="br"/>
    <property name="text1_1" value="* (It looks like they're in a heated debate...)"/>
    <property name="text2_1" value="* Progression Blocking? What are you on about? The proper term is &quot;Progression Locking&quot;!"/>
   </properties>
   <point/>
  </object>
 </objectgroup>
 <objectgroup id="14" name="objects_fog">
  <object id="47" name="churchfog" x="120" y="0">
   <point/>
  </object>
 </objectgroup>
 <objectgroup id="6" name="objects_overlay">
  <object id="3" name="texturescroller" x="0" y="0">
   <properties>
    <property name="type" value="hsv"/>
   </properties>
   <point/>
  </object>
  <object id="4" name="filter" x="160" y="0">
   <properties>
    <property name="type" value="hsv2"/>
   </properties>
   <point/>
  </object>
 </objectgroup>
</map>
