<?xml version="1.0" encoding="UTF-8"?>
<map version="1.11" tiledversion="1.12.2" orientation="orthogonal" renderorder="right-down" width="20" height="34" tilewidth="40" tileheight="40" infinite="0" nextlayerid="25" nextobjectid="157">
 <editorsettings>
  <export target="data.lua" format="lua"/>
 </editorsettings>
 <properties>
  <property name="border" value="church_d"/>
  <property name="music" value="fourth_church"/>
  <property name="name" value="4th Sanctuary - Room 2"/>
 </properties>
 <tileset firstgid="1" source="../../../tilesets/bg_dw_church_2_tileset.tsx"/>
 <tileset firstgid="199" source="../../../tilesets/bg_dw_church_tileset_new.tsx"/>
 <tileset firstgid="781" source="../../../tilesets/church_objects.tsx"/>
 <tileset firstgid="891" source="../../../tilesets/ExtraClimbingTiles.tsx"/>
 <objectgroup id="15" name="objects_parallax3" visible="0" parallaxx="0.3" parallaxy="0.82">
  <object id="70" gid="793" x="-246.933" y="1038.27" width="416" height="130" rotation="-315">
   <properties>
    <property name="color" type="color" value="#ff00007f"/>
   </properties>
  </object>
  <object id="71" gid="793" x="-184.4" y="-60.18" width="416" height="130" rotation="-315">
   <properties>
    <property name="color" type="color" value="#ff00007f"/>
   </properties>
  </object>
  <object id="72" gid="793" x="80" y="200" width="416" height="130" rotation="-315">
   <properties>
    <property name="color" type="color" value="#ff00007f"/>
   </properties>
  </object>
  <object id="73" gid="793" x="200" y="320" width="416" height="130" rotation="-315">
   <properties>
    <property name="color" type="color" value="#ff00007f"/>
   </properties>
  </object>
  <object id="74" gid="793" x="480" y="600" width="416" height="130" rotation="-315">
   <properties>
    <property name="color" type="color" value="#ff00007f"/>
   </properties>
  </object>
 </objectgroup>
 <objectgroup id="14" name="objects_parallax2" visible="0" parallaxx="0.4" parallaxy="0.85">
  <object id="61" gid="793" x="-200" y="720" width="480" height="150" rotation="45">
   <properties>
    <property name="color" type="color" value="#ff2525ba"/>
   </properties>
  </object>
  <object id="62" gid="793" x="120" y="1040" width="480" height="150" rotation="45">
   <properties>
    <property name="color" type="color" value="#ff2525ba"/>
   </properties>
  </object>
  <object id="63" gid="793" x="440" y="1360" width="480" height="150" rotation="45">
   <properties>
    <property name="color" type="color" value="#ff2525ba"/>
   </properties>
  </object>
  <object id="64" gid="793" x="520" y="200" width="480" height="150" rotation="-45">
   <properties>
    <property name="color" type="color" value="#ff2525ba"/>
   </properties>
  </object>
  <object id="65" gid="793" x="200" y="520" width="480" height="150" rotation="-45">
   <properties>
    <property name="color" type="color" value="#ff2525ba"/>
   </properties>
  </object>
  <object id="66" gid="793" x="-80" y="800" width="480" height="150" rotation="-45">
   <properties>
    <property name="color" type="color" value="#ff2525ba"/>
   </properties>
  </object>
 </objectgroup>
 <objectgroup id="13" name="objects_parallax" visible="0" parallaxx="0.5" parallaxy="0.9">
  <object id="59" gid="1073742608" x="-80" y="1200" width="400" height="1600"/>
  <object id="68" gid="1073742609" x="440" y="1000" width="640" height="1600"/>
  <object id="69" gid="785" x="-651" y="1685.5" width="640" height="1600" rotation="45"/>
  <object id="84" gid="872" x="-46.6688" y="1953.27" width="2880" height="100" rotation="264.822"/>
  <object id="85" gid="872" x="771.462" y="1716.69" width="2880" height="100" rotation="248.191"/>
  <object id="86" gid="872" x="-983.778" y="719.277" width="2880" height="100" rotation="328.954"/>
  <object id="87" gid="872" x="-953.711" y="949.663" width="2880" height="100" rotation="349.312"/>
 </objectgroup>
 <objectgroup id="12" name="objects_parallax_fade" visible="0">
  <object id="57" gid="789" x="800" y="1360" width="311.141" height="800" rotation="270"/>
 </objectgroup>
 <layer id="16" name="tiles_osc_optimize" width="20" height="34">
  <data encoding="csv">
0,0,0,0,0,0,0,0,0,0,0,0,0,0,0,0,0,0,0,0,
0,0,0,0,0,0,0,0,0,0,0,0,0,0,0,0,0,0,0,0,
0,0,0,0,0,0,0,0,0,0,0,0,0,0,0,0,0,0,0,0,
0,0,0,0,0,0,0,0,0,0,0,0,0,0,0,0,0,0,0,0,
0,0,0,0,0,0,0,0,0,0,0,0,0,0,0,0,0,0,0,0,
0,0,0,0,0,0,0,0,0,0,0,0,0,0,0,0,0,0,0,0,
0,0,0,0,0,0,0,0,0,0,0,0,0,0,0,0,0,0,0,0,
0,0,0,0,0,0,0,0,0,0,0,0,0,0,0,0,0,0,0,0,
0,0,0,0,0,0,0,0,0,0,0,0,0,0,0,0,0,0,0,0,
0,0,0,0,0,0,0,0,0,0,0,0,0,0,0,0,0,0,0,0,
0,194,194,194,194,194,194,194,0,0,0,0,0,0,0,0,194,194,194,194,
0,194,194,194,194,194,194,194,0,0,0,0,0,0,0,0,194,194,194,194,
0,194,194,194,0,0,0,0,0,0,0,0,0,0,0,0,0,0,0,0,
0,194,194,194,0,0,0,0,0,0,0,0,0,0,0,0,0,0,0,0,
0,194,194,194,0,0,0,0,0,0,0,0,0,0,0,0,0,0,0,0,
0,194,194,194,0,0,0,0,0,0,0,0,0,0,0,0,0,0,0,0,
0,194,194,194,0,0,0,0,0,0,0,0,0,0,0,0,0,0,0,0,
0,194,194,194,0,0,0,0,0,0,0,0,0,0,0,0,0,0,0,0,
0,194,194,194,0,0,0,0,0,0,0,0,0,0,0,0,0,0,0,0,
0,194,194,194,0,0,0,0,0,0,0,0,0,0,0,0,0,0,0,0,
0,194,194,194,0,0,0,0,0,0,0,0,0,0,0,0,0,0,0,0,
0,194,194,194,194,194,194,194,194,194,0,0,0,0,0,0,0,0,0,0,
0,194,194,194,194,194,194,194,194,194,0,0,0,0,0,0,0,0,0,0,
0,194,194,194,194,194,194,194,194,194,0,0,0,0,0,0,0,0,0,0,
0,0,0,0,0,0,0,0,0,0,0,0,0,0,0,0,0,194,194,194,
0,0,0,0,0,0,0,0,0,0,0,0,0,0,0,0,0,194,194,194,
0,0,0,0,0,0,0,0,0,0,0,0,0,0,0,194,194,194,194,194,
0,0,0,0,0,0,0,0,0,0,0,0,0,0,0,194,194,194,194,194,
0,0,0,0,0,0,0,0,0,0,0,0,0,0,0,194,194,194,194,194,
0,0,0,0,0,0,0,0,0,0,0,0,0,0,0,0,0,0,0,0,
194,194,194,194,194,194,194,194,194,194,194,194,0,0,0,0,0,0,0,0,
194,194,194,194,194,194,194,194,194,194,194,194,0,0,0,0,0,0,0,0,
194,194,194,194,194,194,194,194,194,194,194,194,0,0,0,0,0,0,0,0,
0,0,0,0,0,0,0,0,0,0,0,0,0,0,0,0,0,0,0,0
</data>
 </layer>
 <objectgroup id="10" name="objects_osc">
  <object id="12" name="tile_oscillate" x="0" y="1200" width="480" height="120"/>
  <object id="13" name="texturescroller" x="120" y="0">
   <properties>
    <property name="type" value="hsv"/>
   </properties>
   <point/>
  </object>
  <object id="103" name="tile_oscillate" x="600" y="1040" width="200" height="120"/>
  <object id="134" name="tile_oscillate" x="680" y="960" width="120" height="80"/>
  <object id="135" name="tile_oscillate" x="40" y="840" width="360" height="120"/>
  <object id="136" name="tile_oscillate" x="40" y="480" width="120" height="360"/>
  <object id="137" name="tile_oscillate" x="40" y="400" width="760" height="80"/>
 </objectgroup>
 <layer id="18" name="roomglow_dark_bg" width="20" height="34">
  <data encoding="csv">
0,0,0,0,0,0,0,0,0,0,0,0,0,0,0,0,0,0,0,0,
0,0,0,0,0,0,0,0,0,0,0,0,0,0,0,0,0,0,0,0,
0,0,0,0,0,0,0,0,0,0,0,0,0,0,0,0,0,0,0,0,
0,0,0,0,0,0,0,0,0,0,0,0,0,0,0,0,0,0,0,0,
0,0,0,0,0,0,0,0,0,0,0,0,0,0,0,0,0,0,0,0,
0,0,0,0,0,0,0,0,0,0,0,0,0,0,0,0,0,0,0,0,
0,0,0,0,0,0,0,0,0,0,0,0,0,0,0,0,0,0,0,0,
0,0,0,0,0,0,0,0,0,0,0,0,0,0,0,0,0,0,0,0,
0,0,0,0,0,0,0,0,0,0,0,0,0,0,0,0,0,0,0,0,
0,0,0,0,0,0,0,0,0,0,0,0,0,0,0,0,0,0,0,0,
0,0,0,0,0,0,0,0,0,0,0,0,0,0,0,0,0,0,0,0,
0,0,0,0,0,0,0,0,0,0,0,0,0,0,0,0,0,0,0,0,
0,0,0,0,0,0,0,0,0,0,0,0,0,0,0,0,0,0,0,0,
0,0,0,0,0,0,0,0,0,0,0,0,0,0,0,0,0,0,0,0,
0,0,0,0,0,0,0,0,0,0,0,0,0,0,0,0,0,0,0,0,
0,0,0,0,0,0,0,0,0,0,0,0,0,0,0,0,0,0,0,0,
0,0,0,0,0,0,0,0,0,0,0,0,0,0,0,0,0,0,0,0,
0,0,0,0,0,0,0,0,0,0,0,0,0,0,0,0,0,0,0,0,
0,0,0,0,0,0,0,331,331,331,331,331,331,331,331,331,331,331,0,0,
0,0,0,0,0,0,0,0,0,0,0,0,0,0,0,0,0,0,0,0,
0,0,0,0,0,0,0,0,0,0,0,0,0,0,0,0,0,0,0,0,
0,0,0,0,0,0,0,0,0,0,0,0,0,0,0,0,0,0,0,0,
0,0,0,0,0,0,0,0,0,0,0,0,0,0,0,0,0,0,0,0,
0,0,0,0,0,0,0,0,0,0,0,0,0,0,0,0,0,0,0,0,
0,0,0,0,0,0,0,0,0,0,0,0,0,0,0,0,0,0,0,0,
0,0,0,0,0,0,0,0,0,0,0,0,0,0,0,0,0,0,0,0,
0,0,0,0,0,0,0,0,0,0,0,0,0,0,0,0,0,0,0,0,
0,0,0,0,0,0,0,0,0,0,0,0,0,0,0,0,0,0,0,0,
0,0,0,0,0,0,0,0,0,0,0,0,0,0,0,0,0,0,0,0,
0,0,0,0,0,0,0,0,0,0,0,0,0,0,0,0,0,0,0,0,
0,0,0,0,0,0,0,0,0,0,0,0,0,0,0,0,0,0,0,0,
0,0,0,0,0,0,0,0,0,0,0,0,0,0,0,0,0,0,0,0,
0,0,0,0,0,0,0,0,0,0,0,0,0,0,0,0,0,0,0,0,
0,0,0,0,0,0,0,0,0,0,0,0,0,0,0,0,0,0,0,0
</data>
 </layer>
 <layer id="9" name="Tile Layer 4" width="20" height="34">
  <data encoding="csv">
0,0,0,0,0,0,0,0,0,0,0,0,0,0,0,0,0,0,0,0,
0,0,0,0,0,0,0,0,0,0,0,0,0,0,0,0,0,0,0,0,
0,0,0,0,0,0,0,0,0,0,0,0,0,0,0,0,0,0,0,0,
0,0,0,0,0,0,0,0,0,0,0,0,0,0,0,0,0,0,0,0,
0,0,0,0,0,0,0,0,0,0,0,0,0,0,0,0,0,0,0,0,
0,0,0,0,0,0,0,0,0,0,0,0,0,0,0,0,0,0,0,0,
0,0,0,0,0,0,0,0,0,0,0,0,0,0,0,0,0,0,0,0,
0,0,0,0,0,0,0,0,0,0,0,0,0,0,0,0,0,0,0,0,
0,0,0,0,0,0,0,0,0,0,0,0,0,0,0,0,0,0,0,0,
0,0,0,0,0,0,0,0,0,0,0,0,0,0,0,0,0,0,0,0,
0,0,0,0,0,0,0,0,0,0,0,0,0,0,0,0,0,0,0,0,
0,0,0,0,0,0,0,0,0,0,0,0,0,0,0,0,0,0,0,0,
0,0,0,0,0,0,0,0,0,0,0,0,0,0,0,0,0,0,0,0,
0,0,0,0,0,0,730,732,0,0,0,0,0,0,0,0,730,731,732,0,
0,0,0,0,0,138,736,738,0,0,730,731,732,0,0,0,736,737,738,0,
0,0,0,0,0,0,742,744,0,147,736,737,738,0,0,0,742,743,744,0,
0,0,0,0,0,0,0,0,0,0,742,743,744,0,0,0,0,0,0,0,
0,0,0,0,0,0,0,0,0,0,0,0,0,0,0,0,0,0,0,0,
0,0,0,0,0,0,0,0,0,156,0,0,0,0,0,0,0,0,0,0,
0,0,0,0,0,0,0,0,0,165,0,0,0,0,0,0,0,0,0,0,
0,0,0,0,0,0,0,0,0,165,0,0,0,0,0,0,0,0,0,0,
0,0,0,0,0,165,0,0,0,165,0,0,0,0,0,0,0,0,0,0,
0,0,0,0,0,165,0,0,0,165,0,0,0,0,0,0,0,0,0,0,
0,0,138,0,0,165,0,0,0,165,0,0,0,0,0,0,0,0,0,0,
0,0,147,0,0,165,0,0,0,165,0,0,0,0,0,0,0,0,0,0,
0,0,156,0,0,165,0,0,0,165,0,0,0,0,0,0,0,0,0,0,
0,0,165,0,0,165,0,0,0,165,0,0,0,0,0,0,0,0,0,0,
0,0,165,0,0,165,0,0,0,165,0,0,0,0,0,0,0,0,0,0,
0,0,165,0,0,165,0,0,0,165,0,0,0,0,0,0,0,0,0,0,
0,0,0,0,0,165,0,0,0,165,0,0,0,0,0,0,0,0,0,0,
0,0,165,0,0,0,0,0,0,0,0,0,0,0,0,0,0,0,0,0,
0,0,165,0,0,0,0,0,0,0,0,0,0,0,0,0,0,0,0,0,
0,0,165,0,0,0,0,0,0,0,0,0,0,0,0,0,0,0,0,0,
0,0,0,0,0,0,0,0,0,0,0,0,0,0,0,0,0,0,0,0
</data>
 </layer>
 <layer id="19" name="Tile Layer 3" width="20" height="34">
  <data encoding="csv">
0,0,0,0,0,0,0,0,0,0,0,0,0,0,0,0,0,0,0,0,
0,0,0,0,0,0,0,0,0,0,0,0,0,0,0,0,0,0,0,0,
0,0,0,0,0,0,0,0,0,0,0,0,0,0,0,0,0,0,0,0,
0,0,0,0,0,0,0,0,0,0,0,0,0,0,0,0,0,0,0,0,
0,0,0,0,0,0,0,0,0,0,0,0,0,0,0,0,0,0,0,0,
0,0,0,0,0,0,0,0,0,0,0,0,0,0,0,0,0,0,0,0,
0,0,0,0,0,0,0,0,0,0,0,0,0,0,0,0,0,0,0,0,
0,0,0,0,0,0,0,0,0,0,0,0,0,0,0,0,0,0,0,0,
0,0,0,0,0,0,0,0,0,0,0,0,0,0,0,0,0,0,0,0,
0,0,0,0,0,0,0,0,0,0,0,0,0,0,0,0,0,0,0,0,
0,0,0,0,0,0,0,0,0,0,0,0,0,0,0,0,0,0,0,0,
0,0,0,0,0,0,0,0,0,0,0,0,0,0,0,0,0,0,0,0,
0,0,0,0,0,0,0,0,0,0,0,0,0,0,0,0,0,0,0,0,
0,0,0,0,0,0,0,0,0,0,0,0,0,0,0,0,0,0,0,0,
0,0,0,0,0,0,0,0,0,0,0,0,0,0,0,0,0,0,0,0,
0,0,0,0,0,0,0,0,0,0,0,0,0,0,0,0,0,0,0,0,
0,0,0,0,0,0,0,0,0,0,0,0,0,0,0,0,0,0,0,0,
0,0,0,0,0,0,730,731,732,0,0,0,0,730,731,732,0,0,0,0,
0,0,0,0,0,0,736,737,738,0,0,0,0,736,737,738,0,0,0,0,
0,0,0,0,0,0,742,743,744,730,731,732,0,742,743,737,731,731,731,732,
0,0,0,0,0,0,0,0,0,736,737,738,0,0,0,736,737,737,737,738,
0,0,0,0,0,0,0,0,0,742,743,744,0,0,0,742,743,743,743,744,
0,0,0,0,0,0,0,0,0,0,0,0,0,0,0,0,0,0,0,0,
0,0,0,0,0,0,0,0,0,0,0,0,0,0,0,0,0,0,0,0,
0,0,0,0,0,0,0,0,0,0,0,0,0,0,0,0,0,0,0,0,
0,0,0,0,0,0,0,0,0,0,0,0,0,0,0,0,0,0,0,0,
0,0,0,0,0,0,0,0,0,0,0,0,0,0,0,0,0,0,0,0,
0,0,0,0,0,0,0,0,0,0,0,0,0,0,0,0,0,0,0,0,
0,0,0,0,0,0,0,0,0,0,0,0,0,0,0,0,0,0,0,0,
0,0,0,0,0,0,0,0,0,0,0,0,0,0,0,0,0,0,0,0,
0,0,0,0,0,0,0,0,0,0,0,0,0,0,0,0,0,0,0,0,
0,0,0,0,0,0,0,0,0,0,0,0,0,0,0,0,0,0,0,0,
0,0,0,0,0,0,0,0,0,0,0,0,0,0,0,0,0,0,0,0,
0,0,0,0,0,0,0,0,0,0,0,0,0,0,0,0,0,0,0,0
</data>
 </layer>
 <layer id="8" name="Tile Layer 2" width="20" height="34">
  <data encoding="csv">
0,0,0,0,0,0,0,0,0,0,0,0,0,0,0,0,0,0,0,0,
0,0,0,0,0,0,0,0,0,0,0,0,0,0,0,0,0,0,0,0,
0,0,0,0,0,0,0,0,0,0,0,0,0,0,0,0,0,0,0,0,
0,0,0,0,0,0,0,0,0,0,0,0,0,0,0,0,0,0,0,0,
0,0,0,0,0,0,0,0,0,0,0,0,0,0,0,0,0,0,0,0,
0,0,0,0,0,0,0,0,0,0,0,0,0,0,0,0,0,0,0,0,
0,0,0,0,0,0,0,0,0,0,0,0,0,0,0,0,0,0,0,0,
0,0,0,0,0,0,0,0,0,0,0,0,0,0,0,0,0,0,0,0,
0,0,0,0,0,0,0,0,0,0,0,0,0,0,0,0,0,0,0,0,
0,0,0,0,0,0,0,0,0,0,0,0,0,0,0,0,0,0,0,0,
0,0,0,0,0,0,0,0,0,0,0,0,0,0,0,0,0,0,0,0,
0,0,0,0,0,0,0,0,0,0,0,0,0,0,0,0,0,174,0,0,
0,0,0,0,0,0,0,0,0,0,0,0,0,0,0,0,0,0,0,0,
0,0,0,0,0,0,0,0,0,0,0,0,0,0,0,0,0,0,0,0,
0,0,0,0,0,0,0,727,728,728,729,727,728,728,728,728,728,729,0,0,
0,0,0,0,0,0,0,733,775,769,741,733,769,734,775,734,775,735,0,0,
0,0,0,0,0,0,0,733,769,735,0,733,734,734,734,734,734,735,0,0,
0,0,0,0,0,0,0,733,769,735,0,733,775,734,734,734,769,735,0,0,
0,0,0,0,0,0,0,733,775,735,0,733,734,734,734,734,734,734,728,729,
0,0,0,0,0,0,0,733,775,735,0,739,775,734,769,734,775,734,775,735,
0,0,0,0,0,0,0,733,775,735,0,0,739,740,740,740,740,734,734,735,
0,0,0,0,0,0,0,739,740,741,0,0,0,0,0,0,0,733,775,735,
0,0,0,0,0,0,0,0,0,0,0,0,0,0,0,0,0,733,769,735,
0,0,0,0,0,0,0,0,0,0,0,0,0,0,0,0,0,733,775,735,
0,0,0,0,0,0,0,0,0,0,0,0,0,0,0,0,0,733,775,735,
0,0,0,0,0,0,0,0,0,0,0,0,0,0,0,0,0,739,740,741,
0,0,0,0,0,0,0,0,0,0,0,0,0,0,0,0,0,0,0,0,
0,0,0,0,0,0,0,0,0,0,0,0,0,0,0,0,0,0,0,0,
0,0,0,0,0,0,0,0,0,0,0,0,0,0,0,0,0,0,0,0,
0,0,0,0,0,0,0,0,0,0,0,0,0,0,0,0,0,0,0,0,
0,0,0,0,0,0,0,0,0,0,0,0,0,0,0,0,0,0,0,0,
0,0,0,0,0,0,0,0,0,0,0,0,0,0,0,0,0,0,0,0,
0,0,0,0,0,0,0,0,0,0,0,0,0,0,0,0,0,0,0,0,
0,0,0,0,0,0,0,0,0,0,0,0,0,0,0,0,0,0,0,0
</data>
 </layer>
 <layer id="5" name="Tile Layer 1" width="20" height="34">
  <data encoding="csv">
0,0,0,0,0,0,0,0,0,0,0,0,0,0,0,0,0,0,0,0,
0,0,0,0,0,0,0,0,0,0,0,0,0,0,0,0,0,0,0,0,
0,0,0,0,0,0,0,0,0,0,0,0,0,0,0,0,0,0,0,0,
0,0,0,0,0,0,0,0,0,0,0,0,0,0,0,0,0,0,0,0,
0,0,0,0,0,0,0,0,0,0,0,0,0,0,0,0,0,0,0,0,
0,0,0,0,0,0,0,0,0,0,0,0,0,0,0,0,0,0,0,0,
0,0,0,0,0,0,0,0,0,0,0,0,0,0,0,0,0,0,0,0,
0,0,0,0,0,0,0,0,0,0,0,0,0,0,0,0,0,0,0,0,
0,0,0,0,0,0,0,0,0,0,0,0,0,0,0,0,0,0,0,0,
0,174,174,174,174,174,174,174,0,0,0,0,0,0,0,0,174,174,174,174,
0,10,10,10,10,10,10,10,37,38,39,40,39,39,40,41,10,10,10,10,
0,10,10,10,10,10,10,10,55,56,57,58,57,57,58,59,10,10,10,10,
0,7,8,9,28,28,28,28,64,65,68,66,67,69,70,71,28,28,28,28,
0,16,17,18,0,0,0,0,73,74,75,76,77,78,79,80,0,0,0,0,
0,25,26,27,0,0,0,0,0,0,0,0,0,0,0,0,0,0,0,0,
0,10,10,10,0,0,0,0,0,0,0,0,0,0,0,0,0,0,0,0,
0,10,10,10,0,0,0,0,0,0,0,751,0,751,0,751,0,0,0,0,
0,10,10,10,0,0,0,0,0,0,0,0,0,0,0,0,0,0,0,0,
0,10,10,10,0,0,0,0,0,0,0,751,0,751,0,751,0,0,0,0,
0,10,10,10,0,0,0,0,0,0,0,0,0,0,0,0,0,0,0,0,
0,10,10,10,611,611,611,611,611,611,0,0,0,0,0,0,0,0,0,0,
0,10,34,35,36,10,10,7,8,9,0,0,0,0,0,0,0,0,0,0,
0,10,43,44,45,10,10,16,17,18,0,0,0,0,0,0,0,0,0,0,
0,10,52,53,54,10,10,25,26,27,0,0,0,0,0,0,0,611,611,611,
0,28,28,28,28,28,28,28,28,28,0,0,0,0,0,0,0,7,8,9,
0,0,0,0,0,0,0,0,0,0,0,0,0,0,0,611,611,16,17,18,
0,0,0,0,0,0,0,0,0,0,0,0,0,0,0,188,189,25,26,27,
0,0,0,0,0,0,0,0,0,0,0,0,0,0,88,197,198,10,132,133,
0,0,0,0,0,0,0,0,0,0,0,0,0,88,97,10,10,10,141,142,
174,174,174,174,174,174,174,174,174,174,174,174,88,97,106,28,28,28,28,28,
10,11,12,10,10,10,4,10,10,4,10,10,97,106,115,127,128,129,130,127,
10,168,169,170,171,132,133,134,135,10,10,10,106,115,0,136,137,138,139,136,
10,177,178,179,180,141,142,143,144,10,10,10,115,0,0,145,146,147,148,145,
28,28,28,28,28,28,28,28,28,28,28,28,0,0,0,154,155,156,157,154
</data>
 </layer>
 <objectgroup id="20" name="objects_eyeglow">
  <object id="77" name="eye_glow" x="480" y="516">
   <point/>
  </object>
 </objectgroup>
 <layer id="17" name="roomglow_dark" width="20" height="34" visible="0">
  <data encoding="csv">
331,331,331,331,331,331,331,331,331,331,331,331,331,331,331,331,331,331,331,331,
331,331,331,331,331,331,331,331,331,331,331,331,331,331,331,331,331,331,331,331,
331,331,331,331,331,331,331,331,331,331,331,331,331,331,331,331,331,331,331,331,
331,331,331,331,331,331,331,331,331,331,331,331,331,331,331,331,331,331,331,331,
331,331,331,331,331,331,331,331,331,331,331,331,331,331,331,331,331,331,331,331,
331,331,331,331,331,331,331,331,331,331,331,331,331,331,331,331,331,331,331,331,
331,331,331,331,331,331,331,331,331,331,331,331,331,331,331,331,331,331,331,331,
331,331,331,331,331,331,331,331,331,331,331,331,331,331,331,331,331,331,331,331,
331,331,331,331,331,331,331,331,331,331,331,331,331,331,331,331,331,331,331,331,
331,331,331,331,331,331,331,331,331,331,331,331,331,331,331,331,331,331,331,331,
331,0,0,0,0,0,0,0,0,0,0,0,0,0,0,0,0,0,0,0,
331,0,0,0,0,0,0,0,0,0,0,0,0,0,0,0,0,0,0,0,
331,0,0,0,331,331,331,331,331,331,331,331,331,331,331,331,331,331,331,331,
331,0,0,0,331,331,331,331,331,331,331,331,331,331,331,331,331,331,331,331,
331,0,0,0,331,331,331,331,331,331,331,331,331,331,331,331,331,331,331,331,
331,0,0,0,331,331,331,331,331,331,331,331,331,331,331,331,331,331,331,331,
331,0,0,0,331,331,331,331,331,331,331,331,331,331,331,331,331,331,331,331,
331,0,0,0,331,331,331,331,331,331,331,331,331,331,331,331,331,331,331,331,
331,0,0,0,331,331,331,0,0,0,0,0,0,0,0,0,0,0,331,331,
0,0,0,0,0,0,0,0,0,0,0,0,0,0,0,0,0,0,0,0,
0,0,0,0,0,0,0,0,0,0,0,0,0,0,0,0,0,0,0,0,
0,0,0,0,0,0,0,0,0,0,0,0,0,0,0,0,0,0,0,0,
0,0,0,0,0,0,0,0,0,0,0,0,0,0,0,0,0,0,0,0,
0,0,0,0,0,0,0,0,0,0,0,0,0,0,0,0,0,0,0,0,
0,0,0,0,0,0,0,0,0,0,0,0,0,0,0,0,0,0,0,0,
0,0,0,0,0,0,0,0,0,0,0,0,0,0,0,0,0,0,0,0,
0,0,0,0,0,0,0,0,0,0,0,0,0,0,0,0,0,0,0,0,
0,0,0,0,0,0,0,0,0,0,0,0,0,0,0,0,0,0,0,0,
0,0,0,0,0,0,0,0,0,0,0,0,0,0,0,0,0,0,0,0,
0,0,0,0,0,0,0,0,0,0,0,0,0,0,0,0,0,0,0,0,
0,0,0,0,0,0,0,0,0,0,0,0,0,0,0,0,0,0,0,0,
0,0,0,0,0,0,0,0,0,0,0,0,0,0,0,0,0,0,0,0,
0,0,0,0,0,0,0,0,0,0,0,0,0,0,0,0,0,0,0,0,
0,0,0,0,0,0,0,0,0,0,0,0,0,0,0,0,0,0,0,0
</data>
 </layer>
 <objectgroup color="#00ffff" id="24" name="climbing" class="objects">
  <object id="40" type="climbarea" x="720" y="840" width="40" height="80"/>
  <object id="41" type="climbarea" x="720" y="760" width="40" height="40"/>
  <object id="43" type="climbarea" x="480" y="760" width="40" height="40"/>
  <object id="44" type="climbarea" x="480" y="600" width="40" height="40"/>
  <object id="45" type="climbarea" x="320" y="600" width="40" height="200"/>
  <object id="104" type="climbarea" x="360" y="600" width="40" height="40"/>
  <object id="108" type="climbarea" x="480" y="680" width="40" height="40"/>
  <object id="110" type="climbarea" x="560" y="600" width="40" height="40"/>
  <object id="111" type="climbarea" x="560" y="760" width="40" height="40"/>
  <object id="112" type="climbarea" x="640" y="760" width="40" height="40"/>
  <object id="113" type="climbarea" x="640" y="680" width="40" height="40"/>
  <object id="114" type="climbarea" x="640" y="600" width="40" height="40"/>
  <object id="150" type="climbarea" x="440" y="640" width="40" height="40"/>
  <object id="151" type="climbarea" x="440" y="720" width="40" height="40"/>
  <object id="152" type="climbarea" x="520" y="720" width="40" height="40"/>
  <object id="153" type="climbarea" x="520" y="640" width="40" height="40"/>
  <object id="154" type="climbarea" x="600" y="720" width="40" height="40"/>
  <object id="155" type="climbarea" x="600" y="640" width="40" height="40"/>
 </objectgroup>
 <objectgroup color="#ff0000" id="11" name="collision">
  <object id="14" x="0" y="1160" width="480" height="40"/>
  <object id="15" x="0" y="1320" width="480" height="40"/>
  <object id="16" x="600" y="1160" width="200" height="40"/>
  <object id="17" x="800" y="1000" width="40" height="160"/>
  <object id="18" x="40" y="960" width="360" height="40"/>
  <object id="22" x="480" y="1200">
   <polygon points="0,0 120,-120 120,-160 0,-160"/>
  </object>
  <object id="23" x="480" y="1280">
   <polygon points="0,0 120,-120 120,0"/>
  </object>
  <object id="26" x="160" y="490" width="120" height="350"/>
  <object id="27" x="280" y="480" width="520" height="40"/>
  <object id="28" x="0" y="400" width="40" height="560"/>
  <object id="29" x="40" y="360" width="760" height="40"/>
  <object id="32" x="280" y="800" width="120" height="40"/>
  <object id="39" x="680" y="920" width="120" height="40"/>
  <object id="102" x="480" y="1280" width="120" height="80"/>
  <object id="105" x="400" y="840" width="40" height="120"/>
  <object id="156" x="600" y="960" width="80" height="80"/>
 </objectgroup>
 <objectgroup color="#aa00ff" id="6" name="markers">
  <object id="7" name="entry" x="40" y="1240">
   <point/>
  </object>
  <object id="47" name="spawn" x="280" y="440">
   <point/>
  </object>
  <object id="53" name="targ" x="480" y="240">
   <point/>
  </object>
  <object id="76" name="entry2" x="760" y="440">
   <point/>
  </object>
  <object id="144" x="340" y="880">
   <point/>
  </object>
  <object id="147" x="740" y="1000">
   <point/>
  </object>
 </objectgroup>
 <objectgroup id="23" name="object_buckets"/>
 <objectgroup color="#ff00ff" id="7" name="objects_party">
  <object id="8" name="transition" x="-40" y="1200" width="40" height="120">
   <properties>
    <property name="map" value="3_4th_sanctuary/fourth_sanctum_2"/>
    <property name="marker" value="entry2"/>
   </properties>
  </object>
  <object id="50" name="roomglow" x="0" y="0">
   <properties>
    <property name="prophecy" type="bool" value="true"/>
   </properties>
   <point/>
  </object>
  <object id="51" name="cameratarget" x="320" y="400" width="320" height="80">
   <properties>
    <property name="lockx" type="bool" value="false"/>
    <property name="locky" type="bool" value="true"/>
    <property name="marker" value="targ"/>
    <property name="time" type="float" value="0.75"/>
   </properties>
  </object>
  <object id="54" name="transition" x="800" y="400" width="40" height="80">
   <properties>
    <property name="map" value="3_4th_sanctuary/fourth_sanctum_4"/>
    <property name="marker" value="entry"/>
   </properties>
  </object>
  <object id="94" name="enemy" x="100" y="720">
   <properties>
    <property name="actor" value="organikk"/>
    <property name="encounter" value="organikk3"/>
    <property name="group" type="int" value="1"/>
    <property name="pacetype" value="horizontalswing"/>
    <property name="swingdiv" type="float" value="20"/>
    <property name="swinglength" type="float" value="200"/>
   </properties>
  </object>
  <object id="96" name="enemy" x="100" y="480">
   <properties>
    <property name="actor" value="organikk"/>
    <property name="encounter" value="organikk3"/>
    <property name="group" type="int" value="1"/>
    <property name="pacetype" value="horizontalswing"/>
    <property name="swingdiv" type="float" value="10"/>
    <property name="swinglength" type="float" value="200"/>
   </properties>
  </object>
  <object id="95" name="enemy" x="100" y="590">
   <properties>
    <property name="actor" value="organikk"/>
    <property name="encounter" value="organikk3"/>
    <property name="group" type="int" value="1"/>
    <property name="pacetype" value="horizontalswing"/>
    <property name="swingdiv" type="float" value="15"/>
    <property name="swinglength" type="float" value="200"/>
   </properties>
  </object>
  <object id="98" name="prophecy" x="320" y="400" width="320" height="80">
   <properties>
    <property name="offx" type="float" value="158"/>
    <property name="offy" type="float" value="-188"/>
    <property name="panel_h" type="int" value="148"/>
    <property name="spr_offx" type="float" value="62"/>
    <property name="spr_offy" type="float" value="77"/>
    <property name="text">FOUNTAINS ARE GIFTED 
THROUGH HER HEART.</property>
    <property name="texture" value="fountain"/>
    <property name="txt_offx" type="float" value="-158"/>
    <property name="txt_offy" type="float" value="-40"/>
   </properties>
  </object>
  <object id="123" name="climbcoin" x="560" y="720" width="40" height="40">
   <properties>
    <property name="value" type="int" value="5"/>
   </properties>
  </object>
  <object id="125" name="climbcoin" x="560" y="640" width="40" height="40">
   <properties>
    <property name="value" type="int" value="5"/>
   </properties>
  </object>
  <object id="126" name="climbcoin" x="480" y="640" width="40" height="40">
   <properties>
    <property name="value" type="int" value="5"/>
   </properties>
  </object>
  <object id="133" name="climbcoin" x="480" y="720" width="40" height="40">
   <properties>
    <property name="value" type="int" value="5"/>
   </properties>
  </object>
  <object id="145" name="climbentry" x="320" y="800" width="40" height="40">
   <properties>
    <property name="target" type="object" value="146"/>
   </properties>
  </object>
  <object id="146" name="climbexit" x="320" y="760" width="40" height="40">
   <properties>
    <property name="target" type="object" value="144"/>
   </properties>
  </object>
  <object id="148" name="climbentry" x="720" y="920" width="40" height="40">
   <properties>
    <property name="target" type="object" value="149"/>
   </properties>
  </object>
  <object id="149" name="climbexit" x="720" y="880" width="40" height="40">
   <properties>
    <property name="target" type="object" value="147"/>
   </properties>
  </object>
 </objectgroup>
 <objectgroup id="21" name="objects_fog">
  <object id="3" name="churchfog" x="40" y="0">
   <point/>
  </object>
 </objectgroup>
 <objectgroup id="4" name="objects_overlay">
  <object id="4" name="filter" x="80" y="0">
   <properties>
    <property name="type" value="hsv3"/>
   </properties>
   <point/>
  </object>
 </objectgroup>
</map>
