<?xml version="1.0" encoding="UTF-8"?>
<map version="1.11" tiledversion="1.12.2" orientation="orthogonal" renderorder="right-down" width="43" height="43" tilewidth="40" tileheight="40" infinite="0" nextlayerid="35" nextobjectid="259">
 <editorsettings>
  <export target="data.lua" format="lua"/>
 </editorsettings>
 <properties>
  <property name="border" value="church_b"/>
  <property name="music" value="second_church"/>
  <property name="name" value="Second Sanctuary - Split"/>
 </properties>
 <tileset firstgid="1" source="../../../tilesets/bg_dw_church_2_tileset.tsx"/>
 <tileset firstgid="199" source="../../../tilesets/bg_dw_church_tileset_new.tsx"/>
 <tileset firstgid="781" source="../../../tilesets/bg_dw_church_watertileset.tsx"/>
 <tileset firstgid="931" source="../../../tilesets/bg_dw_church_library_2_tileset.tsx"/>
 <tileset firstgid="1191" source="../../../tilesets/WatersourceAnimated.tsx"/>
 <tileset firstgid="1221" source="../../../tilesets/ExtraClimbingTiles.tsx"/>
 <tileset firstgid="1230" source="../../../tilesets/church_objects.tsx"/>
 <tileset firstgid="1340" source="../../../tilesets/bg_dw_dither_overlay_tileset.tsx"/>
 <tileset firstgid="1386" source="../../../tilesets/RandomExtraTiles.tsx"/>
 <tileset firstgid="1674" source="../../../tilesets/bg_dw_church_watertileset_drained.tsx"/>
 <objectgroup id="16" name="objects_parallax2" visible="0" parallaxx="0.5" parallaxy="0.9">
  <object id="90" gid="3221226705" x="-235" y="899" width="400" height="1600"/>
  <object id="91" gid="1234" x="529" y="-309" width="640" height="1600" rotation="-180"/>
  <object id="205" gid="1330" x="542" y="1687" width="640" height="1600">
   <properties>
    <property name="color" type="color" value="#ff144139"/>
   </properties>
  </object>
  <object id="206" gid="1328" x="916" y="1719" width="200" height="1240">
   <properties>
    <property name="color" type="color" value="#ff144139"/>
   </properties>
  </object>
  <object id="207" gid="1328" x="916" y="1719" width="200" height="1240">
   <properties>
    <property name="color" type="color" value="#ff144139"/>
   </properties>
  </object>
  <object id="208" gid="1331" x="1114" y="1369" width="400" height="578">
   <properties>
    <property name="color" type="color" value="#ff144139"/>
   </properties>
  </object>
  <object id="209" gid="1331" x="1114" y="1719" width="400" height="578">
   <properties>
    <property name="color" type="color" value="#ff144139"/>
   </properties>
  </object>
 </objectgroup>
 <objectgroup id="31" name="objects_parallax1" visible="0" parallaxx="0.55" parallaxy="0.99">
  <object id="189" gid="1234" x="-920" y="2200" width="704" height="1760" rotation="45"/>
 </objectgroup>
 <objectgroup id="23" name="objects_parallax_fade" visible="0">
  <object id="161" gid="1238" x="1720" y="2320" width="1280" height="1720" rotation="270"/>
 </objectgroup>
 <layer id="21" name="roomglow_dark_bg" width="43" height="43" visible="0">
  <data encoding="csv">
0,0,0,0,0,0,0,0,0,0,0,0,0,0,0,0,0,0,0,0,0,0,0,0,0,0,0,0,0,0,0,0,0,0,0,0,0,0,0,0,0,0,0,
0,0,0,0,0,0,0,0,0,0,0,0,0,0,0,0,0,0,0,0,0,0,0,0,0,0,0,0,0,0,0,0,0,0,0,0,0,0,0,0,0,0,0,
0,0,0,0,0,0,0,0,0,0,0,0,0,0,0,0,0,0,0,0,0,0,0,0,0,0,0,0,0,0,0,0,0,0,0,0,0,0,0,0,0,0,0,
0,0,0,0,0,0,0,0,0,0,0,0,0,0,0,0,0,0,0,0,0,0,0,0,0,0,0,0,0,0,0,0,0,0,0,0,0,0,0,0,0,0,0,
0,0,0,0,0,0,0,0,0,0,0,0,0,0,0,0,0,0,0,0,0,0,0,0,0,0,0,0,0,0,0,0,0,0,0,0,0,0,0,0,0,0,0,
0,0,0,0,0,0,0,0,0,0,0,0,0,0,0,0,0,0,0,0,0,0,0,0,0,0,0,0,0,0,0,0,0,0,0,0,0,0,0,0,0,0,0,
0,0,0,0,0,0,0,0,0,331,0,0,0,0,0,0,0,0,0,0,0,0,0,0,0,0,0,0,0,0,0,0,0,331,0,0,0,0,0,0,0,0,0,
0,0,0,0,0,0,0,0,0,0,331,0,0,0,0,0,0,0,0,0,0,0,0,0,0,0,0,0,0,0,0,0,331,0,0,0,0,0,0,0,0,0,0,
0,0,0,0,0,0,0,0,0,0,0,331,0,0,0,0,0,0,0,0,0,0,0,0,0,0,0,0,0,0,0,331,0,0,0,0,0,0,0,0,0,0,0,
0,0,0,0,0,0,0,0,0,0,0,0,331,0,0,0,0,0,0,0,0,0,0,0,0,0,0,0,0,0,331,0,0,0,0,0,0,0,0,0,0,0,0,
0,0,0,0,0,0,0,0,0,0,0,0,0,0,0,0,0,0,0,0,0,0,0,0,0,0,0,0,0,0,0,0,0,0,0,0,0,0,0,0,0,0,0,
0,0,0,0,0,0,0,0,0,0,0,0,0,0,0,0,0,0,0,0,0,0,0,0,0,0,0,0,0,0,0,0,0,0,0,0,0,0,0,0,0,0,0,
0,0,0,0,0,0,0,0,0,0,0,0,0,0,0,0,0,0,0,0,0,0,0,0,0,0,0,0,0,0,0,0,0,0,0,0,0,0,0,0,0,0,0,
0,0,0,0,0,0,0,0,0,0,0,0,0,0,0,0,0,0,0,0,0,0,0,0,0,0,0,0,0,0,0,0,0,0,0,0,0,0,0,0,0,0,0,
0,0,0,0,0,0,0,0,0,0,0,0,0,0,0,0,0,0,0,0,0,0,0,0,0,0,0,0,0,0,0,0,0,0,0,0,0,0,0,0,0,0,0,
0,0,0,0,0,0,0,0,0,0,0,0,0,0,0,0,0,0,0,0,0,0,0,0,0,0,0,0,0,0,0,0,0,0,0,0,0,0,0,0,0,0,0,
0,0,0,0,0,0,0,0,0,0,0,0,0,0,0,0,0,0,0,0,0,0,0,0,0,0,0,0,0,0,0,0,0,0,0,0,0,0,0,0,0,0,0,
0,0,0,0,0,0,0,0,0,0,0,0,331,0,0,0,0,0,0,0,0,0,0,0,0,0,0,0,0,0,331,0,0,0,0,0,0,0,0,0,0,0,0,
0,0,0,0,0,0,0,0,0,0,0,0,0,0,0,0,0,0,0,0,0,0,0,0,0,0,0,0,0,0,0,0,0,0,0,0,0,0,0,0,0,0,0,
0,0,0,0,0,0,0,0,0,0,0,0,0,0,0,0,0,0,0,0,0,0,0,0,0,0,0,0,0,0,0,0,0,0,0,0,0,0,0,0,0,0,0,
0,0,0,0,0,0,0,0,0,0,0,0,0,0,0,0,0,0,0,0,0,0,0,0,0,0,0,0,0,0,0,0,0,0,0,0,0,0,0,0,0,0,0,
0,0,0,0,0,0,0,0,0,0,0,0,0,0,0,0,0,0,0,0,0,0,0,0,0,0,0,0,0,0,0,0,0,0,0,0,0,0,0,0,0,0,0,
0,0,0,0,0,0,0,0,0,0,0,0,0,0,0,0,0,0,0,0,0,0,0,0,0,0,0,0,0,0,0,0,0,0,0,0,0,0,0,0,0,0,0,
0,0,0,0,0,0,0,0,0,0,0,0,0,0,0,0,0,0,0,0,0,0,0,0,0,0,0,0,0,0,0,0,0,0,0,0,0,0,0,0,0,0,0,
0,0,0,0,0,0,0,0,0,0,0,0,0,0,0,0,0,0,0,0,0,0,0,0,0,0,0,0,0,0,0,0,0,0,0,0,0,0,0,0,0,0,0,
0,0,0,0,0,0,0,0,0,0,0,0,0,0,0,0,0,0,0,0,0,0,0,0,0,0,0,0,0,0,0,0,0,0,0,0,0,0,0,0,0,0,0,
0,0,0,0,0,0,0,0,0,0,0,0,0,0,0,0,0,0,0,0,0,0,0,0,0,0,0,0,0,0,0,0,0,0,0,0,0,0,0,0,0,0,0,
0,0,0,0,0,0,0,0,0,0,0,0,0,0,0,0,0,0,0,0,0,0,0,0,0,0,0,0,0,0,0,0,0,0,0,0,0,0,0,0,0,0,0,
0,0,0,0,0,0,0,0,0,0,0,0,0,0,0,0,0,0,0,0,0,0,0,0,0,0,0,0,0,0,0,0,0,0,0,0,0,0,0,0,0,0,0,
0,0,0,0,0,0,0,0,0,0,0,0,0,0,0,0,0,0,0,0,0,0,0,0,0,0,0,0,0,0,0,0,0,0,0,0,0,0,0,0,0,0,0,
0,0,0,0,0,0,0,0,0,0,0,0,0,0,0,0,0,0,0,0,0,0,0,0,0,0,0,0,0,0,0,0,0,0,0,0,0,0,0,0,0,0,0,
0,0,0,0,0,0,0,0,0,0,0,0,0,0,0,0,0,0,0,0,0,0,0,0,0,0,0,0,0,0,0,0,0,0,0,0,0,0,0,0,0,0,0,
0,0,0,0,0,0,0,0,0,0,0,0,0,0,0,0,0,0,0,0,0,0,0,0,0,0,0,0,0,0,0,0,0,0,0,0,0,0,0,0,0,0,0,
0,0,0,0,0,0,0,0,0,0,0,0,0,0,0,0,0,0,0,0,0,0,0,0,0,0,0,0,0,0,0,0,0,0,0,0,0,0,0,0,0,0,0,
0,0,0,0,0,0,0,0,0,0,0,0,0,0,0,0,0,0,0,0,0,0,0,0,0,0,0,0,0,0,0,0,0,0,0,0,0,0,0,0,0,0,0,
0,0,0,0,0,0,0,0,0,0,0,0,0,0,0,0,0,0,0,0,0,0,0,0,0,0,0,0,0,0,0,0,0,0,0,0,0,0,0,0,0,0,0,
0,0,0,0,0,0,0,0,0,0,0,0,0,0,0,0,0,0,0,0,0,0,0,0,0,0,0,0,0,0,0,0,0,0,0,0,0,0,0,0,0,0,0,
0,0,0,0,0,0,0,0,0,0,0,0,0,0,0,0,0,0,0,0,0,0,0,0,0,0,0,0,0,0,0,0,0,0,0,0,0,0,0,0,0,0,0,
0,0,0,0,0,0,0,0,0,0,0,0,0,0,0,0,0,0,0,0,0,0,0,0,0,0,0,0,0,0,0,0,0,0,0,0,0,0,0,0,0,0,0,
0,0,0,0,0,0,0,0,0,0,0,0,0,0,0,0,0,0,0,0,0,0,0,0,0,0,0,0,0,0,0,0,0,0,0,0,0,0,0,0,0,0,0,
0,0,0,0,0,0,0,0,0,0,0,0,0,0,0,0,0,0,0,0,0,0,0,0,0,0,0,0,0,0,0,0,0,0,0,0,0,0,0,0,0,0,0,
0,0,0,0,0,0,0,0,0,0,0,0,0,0,0,0,0,0,0,0,0,0,0,0,0,0,0,0,0,0,0,0,0,0,0,0,0,0,0,0,0,0,0,
0,0,0,0,0,0,0,0,0,0,0,0,0,0,0,0,0,0,0,0,0,0,0,0,0,0,0,0,0,0,0,0,0,0,0,0,0,0,0,0,0,0,0
</data>
 </layer>
 <objectgroup id="26" name="objects_below"/>
 <layer id="33" name="Tile Laye r88888" width="43" height="43">
  <data encoding="csv">
0,0,0,0,0,0,0,0,0,0,0,0,0,0,0,0,0,0,0,0,0,0,0,0,0,0,0,0,0,0,0,0,0,0,0,0,0,0,0,0,0,0,0,
0,0,0,0,0,0,0,0,0,0,0,0,0,0,0,0,0,0,0,0,0,0,0,0,0,0,0,0,0,0,0,0,0,0,0,0,0,0,0,0,0,0,0,
0,0,0,0,0,0,0,0,0,0,0,0,0,0,0,0,0,0,0,0,0,0,0,0,0,0,0,0,0,0,0,0,0,0,0,0,0,0,0,0,0,0,0,
0,0,0,0,0,0,0,0,0,0,0,0,0,0,0,0,0,0,0,0,0,0,0,0,0,0,0,0,0,0,0,0,0,0,0,0,0,0,0,0,0,0,0,
0,0,0,0,0,0,0,0,0,0,0,0,0,0,0,0,0,0,0,0,0,0,0,0,0,0,0,0,0,0,0,0,0,0,0,0,0,0,0,0,0,0,0,
0,0,0,0,0,0,0,0,0,0,0,0,0,0,0,0,0,0,0,0,0,0,0,0,0,0,0,0,0,0,0,0,0,0,0,0,0,0,0,0,0,0,0,
0,0,0,0,0,0,0,0,0,0,0,0,0,0,0,0,0,0,0,0,0,0,0,0,0,0,0,0,0,0,0,0,0,0,0,0,0,0,0,0,0,0,0,
0,0,0,0,0,0,0,0,0,0,0,0,0,0,0,0,0,0,0,0,0,0,0,0,0,0,0,0,0,0,0,0,0,0,0,0,0,0,0,0,0,0,0,
0,0,0,0,0,0,0,0,0,0,0,0,0,0,0,0,0,0,0,0,0,0,0,0,0,0,0,0,0,0,0,0,0,0,0,0,0,0,0,0,0,0,0,
0,0,0,0,0,0,0,0,0,0,0,0,0,0,0,0,0,0,0,0,0,0,0,0,0,0,0,0,0,0,0,0,0,0,0,0,0,0,0,0,0,0,0,
0,0,0,0,0,0,0,0,0,0,0,0,0,0,0,0,0,0,0,0,0,0,0,0,0,0,0,0,0,0,0,0,0,0,0,0,0,0,0,0,0,0,0,
0,0,0,0,0,0,0,0,0,0,0,0,0,0,0,0,0,0,0,0,0,0,0,0,0,0,0,0,0,0,0,0,0,0,0,0,0,0,0,0,0,0,0,
0,0,0,0,0,0,0,0,0,0,0,0,0,0,0,0,0,0,0,0,0,0,0,0,0,0,0,0,0,0,0,0,0,0,0,0,0,0,0,0,0,0,0,
0,0,0,0,0,0,0,0,0,0,0,0,0,0,0,0,0,0,0,0,0,0,0,0,0,0,0,0,0,0,0,0,0,0,0,0,0,0,0,0,0,0,0,
0,0,0,0,0,0,0,0,0,0,0,0,0,0,0,0,0,0,0,0,0,0,0,0,0,0,0,0,0,0,0,0,0,0,0,0,0,0,0,0,0,0,0,
0,0,0,0,0,0,0,0,0,0,0,0,0,0,0,0,0,0,0,0,0,0,0,0,0,0,0,0,0,0,0,0,0,0,0,0,0,0,0,0,0,0,0,
0,0,0,0,0,0,0,0,0,0,0,0,0,0,0,0,0,0,0,0,0,0,0,0,0,0,0,0,0,0,0,0,0,0,0,0,0,0,0,0,0,0,0,
0,0,0,0,0,0,0,0,0,0,0,0,0,0,0,0,0,0,0,0,0,0,0,0,0,0,0,0,0,0,0,0,0,0,0,0,0,0,0,0,0,0,0,
774,774,774,774,0,0,0,0,0,0,0,0,0,0,0,0,0,0,0,0,0,0,0,0,0,0,0,0,774,774,0,0,0,0,0,0,0,0,0,0,0,0,0,
0,0,0,0,0,0,0,0,0,0,0,0,0,0,0,0,0,0,0,0,0,0,0,0,0,0,0,0,0,0,0,0,0,0,0,0,0,0,0,0,0,0,0,
0,0,0,0,0,0,0,0,0,0,0,0,0,0,0,0,0,0,0,0,0,0,0,0,0,0,0,0,0,0,0,0,0,0,0,0,0,0,0,0,0,0,0,
0,0,0,0,0,0,0,0,0,0,0,0,0,0,0,0,0,0,0,0,0,0,0,0,0,0,0,0,0,0,0,0,0,0,0,0,0,0,0,0,0,0,0,
0,0,0,0,0,0,0,0,0,0,0,0,0,0,0,0,0,0,0,0,0,0,0,0,0,0,0,0,0,0,0,0,0,0,0,0,0,0,0,0,0,0,0,
0,0,0,0,0,0,0,0,0,753,754,754,755,127,0,0,0,0,0,0,0,0,0,0,0,0,0,0,127,128,129,130,753,754,754,755,753,754,754,755,0,0,0,
0,0,0,0,0,0,0,0,0,759,754,754,755,136,0,0,0,0,0,0,0,0,0,0,0,0,0,0,136,137,138,139,759,754,754,755,759,754,754,755,0,0,0,
0,0,0,0,0,0,0,0,0,136,753,754,754,749,0,0,0,0,0,0,0,0,0,0,0,0,0,0,136,146,147,148,136,753,754,754,749,753,754,754,749,0,0,
0,0,0,0,0,0,0,0,0,136,753,754,754,761,0,0,0,0,0,0,0,0,0,0,0,0,0,0,136,155,156,157,136,753,754,754,761,753,754,754,761,0,0,
0,0,0,0,0,0,0,0,0,753,754,754,755,154,0,0,0,0,0,0,0,0,0,0,0,0,0,0,154,164,165,166,747,754,754,755,747,754,754,755,0,0,0,
0,0,0,0,0,0,0,0,0,759,754,754,755,163,0,0,0,0,0,0,0,0,0,0,0,0,0,0,163,774,774,774,753,754,754,755,753,754,754,755,0,0,0,
0,0,0,0,0,0,0,0,0,0,753,754,754,749,0,0,0,0,0,0,0,0,0,0,0,0,0,0,0,0,0,0,759,754,754,755,759,754,754,755,0,0,0,
0,0,0,0,0,0,0,0,0,0,753,754,754,761,0,0,0,0,0,0,0,0,0,0,0,0,0,0,0,0,0,0,0,753,754,754,749,753,754,754,749,0,0,
0,0,0,0,0,0,0,0,0,747,754,754,755,0,0,0,0,0,0,0,0,0,0,0,0,0,0,0,0,0,0,0,0,753,754,754,761,753,754,754,761,0,0,
0,0,0,0,0,0,0,0,0,0,0,0,0,0,0,0,0,0,0,0,0,0,0,0,0,0,0,0,0,0,0,0,747,754,754,755,747,754,754,755,0,0,0,
0,0,0,0,0,0,0,0,0,0,0,0,0,0,0,0,0,0,0,0,0,0,0,0,0,0,0,0,0,0,0,0,0,0,0,0,0,0,0,0,0,0,0,
0,0,0,0,0,0,0,0,0,0,0,0,0,0,0,0,0,0,0,0,0,0,0,0,0,0,0,0,0,0,0,0,0,0,0,0,0,0,0,0,0,0,0,
0,0,0,0,0,0,0,0,0,0,0,0,0,0,0,0,0,0,0,0,0,0,0,0,0,0,0,0,0,0,0,0,0,0,0,0,0,0,0,0,0,0,0,
0,0,0,0,0,0,0,0,0,0,0,0,0,0,0,0,0,0,0,0,0,0,0,0,0,0,0,0,0,0,0,0,0,0,0,0,0,0,0,0,0,0,0,
0,0,0,0,0,0,0,0,0,0,0,0,0,0,0,0,0,0,0,0,0,0,0,0,0,0,0,0,0,0,0,0,0,0,0,0,0,0,0,0,0,0,0,
0,0,0,0,0,0,0,0,0,0,0,0,0,0,0,0,0,0,0,0,0,0,0,0,0,0,0,0,0,0,0,0,0,0,0,0,0,0,0,0,0,0,0,
0,0,0,0,0,0,0,0,0,0,0,0,0,0,0,0,0,0,0,0,0,0,0,0,0,0,0,0,0,0,0,0,0,0,0,0,0,0,0,0,0,0,0,
0,0,0,0,0,0,0,0,0,0,0,0,0,0,0,0,0,0,0,0,0,0,0,0,0,0,0,0,0,0,0,0,0,0,0,0,0,0,0,0,0,0,0,
0,0,0,0,0,0,0,0,0,0,0,0,0,0,0,0,0,0,0,0,0,0,0,0,0,0,0,0,0,0,0,0,0,0,0,0,0,0,0,0,0,0,0,
0,0,0,0,0,0,0,0,0,0,0,0,0,0,0,0,0,0,0,0,0,0,0,0,0,0,0,0,0,0,0,0,0,0,0,0,0,0,0,0,0,0,0
</data>
 </layer>
 <layer id="28" name="Tile Layer 7" width="43" height="43">
  <data encoding="csv">
0,0,0,0,0,0,0,0,0,0,0,0,0,0,0,0,0,0,0,0,0,0,0,0,0,0,0,0,0,0,0,0,0,0,0,0,0,0,0,0,0,0,0,
0,0,0,0,0,0,0,0,0,0,0,0,0,0,0,0,0,0,0,0,0,0,0,0,0,0,0,0,0,0,0,0,0,0,0,0,0,0,0,0,0,0,0,
0,0,0,0,0,0,0,0,0,0,0,0,0,0,0,0,0,0,0,0,0,0,0,0,0,0,0,0,0,0,0,0,0,0,0,0,0,0,0,0,0,0,0,
0,0,0,0,0,0,0,0,0,0,0,0,0,0,0,0,0,0,0,0,0,0,0,0,0,0,0,0,0,0,0,0,0,0,0,0,0,0,0,0,0,0,0,
0,0,0,0,0,0,0,0,0,0,0,0,0,0,0,0,0,0,0,0,0,0,0,0,0,0,0,0,0,0,0,0,0,0,0,0,0,0,0,0,0,0,0,
0,0,0,0,0,0,0,0,0,0,0,0,0,0,0,0,0,0,0,0,0,0,0,0,0,0,0,0,0,0,0,0,0,0,0,0,0,0,0,0,0,0,0,
0,0,0,0,0,0,0,0,0,0,0,0,0,0,0,0,0,0,0,0,0,0,0,0,0,0,0,0,0,0,0,0,0,0,0,0,0,0,0,0,0,0,0,
0,0,0,0,0,0,0,0,0,0,0,0,0,0,0,0,0,0,0,0,0,0,0,0,0,0,0,0,0,0,0,0,0,0,0,0,0,0,0,0,0,0,0,
0,0,0,0,0,0,0,0,0,0,0,0,0,0,0,0,0,0,0,0,0,0,0,0,0,0,0,0,0,0,0,0,0,0,0,0,0,0,0,0,0,0,0,
0,0,0,0,0,0,0,0,0,0,0,0,0,0,0,0,0,0,0,0,0,0,0,0,0,0,0,0,0,0,0,0,0,0,0,0,0,0,0,0,0,0,0,
0,0,0,0,0,0,0,0,0,0,0,0,0,0,0,0,0,0,0,0,0,0,0,0,0,0,0,0,0,0,0,0,0,0,0,0,0,0,0,0,0,0,0,
0,0,0,0,0,0,0,0,0,0,0,0,0,0,0,0,0,0,0,0,0,0,0,0,0,0,0,0,0,0,0,0,0,0,0,0,0,0,0,0,0,0,0,
0,0,0,0,0,0,0,0,0,0,0,0,0,0,0,0,0,0,0,0,0,0,0,0,0,0,0,0,0,0,0,0,0,0,0,0,0,0,0,0,0,0,0,
0,0,0,0,0,0,0,0,0,0,0,0,0,0,0,0,0,0,0,0,0,0,0,0,0,0,0,0,0,0,0,0,0,0,0,0,0,0,0,0,0,0,0,
0,0,0,0,0,0,0,0,0,0,0,0,0,0,0,0,0,0,0,737,737,737,737,737,0,0,0,0,0,0,0,0,0,0,0,0,0,0,0,0,0,0,0,
0,0,0,0,0,0,0,0,0,0,0,0,0,0,0,0,0,0,0,0,737,737,737,737,0,0,0,0,0,0,0,0,0,0,0,0,0,0,0,0,0,0,0,
0,0,0,0,0,0,0,0,0,0,0,0,0,0,0,0,0,0,0,737,737,737,737,0,0,0,0,0,0,0,0,0,0,0,0,0,0,0,0,0,0,0,0,
0,0,0,0,0,0,0,0,0,0,0,0,0,0,0,0,0,0,0,737,737,737,737,0,0,0,0,0,0,0,0,0,0,0,0,0,0,0,0,0,0,0,0,
0,0,0,0,0,0,0,0,0,0,0,0,0,774,774,774,0,0,0,0,737,737,737,737,0,0,0,0,0,0,0,0,0,0,0,0,0,0,0,0,0,0,0,
0,0,0,0,0,0,0,0,0,0,0,0,0,0,0,0,0,0,0,0,0,0,0,0,0,0,0,0,0,0,0,0,0,0,0,0,0,0,0,0,0,0,0,
0,0,0,0,0,0,0,0,0,0,0,0,0,0,0,0,0,0,0,0,0,0,0,0,0,0,0,0,0,0,0,0,0,0,0,0,0,0,0,0,0,0,0,
0,0,0,0,0,0,0,0,0,0,0,0,0,0,0,0,0,0,0,0,0,0,0,0,0,0,0,0,0,0,0,0,0,0,0,0,0,0,0,0,0,0,0,
0,0,0,0,0,0,0,0,0,0,0,0,0,0,0,0,0,0,0,0,0,0,0,0,0,0,0,0,0,0,0,0,0,0,0,0,0,0,0,0,0,0,0,
0,0,0,0,0,0,0,0,0,0,0,0,736,737,0,0,0,737,737,737,737,737,737,737,737,737,0,0,0,737,738,0,0,0,0,0,0,0,0,0,0,0,0,
0,0,0,0,0,0,0,0,0,0,0,0,736,737,0,0,0,737,737,737,737,737,737,737,737,737,0,0,0,737,738,0,0,0,0,0,0,0,0,0,0,0,0,
0,0,0,0,0,0,0,0,0,0,0,0,736,737,0,0,0,737,737,737,737,737,737,737,737,737,0,0,0,737,738,0,0,0,0,0,0,0,0,0,0,0,0,
0,0,0,0,0,0,0,0,0,0,0,0,736,737,0,0,0,737,737,737,737,737,737,737,737,737,0,0,0,737,738,0,0,0,0,0,0,0,0,0,0,0,0,
0,0,0,0,0,0,0,0,0,0,0,0,736,737,0,0,0,737,737,737,737,737,737,737,737,737,0,0,0,737,738,0,0,0,0,0,0,0,0,0,0,0,0,
0,0,0,0,0,0,0,0,0,0,0,0,736,737,0,0,0,737,737,816,806,806,806,818,737,737,0,0,0,737,738,0,0,0,0,0,0,0,0,0,0,0,0,
0,0,0,0,0,0,0,0,0,0,0,0,0,0,0,0,0,0,0,0,0,0,0,0,0,0,0,0,0,0,0,0,0,0,0,0,0,0,0,0,0,0,0,
0,0,0,0,0,0,0,0,0,0,0,0,0,0,0,0,0,0,0,0,0,0,0,0,0,0,0,0,0,0,0,0,0,0,0,0,0,0,0,0,0,0,0,
0,0,0,0,0,0,0,0,0,0,0,0,0,0,0,0,0,0,0,0,0,0,0,0,0,0,0,0,0,0,0,0,0,0,0,0,0,0,0,0,0,0,0,
0,0,0,0,0,0,0,0,0,0,0,0,0,0,0,0,0,0,0,0,0,0,0,0,0,0,0,0,0,0,0,0,0,0,0,0,0,0,0,0,0,0,0,
0,0,0,0,0,0,0,0,0,0,0,0,0,0,0,0,0,0,0,0,0,0,0,0,0,0,0,0,0,0,0,0,0,0,0,0,0,0,0,0,0,0,0,
0,0,0,0,0,0,0,0,0,0,0,0,0,0,0,0,0,0,0,0,0,0,0,0,0,0,0,0,0,0,0,0,0,0,0,0,0,0,0,0,0,0,0,
0,0,0,0,0,0,0,0,0,0,0,0,0,0,0,0,0,0,0,0,0,0,0,0,0,0,0,0,0,0,0,0,0,0,0,0,0,0,0,0,0,0,0,
0,0,0,0,0,0,0,0,0,0,0,0,0,0,0,0,0,0,0,0,0,0,0,0,0,0,0,0,0,0,0,0,0,0,0,0,0,0,0,0,0,0,0,
0,0,0,0,0,0,0,0,0,0,0,0,0,0,0,0,0,0,0,0,0,0,0,0,0,0,0,0,0,0,0,0,0,0,0,0,0,0,0,0,0,0,0,
0,0,0,0,0,0,0,0,0,0,0,0,0,0,0,0,0,0,0,0,0,0,0,0,0,0,0,0,0,0,0,0,0,0,0,0,0,0,0,0,0,0,0,
0,0,0,0,0,0,0,0,0,0,0,0,0,0,0,0,0,0,0,0,0,0,0,0,0,0,0,0,0,0,0,0,0,0,0,0,0,0,0,0,0,0,0,
0,0,0,0,0,0,0,0,0,0,0,0,0,0,0,0,0,0,0,0,0,0,0,0,0,0,0,0,0,0,0,0,0,0,0,0,0,0,0,0,0,0,0,
0,0,0,0,0,0,0,0,0,0,0,0,0,0,0,0,0,0,0,0,0,0,0,0,0,0,0,0,0,0,0,0,0,0,0,0,0,0,0,0,0,0,0,
0,0,0,0,0,0,0,0,0,0,0,0,0,0,0,0,0,0,0,0,0,0,0,0,0,0,0,0,0,0,0,0,0,0,0,0,0,0,0,0,0,0,0
</data>
 </layer>
 <layer id="34" name="ttt" width="43" height="43">
  <data encoding="csv">
0,0,0,0,0,0,0,0,0,0,0,0,0,0,0,0,0,0,0,0,0,0,0,0,0,0,0,0,0,0,0,0,0,0,0,0,0,0,0,0,0,0,0,
0,0,0,0,0,0,0,0,0,0,0,0,0,0,0,0,0,0,0,0,0,0,0,0,0,0,0,0,0,0,0,0,0,0,0,0,0,0,0,0,0,0,0,
0,0,0,0,0,0,0,0,0,0,0,0,0,0,0,0,0,0,0,0,0,0,0,0,0,0,0,0,0,0,0,0,0,0,0,0,0,0,0,0,0,0,0,
0,0,0,0,0,0,0,0,0,0,0,0,0,0,0,0,0,0,0,0,0,0,0,0,0,0,0,0,0,0,0,0,0,0,0,0,0,0,0,0,0,0,0,
0,0,0,0,0,0,0,0,0,0,0,0,0,0,0,0,0,0,0,0,0,0,0,0,0,0,0,0,0,0,0,0,0,0,0,0,0,0,0,0,0,0,0,
0,0,0,0,0,0,0,0,0,0,0,0,0,0,0,0,0,0,0,0,0,0,0,0,0,0,0,0,0,0,0,0,0,0,0,0,0,0,0,0,0,0,0,
0,0,0,0,0,0,0,0,0,0,0,0,0,0,0,0,0,0,0,0,0,0,0,0,0,0,0,0,0,0,0,0,0,0,0,0,0,0,0,0,0,0,0,
0,0,0,0,0,0,0,0,0,0,0,0,0,0,0,0,0,0,0,0,0,0,0,0,0,0,0,0,0,0,0,0,0,0,0,0,0,0,0,0,0,0,0,
0,0,0,0,0,0,0,0,0,0,0,0,0,0,0,0,0,0,0,0,0,0,0,0,0,0,0,0,0,0,0,0,0,0,0,0,0,0,0,0,0,0,0,
0,0,0,0,0,0,0,0,0,0,0,0,0,0,0,0,0,0,0,0,0,0,0,0,0,0,0,0,0,0,0,0,0,0,0,0,0,0,0,0,0,0,0,
0,0,0,0,0,0,0,0,0,0,0,0,0,0,0,0,0,0,0,0,0,0,0,0,0,0,0,0,0,0,0,0,0,0,0,0,0,0,0,0,0,0,0,
0,0,0,0,0,0,0,0,0,0,0,0,0,0,0,0,0,0,0,0,0,0,0,0,0,0,0,0,0,0,0,0,0,0,0,0,0,0,0,0,0,0,0,
0,0,0,0,0,0,0,0,0,0,0,0,0,0,0,0,0,0,0,0,0,0,0,0,0,0,0,0,0,0,0,0,0,0,0,0,0,0,0,0,0,0,0,
0,0,0,0,0,0,0,0,0,0,0,0,0,0,0,0,0,0,0,0,0,0,0,0,0,0,0,0,0,0,0,0,0,0,0,0,0,0,0,0,0,0,0,
0,0,0,0,0,0,0,0,0,0,0,0,0,0,0,0,0,0,0,0,0,0,0,0,0,0,0,0,0,0,0,0,0,0,0,0,0,0,0,0,0,0,0,
0,0,0,0,0,0,0,0,0,0,0,0,0,0,0,0,0,0,0,0,0,0,0,0,0,0,0,0,0,0,0,0,0,0,0,0,0,0,0,0,0,0,0,
0,0,0,0,0,0,0,0,0,0,0,0,0,0,0,0,0,0,0,0,0,0,0,0,0,0,0,0,0,0,0,0,0,0,0,0,0,0,0,0,0,0,0,
0,0,0,0,0,0,0,0,0,0,0,0,0,0,0,0,0,0,0,0,0,0,0,0,0,0,0,0,0,0,0,0,0,0,0,0,0,0,0,0,0,0,0,
0,0,0,0,0,0,0,0,0,0,0,0,0,0,0,0,0,0,0,774,774,774,774,774,0,0,0,0,0,0,0,0,0,0,0,0,0,0,0,0,0,0,0,
0,0,0,0,0,0,0,0,0,0,0,0,0,0,0,0,0,0,0,0,0,0,0,0,0,0,0,0,0,0,0,0,0,0,0,0,0,0,0,0,0,0,0,
0,0,0,0,0,0,0,0,0,0,0,0,0,0,0,0,0,0,0,0,0,0,0,0,0,0,0,0,0,0,0,0,0,0,0,0,0,0,0,0,0,0,0,
0,0,0,0,0,0,0,0,0,0,0,0,0,0,0,0,0,0,0,0,0,0,0,0,0,0,0,0,0,0,0,0,0,0,0,0,0,0,0,0,0,0,0,
0,0,0,0,0,0,0,0,0,0,0,0,0,0,0,0,0,0,0,0,0,0,0,0,0,0,0,0,0,0,0,0,0,0,0,0,0,0,0,0,0,0,0,
0,0,0,0,0,0,0,0,0,0,0,0,0,0,0,0,0,0,0,0,0,0,0,0,0,0,0,0,0,0,0,0,0,0,0,0,0,0,0,0,0,0,0,
0,0,0,0,0,0,0,0,0,0,0,0,0,0,0,0,0,0,0,0,0,0,0,0,0,0,0,0,0,0,0,0,0,0,0,0,0,0,0,0,0,0,0,
0,0,0,0,0,0,0,0,0,0,0,0,0,0,0,0,0,0,0,0,0,0,0,0,0,0,0,0,0,0,0,0,0,0,0,0,0,0,0,0,0,0,0,
0,0,0,0,0,0,0,0,0,0,0,0,0,0,0,0,0,0,0,0,0,0,0,0,0,0,0,0,0,0,0,0,0,0,0,0,0,0,0,0,0,0,0,
0,0,0,0,0,0,0,0,0,0,0,0,0,0,0,0,0,0,0,0,0,0,0,0,0,0,0,0,0,0,0,0,0,0,0,0,0,0,0,0,0,0,0,
0,0,0,0,0,0,0,0,0,0,0,0,0,0,0,0,0,0,0,0,0,0,0,0,0,0,0,0,0,0,0,0,0,0,0,0,0,0,0,0,0,0,0,
0,0,0,0,0,0,0,0,0,0,0,0,0,0,0,0,0,0,0,0,0,0,0,0,0,0,0,0,0,0,0,0,0,0,0,0,0,0,0,0,0,0,0,
0,0,0,0,0,0,0,0,0,0,0,0,0,0,0,0,0,0,0,0,0,0,0,0,0,0,0,0,0,0,0,0,0,0,0,0,0,0,0,0,0,0,0,
0,0,0,0,0,0,0,0,0,0,0,0,0,0,0,0,0,0,0,0,0,0,0,0,0,0,0,0,0,0,0,0,0,0,0,0,0,0,0,0,0,0,0,
0,0,0,0,0,0,0,0,0,0,0,0,0,0,0,0,0,0,0,0,0,0,0,0,0,0,0,0,0,0,0,0,0,0,0,0,0,0,0,0,0,0,0,
0,0,0,0,0,0,0,0,0,0,0,0,0,0,0,0,0,0,0,0,0,0,0,0,0,0,0,0,0,0,0,0,0,0,0,0,0,0,0,0,0,0,0,
0,0,0,0,0,0,0,0,0,0,0,0,0,0,0,0,0,0,0,0,0,0,0,0,0,0,0,0,0,0,0,0,0,0,0,0,0,0,0,0,0,0,0,
0,0,0,0,0,0,0,0,0,0,0,0,0,0,0,0,0,0,0,0,0,0,0,0,0,0,0,0,0,0,0,0,0,0,0,0,0,0,0,0,0,0,0,
0,0,0,0,0,0,0,0,0,0,0,0,0,0,0,0,0,0,0,0,0,0,0,0,0,0,0,0,0,0,0,0,0,0,0,0,0,0,0,0,0,0,0,
0,0,0,0,0,0,0,0,0,0,0,0,0,0,0,0,0,0,0,0,0,0,0,0,0,0,0,0,0,0,0,0,0,0,0,0,0,0,0,0,0,0,0,
0,0,0,0,0,0,0,0,0,0,0,0,0,0,0,0,0,0,0,0,0,0,0,0,0,0,0,0,0,0,0,0,0,0,0,0,0,0,0,0,0,0,0,
0,0,0,0,0,0,0,0,0,0,0,0,0,0,0,0,0,0,0,0,0,0,0,0,0,0,0,0,0,0,0,0,0,0,0,0,0,0,0,0,0,0,0,
0,0,0,0,0,0,0,0,0,0,0,0,0,0,0,0,0,0,0,0,0,0,0,0,0,0,0,0,0,0,0,0,0,0,0,0,0,0,0,0,0,0,0,
0,0,0,0,0,0,0,0,0,0,0,0,0,0,0,0,0,0,0,0,0,0,0,0,0,0,0,0,0,0,0,0,0,0,0,0,0,0,0,0,0,0,0,
0,0,0,0,0,0,0,0,0,0,0,0,0,0,0,0,0,0,0,0,0,0,0,0,0,0,0,0,0,0,0,0,0,0,0,0,0,0,0,0,0,0,0
</data>
 </layer>
 <layer id="9" name="Tile Layer 3" width="43" height="43">
  <data encoding="csv">
0,0,0,0,0,0,0,0,0,0,0,0,0,0,0,0,0,0,0,0,0,0,0,0,0,0,0,0,0,0,0,0,0,0,0,0,0,0,0,0,0,0,0,
0,0,0,0,0,0,0,0,0,0,0,0,0,0,0,0,0,0,0,0,0,0,0,0,0,0,0,0,0,0,0,0,0,0,0,0,0,0,0,0,0,0,0,
0,0,0,0,0,0,0,0,0,0,0,0,0,0,0,0,0,0,0,0,0,0,0,0,0,0,0,0,0,0,0,0,0,0,0,0,0,0,0,0,0,0,0,
0,0,0,0,0,0,0,0,0,0,0,0,0,0,0,0,0,0,0,0,0,0,0,0,0,0,0,0,0,0,0,0,0,0,0,0,0,0,0,0,0,0,0,
0,0,0,0,0,0,0,0,0,0,0,0,0,0,0,0,0,0,0,0,0,0,0,0,0,0,0,0,0,0,0,0,0,0,0,0,0,0,0,0,0,0,0,
0,0,0,0,0,0,0,0,0,0,0,0,0,0,0,0,0,0,0,0,0,0,0,0,0,0,0,0,0,0,0,0,0,0,0,0,0,0,0,0,0,0,0,
0,0,0,0,0,0,0,0,0,0,0,0,0,0,0,0,0,0,0,0,0,0,0,0,0,0,0,0,0,0,0,0,0,0,0,0,0,0,0,0,0,0,0,
0,0,0,0,0,0,0,0,0,0,0,0,0,0,0,0,0,0,0,0,0,0,0,0,0,0,0,0,0,0,0,0,0,0,0,0,0,0,0,0,0,0,0,
0,0,0,0,0,0,0,0,0,0,0,0,0,0,0,0,0,0,0,0,0,0,0,0,0,0,0,0,0,0,0,0,0,0,0,0,0,0,0,0,0,0,0,
0,0,0,0,0,0,0,0,0,0,0,0,0,0,0,0,0,0,0,0,0,0,0,0,0,0,0,0,0,0,0,0,0,0,0,0,0,0,0,0,0,0,0,
0,0,0,0,0,0,0,0,0,0,0,0,0,0,0,0,0,0,0,0,0,0,0,0,0,0,0,0,0,0,0,0,0,0,0,0,0,0,0,0,0,0,0,
0,0,0,0,0,0,0,0,0,0,0,0,0,0,0,0,0,0,0,0,0,0,0,0,0,0,0,0,0,0,0,0,0,0,0,0,0,0,0,0,0,0,0,
0,0,0,0,0,0,0,0,0,0,0,0,0,0,0,0,0,0,0,0,0,0,0,0,0,0,0,0,0,0,0,0,0,0,0,0,0,0,0,0,0,0,0,
0,0,0,0,0,0,0,0,0,0,0,0,0,727,728,728,728,728,728,728,728,728,728,728,728,728,728,728,728,729,0,0,0,0,0,0,0,0,0,0,0,0,0,
0,0,0,0,0,0,0,0,0,0,0,0,0,739,734,734,734,734,734,735,0,0,739,734,734,734,734,734,735,0,0,0,0,0,0,0,0,0,0,0,0,0,0,
0,0,0,0,0,0,0,0,0,0,0,0,0,0,733,734,734,734,734,734,729,0,0,733,734,734,734,734,734,729,0,0,0,0,0,0,0,0,0,0,0,0,0,
0,0,0,0,0,0,0,0,0,0,0,0,0,727,734,734,734,734,734,734,741,0,727,734,734,734,734,734,734,741,0,0,0,0,0,0,0,0,0,0,0,0,0,
0,0,0,0,0,0,0,0,0,0,0,0,0,739,734,734,734,734,734,735,0,0,739,734,734,734,734,734,735,0,0,0,0,0,0,0,0,0,0,0,0,0,0,
0,0,0,0,0,0,0,0,0,0,0,0,0,0,733,740,740,740,740,740,729,774,774,733,740,740,740,740,740,729,0,0,0,0,0,0,0,0,0,0,0,0,0,
0,0,0,0,0,0,0,0,0,0,0,0,0,0,0,0,0,0,0,0,0,0,0,0,0,0,0,0,0,0,0,0,0,0,0,0,0,0,0,0,0,0,0,
0,0,0,0,0,0,0,0,0,0,0,0,0,0,736,737,738,0,0,0,0,0,0,0,0,0,736,737,738,0,0,0,0,0,0,0,0,0,0,0,0,0,0,
0,0,0,0,0,0,0,0,0,0,0,0,0,0,736,737,738,0,0,0,0,0,0,0,0,0,736,737,738,0,0,0,0,0,0,0,0,0,0,0,0,0,0,
0,0,0,0,0,0,0,0,0,0,0,0,0,0,736,737,738,0,0,0,0,0,0,0,0,0,736,737,738,0,0,0,0,0,0,0,0,0,0,0,0,0,0,
0,0,0,0,0,0,0,0,0,0,0,0,0,0,736,737,738,0,0,0,0,0,0,0,0,0,736,737,738,0,0,0,0,0,0,0,0,0,0,0,0,0,0,
0,0,0,0,0,0,0,0,0,0,0,0,0,0,736,737,738,0,0,0,0,0,0,0,0,0,736,737,738,0,0,0,0,0,0,0,0,0,0,0,0,0,0,
0,0,0,0,0,0,0,0,0,0,0,0,0,0,736,737,738,0,0,0,0,0,0,0,0,0,736,737,738,0,0,0,0,0,0,0,0,0,0,0,0,0,0,
0,0,0,0,0,0,0,0,0,0,0,0,0,0,736,737,738,0,0,0,0,0,0,0,0,0,736,737,738,0,0,0,0,0,0,0,0,0,0,0,0,0,0,
0,0,0,0,0,0,0,0,0,0,0,0,0,0,736,737,738,0,0,0,0,0,0,0,0,0,736,737,738,0,0,0,0,0,0,0,0,0,0,0,0,0,0,
0,0,0,0,0,0,0,0,0,0,0,0,0,0,736,737,738,0,0,0,0,0,0,0,0,0,736,737,738,0,0,0,0,0,0,0,0,0,0,0,0,0,0,
0,0,0,0,0,0,0,0,0,0,0,0,0,0,0,0,0,0,0,0,0,0,0,0,0,0,0,0,0,0,0,0,0,0,0,0,0,0,0,0,0,0,0,
0,0,0,0,0,0,0,0,0,0,0,0,0,0,0,0,0,0,0,0,0,0,0,0,0,0,0,0,0,0,0,0,0,0,0,0,0,0,0,0,0,0,0,
0,0,0,0,0,0,0,0,0,0,0,0,0,0,0,0,0,0,0,0,0,0,0,0,0,0,0,0,0,0,0,0,0,0,0,0,0,0,0,0,0,0,0,
0,0,0,0,0,0,0,0,0,0,0,0,0,0,0,0,0,0,0,0,0,0,0,0,0,0,0,0,0,0,0,0,0,0,0,0,0,0,0,0,0,0,0,
0,0,0,0,0,0,0,0,0,0,0,0,0,0,0,0,0,0,0,0,0,0,0,0,0,0,0,0,0,0,0,0,0,0,0,0,0,0,0,0,0,0,0,
0,0,0,0,0,0,0,0,0,0,0,0,0,0,0,0,0,0,0,0,0,0,0,0,0,0,0,0,0,0,0,0,0,0,0,0,0,0,0,0,0,0,0,
0,0,0,0,0,0,0,0,0,0,0,0,0,0,0,0,0,0,0,0,0,0,0,0,0,0,0,0,0,0,0,0,0,0,0,0,0,0,0,0,0,0,0,
0,0,0,0,0,0,0,0,0,0,0,0,0,0,0,0,0,0,0,0,0,0,0,0,0,0,0,0,0,0,0,0,0,0,0,0,0,0,0,0,0,0,0,
0,0,0,0,0,0,0,0,0,0,0,0,0,0,0,0,0,0,0,0,0,0,0,0,0,0,0,0,0,0,0,0,0,0,0,0,0,0,0,0,0,0,0,
0,0,0,0,0,0,0,0,0,0,0,0,0,0,0,0,0,0,0,0,0,0,0,0,0,0,0,0,0,0,0,0,0,0,0,0,0,0,0,0,0,0,0,
0,0,0,0,0,0,0,0,0,0,0,0,0,0,0,0,0,0,0,0,0,0,0,0,0,0,0,0,0,0,0,0,0,0,0,0,0,0,0,0,0,0,0,
0,0,0,0,0,0,0,0,0,0,0,0,0,0,0,0,0,0,0,0,0,0,0,0,0,0,0,0,0,0,0,0,0,0,0,0,0,0,0,0,0,0,0,
0,0,0,0,0,0,0,0,0,0,0,0,0,0,0,0,0,0,0,0,0,0,0,0,0,0,0,0,0,0,0,0,0,0,0,0,0,0,0,0,0,0,0,
0,0,0,0,0,0,0,0,0,0,0,0,0,0,0,0,0,0,0,0,0,0,0,0,0,0,0,0,0,0,0,0,0,0,0,0,0,0,0,0,0,0,0
</data>
 </layer>
 <layer id="12" name="Tile Layer 2" width="43" height="43">
  <data encoding="csv">
0,0,0,0,0,0,0,0,0,0,0,0,0,0,0,0,0,0,0,0,0,0,0,0,0,0,0,0,0,0,0,0,0,0,0,0,0,0,0,0,0,0,0,
0,0,0,0,0,0,0,0,0,0,0,0,0,0,0,0,0,0,0,0,0,0,0,0,0,0,0,0,0,0,0,0,0,0,0,0,0,0,0,0,0,0,0,
0,0,0,0,0,0,0,0,0,0,0,0,0,0,0,0,0,0,0,0,0,0,0,0,0,0,0,0,0,0,0,0,0,0,0,0,0,0,0,0,0,0,0,
0,0,0,0,0,0,0,0,0,0,0,0,0,0,0,0,0,0,0,0,0,0,0,0,0,0,0,0,0,0,0,0,0,0,0,0,0,0,0,0,0,0,0,
0,0,0,0,0,0,0,0,0,0,0,0,0,0,0,0,0,0,0,0,0,0,0,0,0,0,0,0,0,0,0,0,0,0,0,0,0,0,0,0,0,0,0,
0,0,0,0,0,0,0,0,0,0,0,0,0,0,0,0,0,0,0,0,0,0,0,0,0,0,0,0,0,0,0,0,0,0,0,0,0,0,0,0,0,0,0,
0,0,0,0,0,0,0,0,0,0,0,0,0,0,0,0,0,0,0,0,0,0,0,0,0,0,0,0,0,0,0,0,0,0,0,0,0,0,0,0,0,0,0,
0,0,0,0,0,0,0,0,0,0,0,0,0,0,0,0,0,0,0,0,0,0,0,0,0,0,0,0,0,0,0,0,0,0,0,0,0,0,0,0,0,0,0,
0,0,0,0,0,0,0,0,0,0,0,0,0,0,0,0,0,0,0,0,0,0,0,0,0,0,0,0,0,0,0,0,0,0,0,0,0,0,0,0,0,0,0,
0,0,0,0,0,0,0,0,0,0,0,0,0,0,0,0,0,0,0,0,0,0,0,0,0,0,0,0,0,0,0,0,0,0,0,0,0,0,0,0,0,0,0,
0,0,0,0,0,0,0,0,0,0,0,0,0,0,0,0,0,0,0,0,0,0,0,0,0,0,0,0,0,0,0,0,0,0,0,0,0,0,0,0,0,0,0,
0,0,0,0,0,0,0,0,0,0,0,0,0,0,0,0,0,0,0,0,0,0,0,0,0,0,0,0,0,0,0,0,0,0,0,0,0,0,0,0,0,0,0,
0,0,0,0,0,0,0,0,0,0,0,0,0,0,0,0,0,0,0,0,0,0,0,0,0,0,0,0,0,0,0,0,0,0,0,0,0,0,0,0,0,0,0,
0,0,0,0,0,0,0,0,0,0,0,0,0,0,0,28,0,0,28,28,28,28,28,28,28,0,0,28,0,0,0,0,0,0,0,0,0,0,0,0,0,0,0,
0,0,0,0,0,0,0,0,0,0,0,0,0,0,0,0,0,0,0,0,0,0,0,0,0,0,0,0,0,0,0,0,0,0,0,0,0,0,0,0,0,0,0,
0,0,0,0,0,0,0,0,0,0,0,0,0,0,0,0,0,0,0,0,0,0,0,0,0,0,0,0,0,0,0,0,0,0,0,0,0,0,0,0,0,0,0,
0,0,0,0,0,0,0,0,0,0,0,0,0,0,0,0,0,0,0,0,0,0,0,0,0,0,0,0,0,0,0,0,0,0,0,0,0,0,0,0,0,0,0,
0,0,0,0,0,0,0,0,0,0,0,0,0,0,0,0,0,0,0,0,0,0,0,0,0,0,0,0,0,0,0,0,0,0,0,0,0,0,0,0,0,0,0,
0,0,0,0,0,0,0,0,0,0,0,0,0,0,0,611,0,0,0,0,0,0,0,0,0,0,0,611,0,0,0,0,0,0,0,0,0,0,0,0,0,0,0,
0,0,0,0,0,0,0,0,0,0,0,0,0,0,0,0,0,0,0,0,0,0,0,0,0,0,0,0,0,0,0,0,0,0,0,0,0,0,0,0,0,0,0,
0,0,0,0,0,0,0,0,0,0,0,0,0,0,0,0,0,0,0,0,0,0,0,0,0,0,0,0,0,0,0,0,0,0,0,0,0,0,0,0,0,0,0,
0,0,0,0,0,0,0,0,0,0,0,0,0,0,0,0,0,0,0,0,0,0,0,0,0,0,0,0,0,0,0,0,0,0,0,0,0,0,0,0,0,0,0,
0,0,0,0,0,0,0,0,0,0,0,0,0,734,734,0,734,734,734,734,734,734,734,734,734,734,734,0,734,734,0,0,0,0,0,0,0,0,0,0,0,0,0,
0,0,0,0,0,0,0,0,0,0,0,0,0,733,735,0,733,735,0,0,0,0,0,0,0,733,735,0,733,735,0,0,0,0,0,0,0,0,0,0,0,0,0,
0,0,0,0,0,0,0,0,0,0,0,0,0,733,735,0,733,735,0,0,0,0,0,0,0,733,735,0,733,735,0,0,0,0,0,0,0,0,0,0,0,0,0,
0,0,0,0,0,0,0,0,0,0,0,0,0,733,735,0,733,735,0,0,0,0,0,0,0,733,735,0,733,735,0,0,0,0,0,0,0,0,0,0,0,0,0,
0,0,0,0,0,0,0,0,0,0,0,0,0,733,735,0,733,735,0,0,0,0,0,0,0,733,735,0,733,735,0,0,0,0,0,0,0,0,0,0,0,0,0,
0,0,0,0,0,0,0,0,0,0,0,0,0,733,735,0,733,735,0,1192,1199,1199,1199,1194,0,733,735,0,733,735,0,0,0,0,0,0,0,0,0,0,0,0,0,
0,0,0,0,0,0,0,0,0,0,0,0,0,733,735,0,733,735,0,0,0,0,0,0,0,733,735,0,733,735,0,0,0,0,0,0,0,0,0,0,0,0,0,
0,0,0,0,0,0,0,0,0,0,0,0,0,0,0,10,0,0,0,0,0,0,0,0,0,0,0,10,0,0,0,0,0,0,0,0,0,0,0,0,0,0,0,
0,0,0,0,0,0,0,0,0,0,0,0,0,0,0,0,0,0,0,0,0,0,0,0,0,0,0,0,0,0,0,0,0,0,0,0,0,0,0,0,0,0,0,
0,0,0,0,0,0,0,0,0,0,0,0,0,0,0,0,0,0,0,0,0,0,0,0,0,0,0,0,0,0,0,0,0,0,0,0,0,0,0,0,0,0,0,
0,0,0,0,0,0,0,0,0,0,0,0,0,0,0,0,0,0,0,0,0,0,0,0,0,0,0,0,0,0,0,0,0,0,0,0,0,0,0,0,0,0,0,
0,0,0,0,0,0,0,0,0,0,0,0,0,0,0,0,0,0,0,0,0,0,0,0,0,0,0,0,0,0,0,0,0,0,0,0,0,0,0,0,0,0,0,
0,0,0,0,0,0,0,0,0,0,0,0,0,0,0,0,0,0,0,0,0,0,0,0,0,0,0,0,0,0,0,0,0,0,0,0,0,0,0,0,0,0,0,
0,0,0,0,0,0,0,0,0,0,0,0,0,0,0,0,0,0,0,0,0,0,0,0,0,0,0,0,0,0,0,0,0,0,0,0,0,0,0,0,0,0,0,
0,0,0,0,0,0,0,0,0,0,0,0,0,0,0,0,0,0,0,0,0,0,0,0,0,0,0,0,0,0,0,0,0,0,0,0,0,0,0,0,0,0,0,
0,0,0,0,0,0,0,0,0,0,0,0,0,0,0,0,0,0,0,0,0,0,0,0,0,0,0,0,0,0,0,0,0,0,0,0,0,0,0,0,0,0,0,
0,0,0,0,0,0,0,0,0,0,0,0,0,0,0,0,0,0,0,0,0,0,0,0,0,0,0,0,0,0,0,0,0,0,0,0,0,0,0,0,0,0,0,
0,0,0,0,0,0,0,0,0,0,0,0,0,0,0,0,0,0,0,0,0,0,0,0,0,0,0,0,0,0,0,0,0,0,0,0,0,0,0,0,0,0,0,
0,0,0,0,0,0,0,0,0,0,0,0,0,0,0,0,0,0,0,0,0,0,0,0,0,0,0,0,0,0,0,0,0,0,0,0,0,0,0,0,0,0,0,
0,0,0,0,0,0,0,0,0,0,0,0,0,0,0,0,0,0,0,0,0,0,0,0,0,0,0,0,0,0,0,0,0,0,0,0,0,0,0,0,0,0,0,
0,0,0,0,0,0,0,0,0,0,0,0,0,0,0,0,0,0,0,0,0,0,0,0,0,0,0,0,0,0,0,0,0,0,0,0,0,0,0,0,0,0,0
</data>
 </layer>
 <layer id="29" name="Tile Layer 8" width="43" height="43">
  <data encoding="csv">
0,0,0,0,0,0,0,0,0,0,0,0,0,0,0,0,0,0,0,0,0,0,0,0,0,0,0,0,0,0,0,0,0,0,0,0,0,0,0,0,0,0,0,
0,0,0,0,0,0,0,0,0,0,0,0,0,0,0,0,0,0,0,0,0,0,0,0,0,0,0,0,0,0,0,0,0,0,0,0,0,0,0,0,0,0,0,
0,0,0,0,0,0,0,0,0,0,0,0,0,0,0,0,0,0,0,0,0,0,0,0,0,0,0,0,0,0,0,0,0,0,0,0,0,0,0,0,0,0,0,
0,0,0,0,0,0,0,0,0,0,0,0,0,0,0,0,0,0,0,0,0,0,0,0,0,0,0,0,0,0,0,0,0,0,0,0,0,0,0,0,0,0,0,
0,0,0,0,0,0,0,0,0,0,0,0,0,0,0,0,0,0,0,0,0,0,0,0,0,0,0,0,0,0,0,0,0,0,0,0,0,0,0,0,0,0,0,
0,0,0,0,0,0,0,0,0,0,0,0,0,0,0,0,0,0,0,0,0,0,0,0,0,0,0,0,0,0,0,0,0,0,0,0,0,0,0,0,0,0,0,
0,0,0,0,0,0,0,0,0,0,0,0,0,0,0,0,0,0,0,0,0,0,0,0,0,0,0,0,0,0,0,0,0,0,0,0,0,0,0,0,0,0,0,
0,0,0,0,0,0,0,0,0,0,0,0,0,0,0,0,0,0,0,0,0,0,0,0,0,0,0,0,0,0,0,0,0,0,0,0,0,0,0,0,0,0,0,
0,0,0,0,0,0,0,0,0,0,0,0,0,0,0,0,0,0,0,0,0,0,0,0,0,0,0,0,0,0,0,0,0,0,0,0,0,0,0,0,0,0,0,
0,0,0,0,0,0,0,0,0,0,0,0,0,0,0,0,0,0,0,0,0,0,0,0,0,0,0,0,0,0,0,0,0,0,0,0,0,0,0,0,0,0,0,
0,0,0,0,0,0,0,0,0,0,0,0,0,0,0,0,0,0,0,0,0,0,0,0,0,0,0,0,0,0,0,0,0,0,0,0,0,0,0,0,0,0,0,
0,0,0,0,0,0,0,0,0,0,0,0,0,0,0,0,0,0,0,0,0,0,0,0,0,0,0,0,0,0,0,0,0,0,0,0,0,0,0,0,0,0,0,
0,0,0,0,0,0,0,0,0,0,0,0,0,0,0,0,0,0,0,0,0,0,0,0,0,0,0,0,0,0,0,0,0,0,0,0,0,0,0,0,0,0,0,
0,0,0,0,0,0,0,0,0,0,0,0,0,0,0,0,0,0,0,0,0,0,0,0,0,0,0,0,0,0,0,0,0,0,0,0,0,0,0,0,0,0,0,
0,0,0,0,0,0,0,0,0,0,0,0,0,0,0,0,0,0,0,0,0,0,0,0,0,0,0,0,0,0,0,0,0,0,0,0,0,0,0,0,0,0,0,
0,0,0,0,0,0,0,0,0,0,0,0,0,0,0,0,0,0,0,0,0,0,0,0,0,0,0,0,0,0,0,0,0,0,0,0,0,0,0,0,0,0,0,
0,0,0,0,0,0,0,0,0,0,0,0,0,0,0,0,0,0,0,0,0,0,0,0,0,0,0,0,0,0,0,0,0,0,0,0,0,0,0,0,0,0,0,
0,0,0,0,0,0,0,0,0,0,0,0,0,0,0,0,0,0,0,0,0,0,0,0,0,0,0,0,0,0,0,0,0,0,0,0,0,0,0,0,0,0,0,
0,0,0,0,0,0,0,0,0,0,0,0,0,0,0,0,0,0,0,0,0,0,0,0,0,0,0,0,0,0,0,0,0,0,0,0,0,0,0,0,0,0,0,
0,0,0,0,0,0,0,0,0,0,0,0,0,0,0,0,0,0,0,0,0,0,0,0,0,0,0,0,0,0,0,0,0,0,0,0,0,0,0,0,0,0,0,
0,0,0,0,0,0,0,0,0,0,0,0,0,0,0,0,0,0,0,0,0,0,0,0,0,0,0,0,0,0,0,0,0,0,0,0,0,0,0,0,0,0,0,
0,0,0,0,0,0,0,0,0,0,0,0,0,0,0,0,0,0,0,0,0,0,0,0,0,0,0,0,0,0,0,0,0,0,0,0,0,0,0,0,0,0,0,
0,0,0,0,0,0,0,0,0,0,0,0,0,0,0,0,0,0,0,0,0,0,0,0,0,0,0,0,0,0,0,0,0,0,0,0,0,0,0,0,0,0,0,
753,754,754,755,0,753,754,754,755,0,0,0,0,0,0,0,0,0,0,0,0,0,0,0,0,0,0,0,0,0,0,0,0,0,0,0,0,0,0,0,0,0,0,
759,754,754,755,0,759,754,754,755,0,0,0,0,0,0,0,0,0,0,0,0,0,0,0,0,0,0,0,0,0,0,0,0,0,0,0,0,0,0,0,0,0,0,
0,753,754,754,749,0,753,754,754,749,0,0,0,0,0,0,0,0,0,0,0,0,0,0,0,0,0,0,0,0,0,0,0,0,0,0,0,0,0,0,0,0,0,
0,753,754,754,761,0,753,754,754,761,0,0,0,0,0,0,0,0,0,0,0,0,0,0,0,0,0,0,0,0,0,0,0,0,0,0,0,0,0,0,0,0,0,
747,754,754,755,0,753,754,754,755,0,0,0,0,0,0,0,0,0,0,0,0,0,0,0,0,0,0,0,0,0,0,0,0,0,0,0,0,0,0,0,0,0,0,
753,754,754,755,0,759,754,754,755,0,0,0,0,0,0,0,0,0,0,0,0,0,0,0,0,0,0,0,0,0,0,0,0,0,0,0,0,0,0,0,0,0,0,
759,754,754,755,0,0,753,754,754,749,0,0,0,0,0,0,0,0,0,0,0,0,0,0,0,0,0,0,0,0,0,0,0,0,0,0,0,0,0,0,0,0,0,
0,753,754,754,749,0,753,754,754,761,0,0,0,0,0,0,0,0,0,0,0,0,0,0,0,0,0,0,0,0,0,0,0,0,0,0,0,0,0,0,0,0,0,
0,753,754,754,761,747,754,754,755,0,0,0,0,0,0,0,0,0,0,0,0,0,0,0,0,0,0,0,0,0,0,0,0,0,0,0,0,0,0,0,0,0,0,
747,754,754,755,0,0,0,0,0,0,0,0,0,0,0,0,0,0,0,0,0,0,0,0,0,0,0,0,0,0,0,0,0,0,0,0,0,0,0,0,0,0,0,
753,754,754,755,0,0,0,0,0,0,0,0,0,0,0,0,0,0,0,0,0,0,0,0,0,0,0,0,0,0,0,0,0,0,0,0,0,0,0,0,0,0,0,
759,754,754,755,0,0,0,0,0,0,0,0,0,0,0,0,0,0,0,0,0,0,0,0,0,0,0,0,0,0,0,0,0,0,0,0,0,0,0,0,0,0,0,
0,753,754,754,749,0,0,0,0,0,0,0,0,0,0,0,0,0,0,0,0,0,0,0,0,0,0,0,0,0,0,0,0,0,0,0,0,0,0,0,0,0,0,
0,753,754,754,761,0,0,0,0,0,0,0,0,0,0,0,0,0,0,0,0,0,0,0,0,0,0,0,0,0,0,0,0,0,0,0,0,0,0,0,0,0,0,
747,754,754,755,0,0,0,0,0,0,0,0,0,0,0,0,0,0,0,0,0,0,0,0,0,0,0,0,0,0,0,0,0,0,0,0,0,0,0,0,0,0,0,
753,754,754,755,0,0,0,0,0,0,0,0,0,0,0,0,0,0,0,0,0,0,0,0,0,0,0,0,0,0,0,0,0,0,0,0,0,0,0,0,0,0,0,
759,754,754,755,0,0,0,0,0,0,0,0,0,0,0,0,0,0,0,0,0,0,0,0,0,0,0,0,0,0,0,0,0,0,0,0,0,0,0,0,0,0,0,
0,753,754,754,749,0,0,0,0,0,0,0,0,0,0,0,0,0,0,0,0,0,0,0,0,0,0,0,0,0,0,0,0,0,0,0,0,0,0,0,0,0,0,
0,753,754,754,761,0,0,0,0,0,0,0,0,0,0,0,0,0,0,0,0,0,0,0,0,0,0,0,0,0,0,0,0,0,0,0,0,0,0,0,0,0,0,
747,754,754,755,0,0,0,0,0,0,0,0,0,0,0,0,0,0,0,0,0,0,0,0,0,0,0,0,0,0,0,0,0,0,0,0,0,0,0,0,0,0,0
</data>
 </layer>
 <layer id="8" name="Tile Layer 1" width="43" height="43">
  <data encoding="csv">
0,0,0,0,154,164,165,166,154,0,0,0,0,127,128,129,130,127,0,0,0,0,0,0,0,127,128,129,130,127,0,0,0,0,154,164,165,166,154,0,0,0,0,
0,0,0,0,154,164,165,166,154,0,0,0,0,136,137,138,139,136,0,0,0,0,0,0,0,136,137,138,139,136,0,0,0,0,154,164,165,166,154,0,0,0,0,
0,0,0,0,154,164,165,166,154,0,0,0,0,136,146,147,148,136,0,0,0,0,0,0,0,136,146,147,148,136,0,0,0,0,154,164,165,166,154,0,0,0,0,
0,0,0,0,154,164,165,166,154,0,0,0,0,136,155,156,157,136,0,0,0,0,0,0,0,136,155,156,157,136,0,0,0,0,154,164,165,166,154,0,0,0,0,
0,0,0,0,154,164,165,166,154,0,0,0,0,172,164,165,166,172,0,0,0,0,0,0,0,172,164,165,166,172,0,0,0,0,154,164,165,166,154,0,0,0,0,
0,0,0,0,163,1392,1393,1394,163,0,0,0,0,172,164,165,166,172,0,0,0,0,0,0,0,172,164,165,166,172,0,0,0,0,163,1392,1393,1394,163,0,0,0,0,
0,0,0,0,10,10,10,10,10,87,0,0,0,136,164,165,166,136,0,0,0,0,0,0,0,136,164,165,166,136,0,0,0,88,10,10,10,10,10,0,0,0,0,
0,0,0,0,10,10,10,10,10,96,87,0,0,145,164,165,166,145,0,0,0,0,0,0,0,145,164,165,166,145,0,0,88,97,10,10,10,10,10,0,0,0,0,
0,0,0,0,10,10,10,10,10,105,96,87,0,154,164,165,166,154,0,0,0,0,0,0,0,154,164,165,166,154,0,88,97,106,10,10,10,10,10,0,0,0,0,
0,0,0,0,28,28,28,28,28,114,105,96,87,163,774,774,774,163,774,774,774,774,774,774,774,163,774,774,774,163,88,97,106,115,28,28,28,28,28,0,0,0,0,
0,0,0,0,127,128,129,130,541,0,114,105,96,10,10,10,10,10,37,38,39,40,39,40,41,10,10,10,10,10,97,106,115,0,127,128,129,130,127,0,0,0,0,
0,0,0,0,136,137,138,139,547,0,0,114,105,10,10,10,10,10,46,47,48,49,48,49,50,10,10,10,10,10,106,115,0,0,136,137,138,139,136,0,0,0,0,
0,0,0,0,136,146,147,148,136,0,0,0,114,10,10,10,10,10,55,56,57,58,57,58,59,10,10,10,10,10,115,0,0,0,136,146,147,148,136,0,0,0,0,
0,0,0,0,145,155,156,157,145,0,0,0,0,28,28,986,28,28,71,66,67,68,66,67,70,28,28,986,28,28,0,0,0,0,145,155,156,157,145,0,0,0,0,
0,0,0,0,154,155,156,157,154,0,0,0,0,0,0,996,0,0,80,75,76,77,75,76,79,0,0,996,0,0,0,0,0,0,154,155,156,157,154,0,0,0,0,
0,0,0,0,154,164,165,166,154,0,0,0,0,0,0,996,0,0,0,0,0,0,0,0,0,0,0,996,0,0,0,0,0,0,154,164,165,166,154,0,0,0,0,
0,0,0,0,154,164,165,166,154,0,0,0,0,0,0,996,0,0,0,0,0,0,0,0,0,0,0,996,0,0,0,0,0,0,154,164,165,166,154,0,0,0,0,
0,0,0,0,154,164,165,166,154,0,0,0,0,0,0,996,0,0,0,0,0,0,0,0,0,0,0,996,0,0,0,0,0,0,154,164,165,166,154,0,0,0,0,
774,774,774,774,163,774,774,774,163,774,774,774,774,774,611,1006,611,611,611,611,611,611,611,611,611,611,611,1006,611,611,774,774,774,774,163,774,774,774,163,774,774,774,774,
10,10,10,10,10,10,10,10,10,10,10,10,10,10,10,10,10,10,10,10,10,10,10,10,10,10,10,10,10,10,10,10,10,10,10,10,10,10,10,10,10,10,10,
10,10,10,10,10,10,10,10,10,10,10,10,10,10,10,10,10,10,10,10,10,10,10,10,10,10,10,10,10,10,10,10,10,10,10,10,10,10,10,10,10,10,10,
10,10,10,10,10,10,10,10,10,10,10,10,10,10,10,10,10,10,10,10,10,10,10,10,10,10,10,10,10,10,10,10,10,10,10,10,10,10,10,10,10,10,10,
28,28,28,28,28,28,28,28,28,28,28,28,28,28,28,678,28,28,28,28,28,28,28,28,28,28,28,678,28,28,28,28,28,28,28,28,28,28,28,28,28,28,28,
0,0,0,0,0,127,128,129,130,127,0,0,0,0,0,690,0,0,0,0,0,0,0,0,0,0,0,690,0,0,0,0,127,128,129,130,127,128,129,130,127,0,0,
0,0,0,0,0,136,137,138,139,136,0,0,0,0,0,690,0,0,0,0,0,0,0,0,0,0,0,696,0,0,0,0,136,137,138,139,136,137,138,139,136,0,0,
0,0,746,0,0,136,146,746,148,136,0,746,0,0,0,690,0,0,0,0,0,0,0,0,0,0,0,696,0,0,0,0,136,146,746,148,136,146,746,148,136,0,0,
0,0,752,0,0,136,155,752,157,136,0,752,0,0,0,696,0,0,0,0,0,0,0,0,0,0,0,696,0,0,0,0,136,155,752,157,136,155,752,157,136,0,0,
0,0,758,0,0,154,164,758,166,154,0,758,0,0,0,696,0,0,0,0,0,0,0,0,0,0,0,696,0,0,0,0,154,164,758,166,154,164,758,166,154,0,0,
0,0,0,0,0,163,774,774,774,163,0,0,0,174,174,702,174,174,174,0,0,0,0,0,174,174,174,702,174,174,774,774,163,774,774,774,163,774,774,774,163,774,774,
0,0,0,0,0,10,10,10,10,10,10,10,10,10,10,708,10,10,10,826,827,827,827,828,10,10,10,708,10,10,10,10,10,10,10,10,10,10,10,10,10,10,10,
0,0,0,0,0,10,10,10,10,10,10,10,10,10,10,10,10,10,10,826,827,827,827,828,10,10,10,10,10,10,10,10,10,10,10,10,10,10,10,10,10,10,10,
0,0,746,0,0,10,10,10,10,10,10,10,10,10,10,10,10,10,10,826,827,827,827,828,10,10,10,10,10,10,10,10,10,10,10,10,10,10,10,10,10,10,10,
0,0,752,0,0,10,10,28,28,28,28,28,28,28,28,28,28,28,28,826,827,827,827,828,28,28,28,28,28,28,28,28,28,28,28,28,28,28,28,28,28,28,28,
0,0,758,0,0,10,10,127,128,129,130,127,128,129,130,127,128,129,130,826,827,827,827,828,128,129,130,127,128,129,130,127,128,129,130,127,128,129,130,127,128,129,130,
0,0,0,0,0,10,10,136,137,138,139,136,137,138,139,136,137,138,139,826,827,827,827,828,137,138,139,136,137,138,139,136,137,138,139,136,137,138,139,136,137,138,139,
0,0,0,0,0,10,10,136,146,147,148,136,146,147,148,136,146,147,148,826,827,827,827,820,817,817,817,817,817,817,817,817,817,817,817,817,817,817,817,818,146,0,148,
0,0,0,0,0,10,10,145,155,156,157,145,155,156,157,145,155,156,157,826,827,827,827,827,827,827,827,827,827,827,827,827,827,827,827,827,827,827,827,828,155,0,157,
0,0,746,0,0,10,10,154,164,165,166,154,164,165,166,154,164,165,166,826,827,827,827,827,827,827,827,827,827,827,827,827,827,827,827,827,827,827,827,828,164,0,166,
0,0,752,0,0,10,10,154,164,165,166,154,164,165,166,154,164,165,166,826,827,827,827,827,827,827,827,827,827,827,827,827,827,827,827,827,827,827,827,828,164,0,166,
0,0,758,0,0,10,10,154,164,165,166,154,164,165,166,154,164,165,166,836,837,837,837,837,837,837,837,837,837,837,837,837,837,837,837,829,827,827,827,828,164,0,166,
0,0,0,0,0,10,10,154,164,165,166,154,164,165,166,154,164,165,166,28,28,28,28,28,28,28,28,28,28,28,28,28,28,28,28,826,827,827,827,828,164,0,166,
0,0,0,0,0,10,10,154,164,165,166,154,164,165,166,154,164,165,166,127,128,129,130,127,128,129,130,127,128,129,130,127,128,129,130,826,827,827,827,828,164,0,166,
0,0,0,0,0,10,10,154,164,165,166,154,164,165,166,154,164,165,166,136,137,138,139,136,137,138,139,136,137,138,139,136,137,138,139,826,827,827,827,828,164,0,166
</data>
 </layer>
 <objectgroup id="22" name="objects_sign">
  <object id="156" gid="1312" x="840" y="720" width="40" height="30"/>
  <object id="159" name="eye_glow" x="800" y="556">
   <point/>
  </object>
  <object id="160" name="eye_glow" x="920" y="556">
   <point/>
  </object>
  <object id="236" name="window_oscillate" x="100" y="1120">
   <properties>
    <property name="texture" value="window_knight_oscillate"/>
   </properties>
   <point/>
  </object>
  <object id="237" name="window_oscillate" x="300" y="1120">
   <properties>
    <property name="texture" value="window_knight_oscillate"/>
   </properties>
   <point/>
  </object>
  <object id="238" name="window_oscillate" x="460" y="1120">
   <properties>
    <property name="texture" value="window_knight_oscillate"/>
   </properties>
   <point/>
  </object>
  <object id="239" name="window_oscillate" x="100" y="1360">
   <properties>
    <property name="texture" value="window_knight_oscillate"/>
   </properties>
   <point/>
  </object>
  <object id="240" name="window_oscillate" x="100" y="1600">
   <properties>
    <property name="texture" value="window_knight_oscillate"/>
   </properties>
   <point/>
  </object>
  <object id="241" name="window_oscillate" x="1380" y="1120">
   <properties>
    <property name="texture" value="window_knight_oscillate"/>
   </properties>
   <point/>
  </object>
  <object id="242" name="window_oscillate" x="1540" y="1120">
   <properties>
    <property name="texture" value="window_knight_oscillate"/>
   </properties>
   <point/>
  </object>
 </objectgroup>
 <layer id="20" name="roomglow_dark" width="43" height="43" visible="0">
  <data encoding="csv">
0,0,0,0,0,0,0,0,0,331,331,331,331,331,331,331,331,331,331,331,331,331,331,331,331,331,331,331,331,331,331,331,331,331,0,0,0,0,0,0,0,0,0,
0,0,0,0,0,0,0,0,0,331,331,331,331,331,331,331,331,331,331,331,331,331,331,331,331,331,331,331,331,331,331,331,331,331,0,0,0,0,0,0,0,0,0,
0,0,0,0,0,0,0,0,0,331,331,331,331,331,331,331,331,331,331,331,331,331,331,331,331,331,331,331,331,331,331,331,331,331,0,0,0,0,0,0,0,0,0,
0,0,0,0,0,0,0,0,0,331,331,331,331,331,331,331,331,331,331,331,331,331,331,331,331,331,331,331,331,331,331,331,331,331,0,0,0,0,0,0,0,0,0,
0,0,0,0,0,0,0,0,0,331,331,331,331,331,331,331,331,331,331,331,331,331,331,331,331,331,331,331,331,331,331,331,331,331,0,0,0,0,0,0,0,0,0,
0,0,0,0,0,0,0,0,0,331,331,331,331,331,331,331,331,331,331,331,331,331,331,331,331,331,331,331,331,331,331,331,331,331,0,0,0,0,0,0,0,0,0,
0,0,0,0,0,0,0,0,0,1374,331,331,331,331,331,331,331,331,331,331,331,331,331,331,331,331,331,331,331,331,331,331,331,1375,0,0,0,0,0,0,0,0,0,
0,0,0,0,0,0,0,0,0,1376,1374,331,331,331,331,331,331,331,331,331,331,331,331,331,331,331,331,331,331,331,331,331,1375,1377,0,0,0,0,0,0,0,0,0,
0,0,0,0,0,0,0,0,0,1378,1376,1374,331,331,331,331,331,331,331,331,331,331,331,331,331,331,331,331,331,331,331,1375,1377,1379,0,0,0,0,0,0,0,0,0,
0,0,0,0,0,0,0,0,0,331,1378,1376,1374,331,331,331,331,331,331,331,331,331,331,331,331,331,331,331,331,331,1375,1377,1379,331,0,0,0,0,0,0,0,0,0,
0,0,0,0,0,0,0,0,0,331,331,1378,1376,0,0,0,0,0,0,0,0,0,0,0,0,0,0,0,0,0,1377,1379,331,331,0,0,0,0,0,0,0,0,0,
0,0,0,0,0,0,0,0,0,331,331,331,1378,0,0,0,0,0,0,0,0,0,0,0,0,0,0,0,0,0,1379,331,331,331,0,0,0,0,0,0,0,0,0,
0,0,0,0,0,0,0,0,0,331,331,331,331,0,0,0,0,0,0,0,0,0,0,0,0,0,0,0,0,0,331,331,331,331,0,0,0,0,0,0,0,0,0,
0,0,0,0,0,0,0,0,0,331,331,331,331,331,331,331,331,331,331,331,331,331,331,331,331,331,331,331,331,331,331,331,331,331,0,0,0,0,0,0,0,0,0,
0,0,0,0,0,0,0,0,0,331,331,331,331,331,331,331,331,331,331,331,331,331,331,331,331,331,331,331,331,331,331,331,331,331,0,0,0,0,0,0,0,0,0,
0,0,0,0,0,0,0,0,0,331,331,331,331,331,331,331,331,331,331,331,331,331,331,331,331,331,331,331,331,331,331,331,331,331,0,0,0,0,0,0,0,0,0,
0,0,0,0,0,0,0,0,0,331,331,331,331,331,331,331,331,331,331,331,331,331,331,331,331,331,331,331,331,331,331,331,331,331,0,0,0,0,0,0,0,0,0,
0,0,0,0,0,0,0,0,0,331,331,331,1375,331,331,331,331,331,331,331,331,331,331,331,331,331,331,331,331,331,331,331,331,331,0,0,0,0,0,0,0,0,0,
0,0,0,0,0,0,0,0,0,0,0,0,0,0,0,0,0,0,0,0,0,0,0,0,0,0,0,0,0,0,0,0,0,0,0,0,0,0,0,0,0,0,0,
0,0,0,0,0,0,0,0,0,0,0,0,0,0,0,0,0,0,0,0,0,0,0,0,0,0,0,0,0,0,0,0,0,0,0,0,0,0,0,0,0,0,0,
0,0,0,0,0,0,0,0,0,0,0,0,0,0,0,0,0,0,0,0,0,0,0,0,0,0,0,0,0,0,0,0,0,0,0,0,0,0,0,0,0,0,0,
0,0,0,0,0,0,0,0,0,0,0,0,0,0,0,0,0,0,0,0,0,0,0,0,0,0,0,0,0,0,0,0,0,0,0,0,0,0,0,0,0,0,0,
0,0,0,0,0,0,0,0,0,0,0,0,0,0,0,0,0,0,0,0,0,0,0,0,0,0,0,0,0,0,0,0,0,0,0,0,0,0,0,0,0,0,0,
0,0,0,0,0,0,0,0,0,0,0,0,0,0,0,0,0,0,0,0,0,0,0,0,0,0,0,0,0,0,0,0,0,0,0,0,0,0,0,0,0,0,0,
0,0,0,0,0,0,0,0,0,0,0,0,0,0,0,0,0,0,0,0,0,0,0,0,0,0,0,0,0,0,0,0,0,0,0,0,0,0,0,0,0,0,0,
0,0,0,0,0,0,0,0,0,0,0,0,0,0,0,0,0,0,0,0,0,0,0,0,0,0,0,0,0,0,0,0,0,0,0,0,0,0,0,0,0,0,0,
0,0,0,0,0,0,0,0,0,0,0,0,0,0,0,0,0,0,0,0,0,0,0,0,0,0,0,0,0,0,0,0,0,0,0,0,0,0,0,0,0,0,0,
0,0,0,0,0,0,0,0,0,0,0,0,0,0,0,0,0,0,0,0,0,0,0,0,0,0,0,0,0,0,0,0,0,0,0,0,0,0,0,0,0,0,0,
0,0,0,0,0,0,0,0,0,0,0,0,0,0,0,0,0,0,0,0,0,0,0,0,0,0,0,0,0,0,0,0,0,0,0,0,0,0,0,0,0,0,0,
0,0,0,0,0,0,0,0,0,0,0,0,0,0,0,0,0,0,0,0,0,0,0,0,0,0,0,0,0,0,0,0,0,0,0,0,0,0,0,0,0,0,0,
0,0,0,0,0,0,0,0,0,0,0,0,0,0,0,0,0,0,0,0,0,0,0,0,0,0,0,0,0,0,0,0,0,0,0,0,0,0,0,0,0,0,0,
0,0,0,0,0,0,0,0,0,0,0,0,0,0,0,0,0,0,0,0,0,0,0,0,0,0,0,0,0,0,0,0,0,0,0,0,0,0,0,0,0,0,0,
0,0,0,0,0,0,0,0,0,0,0,0,0,0,0,0,0,0,0,0,0,0,0,0,0,0,0,0,0,0,0,0,0,0,0,0,0,0,0,0,0,0,0,
0,0,0,0,0,0,0,0,0,0,0,0,0,0,0,0,0,0,0,0,0,0,0,0,0,0,0,0,0,0,0,0,0,0,0,0,0,0,0,0,0,0,0,
0,0,0,0,0,0,0,0,0,0,0,0,0,0,0,0,0,0,0,0,0,0,0,0,0,0,0,0,0,0,0,0,0,0,0,0,0,0,0,0,0,0,0,
0,0,0,0,0,0,0,0,0,0,0,0,0,0,0,0,0,0,0,0,0,0,0,0,0,0,0,0,0,0,0,0,0,0,0,0,0,0,0,0,0,0,0,
0,0,0,0,0,0,0,0,0,0,0,0,0,0,0,0,0,0,0,0,0,0,0,0,0,0,0,0,0,0,0,0,0,0,0,0,0,0,0,0,0,0,0,
0,0,0,0,0,0,0,0,0,0,0,0,0,0,0,0,0,0,0,0,0,0,0,0,0,0,0,0,0,0,0,0,0,0,0,0,0,0,0,0,0,0,0,
0,0,0,0,0,0,0,0,0,0,0,0,0,0,0,0,0,0,0,0,0,0,0,0,0,0,0,0,0,0,0,0,0,0,0,0,0,0,0,0,0,0,0,
0,0,0,0,0,0,0,0,0,0,0,0,0,0,0,0,0,0,0,0,0,0,0,0,0,0,0,0,0,0,0,0,0,0,0,0,0,0,0,0,0,0,0,
0,0,0,0,0,0,0,0,0,0,0,0,0,0,0,0,0,0,0,0,0,0,0,0,0,0,0,0,0,0,0,0,0,0,0,0,0,0,0,0,0,0,0,
0,0,0,0,0,0,0,0,0,0,0,0,0,0,0,0,0,0,0,0,0,0,0,0,0,0,0,0,0,0,0,0,0,0,0,0,0,0,0,0,0,0,0,
0,0,0,0,0,0,0,0,0,0,0,0,0,0,0,0,0,0,0,0,0,0,0,0,0,0,0,0,0,0,0,0,0,0,0,0,0,0,0,0,0,0,0
</data>
 </layer>
 <objectgroup color="#00ffff" id="14" name="climbing" class="objects">
  <object id="243" type="climbarea" x="600" y="520" width="40" height="240"/>
  <object id="244" type="climbarea" x="1080" y="520" width="40" height="240"/>
 </objectgroup>
 <objectgroup id="15" name="objects_buckets"/>
 <objectgroup id="7" name="collision" visible="0">
  <object id="23" x="160" y="520" width="1400" height="240"/>
  <object id="26" x="0" y="880" width="596" height="280"/>
  <object id="164" x="1360" y="360" width="200" height="160"/>
  <object id="39" x="520" y="360" width="680" height="40"/>
  <object id="41" x="300" y="0" width="1120" height="240"/>
  <object id="76" x="644" y="880" width="432" height="280"/>
  <object id="79" x="1124" y="880" width="596" height="280"/>
  <object id="85" x="760" y="1160" width="200" height="120"/>
  <object id="120" x="0" y="1160" width="200" height="560"/>
  <object id="166" x="160" y="360" width="200" height="160"/>
  <object id="167" x="0" y="0" width="160" height="760"/>
  <object id="168" x="1560" y="0" width="160" height="760"/>
  <object id="170" x="160" y="0" width="60" height="240"/>
  <object id="171" x="-340" y="350"/>
  <object id="175" x="1500" y="0" width="60" height="240"/>
  <object id="179" x="520" y="400">
   <polygon points="0,0 -160,-160 0,-160"/>
  </object>
  <object id="180" x="520" y="480">
   <polygon points="0,0 -160,-160 -160,40 0,40"/>
  </object>
  <object id="181" x="1200" y="400">
   <polygon points="0,0 160,-160 0,-160"/>
  </object>
  <object id="182" x="1200" y="480">
   <polygon points="0,0 160,-160 160,40 0,40"/>
  </object>
  <object id="183" x="280" y="1280" width="1440" height="440"/>
  <object id="216" x="220" y="-40" width="80" height="40"/>
  <object id="217" x="1420" y="-40" width="80" height="40"/>
  <object id="221" x="240" y="0" width="40" height="240"/>
  <object id="222" x="1440" y="0" width="40" height="240"/>
 </objectgroup>
 <objectgroup color="#aa00ff" id="6" name="markers">
  <object id="7" name="entry" x="40" y="820">
   <point/>
  </object>
  <object id="8" name="spawn" x="860" y="820">
   <point/>
  </object>
  <object id="136" name="entry2" x="1680" y="1220">
   <point/>
  </object>
  <object id="141" name="entry4" x="1680" y="820">
   <point/>
  </object>
  <object id="142" name="entry3" x="240" y="1700">
   <point/>
  </object>
  <object id="148" name="targ" x="860" y="320">
   <point/>
  </object>
  <object id="249" x="1100" y="800">
   <point/>
  </object>
  <object id="250" x="620" y="800">
   <point/>
  </object>
  <object id="255" x="1100" y="490">
   <point/>
  </object>
  <object id="256" x="620" y="490">
   <point/>
  </object>
 </objectgroup>
 <objectgroup color="#ff00ff" id="5" name="objects_party">
  <object id="6" name="transition" x="-40" y="760" width="40" height="120">
   <properties>
    <property name="map" value="1_2nd_sanctuary/second_sanctum_3"/>
    <property name="marker" value="entry2"/>
   </properties>
  </object>
  <object id="74" name="slidearea" x="600" y="880" width="40" height="279"/>
  <object id="75" name="slidearea" x="1080" y="880" width="40" height="279"/>
  <object id="118" name="savepoint" x="860" y="880">
   <properties>
    <property name="text1" value="* (A split in the road stands before you...)"/>
    <property name="text2" value="* (You're filled with the knowledge that you can't turn back.)"/>
   </properties>
  </object>
  <object id="130" name="interactable" x="840" y="720" width="40" height="40">
   <properties>
    <property name="text1">	Southeast: Flooded Sanctum
     South: Second Sanctuary</property>
   </properties>
  </object>
  <object id="135" name="transition" x="1720" y="1160" width="40" height="120">
   <properties>
    <property name="map" value="2_flooded_sanctuary/flooded_0_between"/>
    <property name="marker" value="entry2"/>
   </properties>
  </object>
  <object id="143" name="transition" x="1720" y="760" width="40" height="120">
   <properties>
    <property name="map" value="2_flooded_sanctuary/flooded_0_between"/>
    <property name="marker" value="entry3"/>
   </properties>
  </object>
  <object id="149" name="cameratarget" x="720" y="400" width="280" height="120">
   <properties>
    <property name="lockx" type="bool" value="true"/>
    <property name="locky" type="bool" value="true"/>
    <property name="marker" value="targ"/>
    <property name="time" type="float" value="1"/>
   </properties>
  </object>
  <object id="150" name="prophecy" x="720" y="400" width="280" height="120">
   <properties>
    <property name="offx" type="float" value="144"/>
    <property name="offy" type="float" value="-120"/>
    <property name="panel_h" type="int" value="96"/>
    <property name="spr_offx" type="float" value="64"/>
    <property name="spr_offy" type="float" value="104"/>
    <property name="text">SUNKEN IN THE DEEP,
YET BURNING WITH PROMISE.</property>
    <property name="texture" value="hotandcold"/>
    <property name="txt_offy" type="float" value="-64"/>
   </properties>
  </object>
  <object id="151" name="roomglow" x="0" y="0">
   <properties>
    <property name="prophecy" type="bool" value="true"/>
   </properties>
   <point/>
  </object>
  <object id="153" name="transition" x="200" y="1720" width="80" height="40">
   <properties>
    <property name="map" value="1_2nd_sanctuary/second_sanctum_5"/>
    <property name="marker" value="entry"/>
   </properties>
  </object>
  <object id="185" name="interactable" x="220" y="-40" width="80" height="40">
   <properties>
    <property name="text1">Fuck you,[wait:5] there ain't anything here yet![wait:15]
		  [font:main,48][color:red][shake:3]SCRAM!!!</property>
   </properties>
  </object>
  <object id="186" name="interactable" x="1420" y="-40" width="80" height="40">
   <properties>
    <property name="text1">Fuck you,[wait:5] there ain't anything here yet![wait:15]
		  [font:main,48][color:red][shake:3]SCRAM!!!</property>
   </properties>
  </object>
  <object id="218" name="window_glow" x="1100" y="280">
   <point/>
  </object>
  <object id="219" name="window_glow" x="620" y="280">
   <point/>
  </object>
  <object id="220" name="npc" x="1467" y="260">
   <properties>
    <property name="actor" value="organik"/>
    <property name="sprite" value="c"/>
    <property name="text1">* Ah... [wait:5]the Flooded Sanctum.[wait:5]
* A tomb of salt and silence.</property>
    <property name="text2" value="* Some say it's filled with the glitter of oasis... [wait:5]others[wait:5], the sea of sins."/>
    <property name="text3">* But none truly knew the depths.[wait:5]
* Down there,[wait:5] the memory drowns.</property>
   </properties>
   <point/>
  </object>
  <object id="223" name="npc" x="260" y="260">
   <properties>
    <property name="actor" value="organik"/>
    <property name="sprite" value="br"/>
    <property name="text1">* Ah... [wait:5]the Second Sanctuary. [wait:5]
* A base of dust and sparkles.</property>
    <property name="text2" value="* Some say it's filled with the shine of glasses... [wait:5]others,[wait:5] the weight of boredom."/>
    <property name="text3">* But none truly knew the depths.[wait:5]
* Down there, [wait:5]the purpose drowns.</property>
   </properties>
   <point/>
  </object>
  <object id="227" name="npc" x="1280" y="200">
   <properties>
    <property name="actor" value="winglade"/>
   </properties>
   <point/>
  </object>
  <object id="228" name="npc" x="440" y="200">
   <properties>
    <property name="actor" value="winglade"/>
   </properties>
   <point/>
  </object>
  <object id="245" name="climbentry" x="600" y="720" width="40" height="40">
   <properties>
    <property name="target" type="object" value="246"/>
   </properties>
  </object>
  <object id="246" name="climbexit" x="600" y="680" width="40" height="40">
   <properties>
    <property name="target" type="object" value="250"/>
   </properties>
  </object>
  <object id="247" name="climbentry" x="1080" y="720" width="40" height="40">
   <properties>
    <property name="target" type="object" value="248"/>
   </properties>
  </object>
  <object id="248" name="climbexit" x="1080" y="680" width="40" height="40">
   <properties>
    <property name="target" type="object" value="249"/>
   </properties>
  </object>
  <object id="251" name="climbentry" x="600" y="520" width="40" height="40">
   <properties>
    <property name="target" type="object" value="253"/>
   </properties>
  </object>
  <object id="252" name="climbentry" x="1080" y="520" width="40" height="40">
   <properties>
    <property name="target" type="object" value="254"/>
   </properties>
  </object>
  <object id="253" name="climbexit" x="600" y="560" width="40" height="40">
   <properties>
    <property name="target" type="object" value="256"/>
   </properties>
  </object>
  <object id="254" name="climbexit" x="1080" y="560" width="40" height="40">
   <properties>
    <property name="target" type="object" value="255"/>
   </properties>
  </object>
  <object id="257" name="npc" x="1100" y="880">
   <properties>
    <property name="actor" value="organik"/>
    <property name="cond" value="not Game:getFlag(&quot;unlock_travel&quot;)"/>
    <property name="sprite" value="br"/>
    <property name="text1" value="* (They're too scared to slide down.)"/>
   </properties>
   <point/>
  </object>
  <object id="258" name="enemy" x="1400" y="860">
   <properties>
    <property name="actor" value="organikk"/>
    <property name="encounter" value="winganikk"/>
    <property name="group" type="int" value="1"/>
    <property name="pacetype" value="horizontalswing"/>
    <property name="swingdiv" type="float" value="30"/>
    <property name="swinglength" type="float" value="300"/>
   </properties>
   <point/>
  </object>
 </objectgroup>
 <objectgroup id="30" name="objects_fog">
  <object id="1" name="churchfog" x="80" y="0">
   <point/>
  </object>
 </objectgroup>
 <objectgroup id="4" name="objects_top">
  <object id="2" name="filter" x="40" y="0">
   <properties>
    <property name="type" value="hsv"/>
   </properties>
   <point/>
  </object>
 </objectgroup>
</map>
