<?xml version="1.0" encoding="UTF-8"?>
<map version="1.11" tiledversion="1.12.2" orientation="orthogonal" renderorder="right-down" width="48" height="18" tilewidth="40" tileheight="40" infinite="0" parallaxoriginx="-320" parallaxoriginy="-240" nextlayerid="24" nextobjectid="218">
 <editorsettings>
  <export target="data.lua" format="lua"/>
 </editorsettings>
 <properties>
  <property name="border" value="church_d"/>
  <property name="music" value="fourth_church"/>
 </properties>
 <tileset firstgid="1" source="../../../tilesets/bg_dw_church_2_tileset.tsx"/>
 <tileset firstgid="199" source="../../../tilesets/bg_dw_church_tileset_new.tsx"/>
 <tileset firstgid="781" source="../../../tilesets/light_areas.tsx"/>
 <tileset firstgid="791" source="../../../tilesets/church_objects.tsx"/>
 <tileset firstgid="901" source="../../../tilesets/ExtraClimbingTiles.tsx"/>
 <layer id="14" name="tiles_bg" width="48" height="18" visible="0" offsetx="-200" offsety="-220" parallaxx="0.4" parallaxy="0.6">
  <data encoding="csv">
0,0,0,0,0,0,0,354,0,0,0,0,0,0,0,0,354,0,0,0,0,0,0,0,0,354,0,0,0,0,0,0,0,0,354,0,0,0,0,0,0,0,0,354,0,0,0,0,
0,0,0,0,0,0,0,360,0,0,0,0,0,0,0,0,360,0,0,0,0,0,0,0,0,360,0,0,0,0,0,0,0,0,360,0,0,0,0,0,0,0,0,360,0,0,0,0,
0,0,0,0,0,0,0,366,0,0,0,0,0,0,0,0,366,0,0,0,0,0,0,0,0,366,0,0,0,0,0,0,0,0,366,0,0,0,0,0,0,0,0,366,0,0,0,0,
0,0,0,0,0,0,0,0,0,0,0,0,0,0,0,0,0,0,0,0,0,0,0,0,0,0,0,0,0,0,0,0,0,0,0,0,0,0,0,0,0,0,0,0,0,0,0,0,
0,0,0,0,0,0,0,0,0,0,0,0,0,0,0,0,0,0,0,0,0,0,0,0,0,0,0,0,0,0,0,0,0,0,0,0,0,0,0,0,0,0,0,0,0,0,0,0,
0,0,0,0,0,0,0,0,0,0,0,0,0,0,0,0,0,0,0,0,0,0,0,0,0,0,0,0,0,0,0,0,0,0,0,0,0,0,0,0,0,0,0,0,0,0,0,0,
0,354,0,0,0,0,0,0,0,0,354,0,0,0,0,0,0,0,0,354,0,0,0,0,0,0,0,0,354,0,0,0,0,0,0,0,0,0,0,0,0,0,0,0,0,0,0,0,
0,360,0,0,0,0,0,0,0,0,360,0,0,0,0,0,0,0,0,360,0,0,0,0,0,0,0,0,360,0,0,0,0,0,0,0,0,0,0,0,0,0,0,0,0,0,0,0,
0,366,0,0,0,0,0,0,0,0,366,0,0,0,0,0,0,0,0,366,0,0,0,0,0,0,0,0,366,0,0,0,0,0,0,0,0,0,0,0,0,0,0,0,0,0,0,0,
0,0,0,0,0,0,0,0,0,0,0,0,0,0,0,0,0,0,0,0,0,0,0,0,0,0,0,0,0,0,0,0,0,0,0,0,0,0,0,0,0,0,0,0,0,0,0,0,
0,0,0,0,0,0,0,0,0,0,0,0,0,0,0,0,0,0,0,0,0,0,0,0,0,0,0,0,0,0,0,0,0,0,0,0,0,0,0,0,0,0,0,0,0,0,0,0,
0,0,0,0,0,0,0,0,0,0,0,0,0,0,0,0,0,0,0,0,0,0,0,0,0,0,0,0,0,0,0,0,0,0,0,0,0,0,0,0,0,0,0,0,0,0,0,0,
0,0,0,0,0,0,0,0,0,0,0,0,0,0,0,0,0,0,0,0,0,0,0,0,0,0,0,0,0,0,0,0,0,0,0,0,0,0,0,0,0,0,0,0,0,0,0,0,
0,0,0,0,354,0,0,0,0,0,0,0,0,354,0,0,0,0,0,0,0,0,354,0,0,0,0,0,0,0,0,354,0,0,0,0,0,0,0,0,0,0,0,0,0,0,0,0,
0,0,0,0,360,0,0,0,0,0,0,0,0,360,0,0,0,0,0,0,0,0,360,0,0,0,0,0,0,0,0,360,0,0,0,0,0,0,0,0,0,0,0,0,0,0,0,0,
0,0,0,0,366,0,0,0,0,0,0,0,0,366,0,0,0,0,0,0,0,0,366,0,0,0,0,0,0,0,0,366,0,0,0,0,0,0,0,0,0,0,0,0,0,0,0,0,
0,0,0,0,0,0,0,0,0,0,0,0,0,0,0,0,0,0,0,0,0,0,0,0,0,0,0,0,0,0,0,0,0,0,0,0,0,0,0,0,0,0,0,0,0,0,0,0,
0,0,0,0,0,0,0,0,0,0,0,0,0,0,0,0,0,0,0,0,0,0,0,0,0,0,0,0,0,0,0,0,0,0,0,0,0,0,0,0,0,0,0,0,0,0,0,0
</data>
 </layer>
 <objectgroup id="13" name="objects_parallax2" visible="0" locked="1" parallaxx="0.5" parallaxy="0.7">
  <object id="50" gid="791" x="360" y="760" width="400" height="578">
   <properties>
    <property name="color" type="color" value="#ff2525ba"/>
   </properties>
  </object>
  <object id="52" gid="792" x="760" y="320" width="200" height="1240">
   <properties>
    <property name="color" type="color" value="#ff2525ba"/>
   </properties>
  </object>
  <object id="53" gid="791" x="-40" y="760" width="400" height="578">
   <properties>
    <property name="color" type="color" value="#ff2525ba"/>
   </properties>
  </object>
  <object id="56" gid="791" x="760" y="760" width="400" height="578">
   <properties>
    <property name="color" type="color" value="#ff2525ba"/>
   </properties>
  </object>
 </objectgroup>
 <objectgroup id="12" name="objects_parallax" visible="0" locked="1" parallaxx="0.6" parallaxy="0.9">
  <object id="48" gid="795" x="-720" y="920" width="640" height="1600" rotation="45"/>
  <object id="49" gid="795" x="1160" y="-880" width="640" height="1600" rotation="180"/>
 </objectgroup>
 <layer id="9" name="Tile Layer 4" width="48" height="18">
  <data encoding="csv">
0,0,0,0,0,0,0,0,0,0,0,0,2684355302,2684355296,2684355290,2684355302,2684355296,2684355290,0,0,0,0,0,0,0,0,0,0,0,0,0,0,0,0,0,0,0,0,0,0,0,0,0,0,0,0,0,0,
0,0,0,0,0,0,0,0,0,0,0,0,2684355303,2684355297,2684355291,2684355303,2684355297,2684355291,0,0,0,0,0,0,0,0,0,0,0,0,0,0,0,0,0,0,0,0,0,0,0,0,0,0,0,0,0,0,
0,0,0,0,0,0,0,0,0,0,0,0,2684355304,2684355298,2684355292,2684355304,2684355298,2684355292,0,0,0,0,0,0,0,0,0,0,0,0,0,0,0,0,0,0,0,0,0,0,0,0,0,0,0,0,0,0,
0,0,0,0,0,0,0,0,0,0,0,0,0,0,0,0,0,2684355302,2684355296,2684355290,0,0,0,0,0,0,0,0,0,0,0,0,0,0,0,0,0,0,0,0,0,0,0,0,0,0,0,0,
0,0,0,0,0,0,0,0,0,0,0,0,0,0,0,0,0,2684355303,2684355297,2684355291,0,0,0,0,0,0,0,0,0,0,0,0,0,0,0,0,0,0,0,0,0,0,0,0,0,0,0,0,
0,0,0,0,0,0,0,0,0,0,0,0,0,0,0,0,0,2684355304,2684355298,2684355292,2684355296,2684355290,0,0,0,0,0,0,0,0,0,0,0,0,0,0,0,0,331,331,331,331,331,331,331,331,331,331,
0,0,0,0,0,0,541,0,0,0,0,0,0,0,541,0,0,0,541,2684355303,2684355297,2684355291,0,0,0,0,0,0,0,0,0,0,0,0,0,0,0,0,331,331,331,331,331,331,331,331,331,331,
0,0,0,0,0,0,547,0,0,0,0,0,0,0,547,0,0,0,547,2684355304,2684355298,2684355292,2684355302,2684355296,2684355290,0,2684355302,2684355296,2684355290,0,0,0,0,0,0,0,0,0,331,331,331,331,331,331,331,331,331,331,
0,0,0,0,0,0,553,0,0,0,0,2684355302,2684355296,2684355290,553,0,0,0,553,0,0,0,2684355303,2684355297,2684355291,0,2684355303,2684355297,2684355291,2684355302,2684355296,2684355290,0,0,0,0,0,0,331,331,331,331,331,331,331,331,331,331,
0,0,0,0,0,0,559,0,0,0,0,2684355303,2684355297,2684355291,559,0,0,0,559,0,0,0,2684355304,2684355298,2684355292,0,2684355304,2684355298,2684355292,2684355303,2684355297,2684355291,0,0,0,0,0,0,331,331,331,331,331,331,331,331,331,331,
0,0,0,0,0,0,559,0,0,0,0,2684355304,2684355298,2684355292,559,0,0,2684355302,2684355296,2684355290,0,0,0,0,0,0,2684355302,2684355296,2684355290,2684355304,2684355298,2684355292,0,0,0,0,0,0,331,331,331,331,331,331,331,331,331,331,
0,0,0,0,0,0,565,0,0,0,0,0,2684355302,2684355296,2684355290,0,2684355303,2684355297,2684355297,2684355291,0,2684355302,2684355296,2684355296,2684355296,2684355290,2684355303,2684355297,2684355291,0,0,0,0,0,0,0,0,0,331,331,331,331,331,331,331,331,331,331,
0,0,0,0,0,0,0,0,0,0,0,0,2684355303,2684355297,2684355291,0,2684355304,2684355298,2684355298,2684355292,0,2684355303,2684355297,2684355297,2684355297,2684355291,2684355304,2684355298,2684355292,0,0,0,0,0,0,0,0,0,0,0,0,0,0,0,0,0,0,0,
0,0,0,0,0,0,0,0,0,0,0,0,2684355304,2684355298,2684355292,0,0,0,0,0,0,2684355304,2684355298,2684355298,2684355298,2684355292,0,0,0,0,0,0,0,0,0,0,0,0,0,0,0,0,0,0,0,0,0,0,
0,0,0,0,0,0,0,0,0,0,0,746,0,0,547,0,0,0,0,0,0,0,0,0,0,0,0,0,0,0,0,0,0,0,0,0,0,0,0,0,0,0,0,0,0,0,0,0,
0,0,0,0,0,0,0,0,0,0,0,752,0,0,553,0,0,0,0,0,0,0,0,0,0,0,0,0,0,0,0,0,0,0,0,0,0,0,0,0,0,0,0,0,0,0,0,0,
0,0,0,0,0,0,541,0,0,541,0,758,0,0,559,0,0,0,0,0,0,0,0,0,0,0,0,0,0,0,0,0,0,0,0,0,0,0,0,0,0,0,0,0,0,0,0,0,
0,0,0,0,0,0,547,0,0,547,0,0,0,0,559,0,0,0,0,0,0,0,0,0,0,0,0,0,0,0,0,0,0,0,0,0,0,0,0,0,0,0,0,0,0,0,0,0
</data>
 </layer>
 <layer id="11" name="decal" width="48" height="18" opacity="0.3" offsetx="0" offsety="-20">
  <data encoding="csv">
0,0,0,0,0,0,0,0,0,0,0,0,0,0,0,0,0,0,0,0,0,0,0,0,0,0,0,0,0,0,0,0,0,0,0,0,0,0,0,0,0,0,0,0,0,0,0,0,
0,0,0,0,0,0,0,0,0,0,0,0,0,0,0,0,0,0,0,0,0,0,0,0,0,0,0,0,0,0,0,0,0,0,0,0,0,0,0,0,0,0,0,0,0,0,0,0,
0,0,0,0,0,0,0,0,0,0,0,0,0,0,0,0,0,0,0,0,0,0,0,0,0,0,0,0,0,0,0,0,0,0,0,0,0,0,0,0,0,0,0,0,0,0,0,0,
0,0,0,0,0,0,0,0,0,0,0,0,0,0,0,0,0,0,0,0,0,0,0,0,0,0,0,0,0,0,0,0,0,0,0,0,0,0,0,0,0,0,0,0,0,0,0,0,
0,0,0,0,0,0,0,0,0,0,0,0,0,0,0,0,0,0,0,0,0,0,0,0,0,0,0,0,0,0,0,0,0,0,0,0,0,0,0,0,0,0,0,0,0,0,0,0,
0,0,0,0,0,0,0,0,0,0,0,0,0,0,0,0,0,0,0,0,0,0,0,0,0,0,0,0,0,0,0,0,0,0,0,0,0,0,0,0,0,0,0,0,0,0,0,0,
0,0,0,0,0,0,0,0,0,0,0,0,0,0,0,0,0,0,0,0,0,0,0,0,0,0,0,0,0,0,0,0,0,0,0,0,0,0,0,0,0,0,0,0,0,0,0,0,
0,0,0,0,0,0,0,0,0,0,0,0,0,0,0,0,0,0,0,0,0,0,0,0,0,0,0,0,0,0,0,0,0,0,0,0,0,0,0,0,0,0,0,0,0,0,0,0,
0,0,0,0,0,0,0,0,0,0,0,0,0,0,0,0,0,0,0,0,0,0,0,0,0,0,0,0,0,0,0,0,0,0,0,0,0,0,0,0,0,0,0,0,0,0,0,0,
0,0,0,0,0,0,0,0,0,0,0,0,0,0,0,0,0,0,0,0,0,0,0,0,0,0,0,0,0,0,0,0,0,0,0,0,0,0,0,0,0,0,0,0,0,0,0,0,
0,0,0,0,0,0,0,0,0,0,0,0,0,0,0,0,0,0,0,0,0,0,0,0,0,0,0,0,0,0,0,0,0,0,0,0,0,0,0,0,0,0,0,0,0,0,0,0,
0,0,0,0,0,0,0,0,0,0,0,0,0,0,0,0,0,0,0,0,0,0,0,0,0,0,0,0,0,0,0,0,0,0,0,0,0,0,0,0,0,0,0,0,0,0,0,0,
0,0,0,0,0,0,0,0,0,0,0,0,0,0,0,0,0,0,0,0,0,0,0,0,0,0,0,0,0,0,0,0,0,0,0,0,0,0,331,331,331,331,331,331,331,331,331,331,
0,0,0,0,0,0,0,0,0,0,0,0,0,0,0,0,0,0,0,0,0,0,0,0,0,0,0,0,0,0,0,0,0,0,0,0,0,0,0,0,0,0,0,0,0,0,0,0,
0,0,0,0,0,0,0,0,0,0,0,0,0,0,0,0,0,0,0,0,0,0,0,0,0,0,0,0,0,0,0,0,0,0,0,0,0,0,0,0,0,0,0,0,0,0,0,0,
0,0,0,0,0,0,0,0,0,0,0,0,0,0,0,0,0,0,0,0,0,0,0,0,0,0,0,0,0,0,0,0,0,0,0,0,0,0,0,0,0,0,0,0,0,0,0,0,
0,0,0,0,0,0,0,0,0,0,0,0,0,0,0,0,0,0,0,0,0,0,0,0,0,0,0,0,0,0,0,0,0,0,0,0,0,0,0,0,0,0,0,0,0,0,0,0,
0,0,0,0,0,0,0,0,0,0,0,0,0,0,0,0,0,0,0,0,0,0,0,0,0,0,0,0,0,0,0,0,0,0,0,0,0,0,0,0,0,0,0,0,0,0,0,0
</data>
 </layer>
 <layer id="16" name="climb" width="48" height="18">
  <data encoding="csv">
0,0,0,0,0,0,0,0,0,0,0,0,0,733,905,734,908,905,735,0,0,0,0,0,0,0,0,0,0,0,0,0,0,0,0,0,0,0,0,0,0,0,0,0,0,0,0,0,
0,0,0,0,0,0,0,0,0,0,0,0,0,733,905,735,0,907,741,0,0,0,0,0,0,0,0,0,0,0,0,0,0,0,0,0,0,0,0,0,0,0,0,0,0,0,0,0,
0,0,0,0,0,0,0,0,0,0,0,0,0,0,0,0,2684355293,2684355293,2684355287,0,0,0,0,0,0,0,0,0,0,0,0,0,0,0,0,0,0,0,0,0,0,0,0,0,0,0,0,0,
0,0,0,0,0,0,0,0,0,0,0,0,0,0,0,0,2684355294,2684355335,2684355288,0,0,0,0,0,0,0,0,0,0,0,0,0,0,0,0,0,0,0,0,0,0,0,0,0,0,0,0,0,
0,0,0,0,0,0,0,0,0,0,0,0,0,0,0,0,2684355294,2684355294,2684355294,2684355293,2684355287,0,0,0,0,0,0,0,0,0,0,0,0,0,0,0,0,0,0,0,0,0,0,0,0,0,0,0,
0,0,0,0,0,0,0,0,0,0,0,0,0,0,0,0,2684355294,2684355335,2684355294,2684355335,2684355288,0,0,0,0,727,728,729,0,0,0,0,0,0,0,0,0,0,0,0,0,0,0,0,0,0,0,0,
0,0,0,0,0,0,0,0,0,0,0,0,0,0,0,2684355300,2684355294,2684355294,2684355294,2684355294,2684355294,2684355293,2684355287,0,0,904,905,735,0,0,0,0,0,0,0,0,0,0,0,0,0,0,0,0,0,0,0,0,
0,0,0,0,0,0,0,0,0,0,0,0,0,727,903,2684355468,2684355294,2684355335,2684355294,2684355335,2684355294,2684355335,2684355288,0,0,739,908,741,901,729,0,0,0,0,0,0,0,0,0,0,0,0,0,0,0,0,0,0,
0,0,0,0,0,0,0,0,0,0,0,0,0,733,906,2684355300,2684355294,2684355294,2684355294,2684355294,2684355294,2684355294,2684355294,2684355293,2684355293,2684355464,2684355287,0,904,735,0,0,0,0,0,0,0,0,0,0,0,0,0,0,0,0,0,0,
0,0,0,0,0,0,0,0,0,0,0,0,0,0,0,0,2684355294,2684355335,2684355294,2684355335,2684355294,2684355335,2684355294,2684355335,2684355294,2684355294,2684355294,0,0,0,0,0,0,0,0,0,0,0,0,0,0,0,0,0,0,0,0,0,
0,0,0,0,0,0,0,0,0,0,0,0,0,0,0,0,2684355294,2684355294,2684355294,2684355294,2684355294,2684355294,2684355294,2684355335,2684355294,2684355335,2684355294,0,0,0,0,0,0,0,0,0,0,0,0,0,0,0,0,0,0,0,0,0,
0,0,0,0,0,0,0,0,0,0,0,0,0,0,0,0,2684355295,2684355295,2684355295,2684355295,2684355295,2684355295,2684355295,2684355295,2684355295,2684355295,2684355295,0,0,0,0,0,0,0,0,0,0,0,0,0,0,0,0,0,0,0,0,0,
0,0,0,0,0,0,0,0,0,0,0,0,0,0,0,0,0,0,0,0,0,0,0,0,0,0,0,0,0,0,0,0,0,0,0,0,0,0,0,0,0,0,0,0,0,0,0,0,
0,0,0,0,0,0,0,0,0,0,0,0,0,0,0,0,0,0,0,0,0,0,0,0,0,0,0,0,0,0,0,0,0,0,0,0,0,0,0,0,0,0,0,0,0,0,0,0,
0,0,0,0,0,0,0,0,0,0,0,0,0,0,0,0,0,0,0,0,0,0,0,0,0,0,0,0,0,0,0,0,0,0,0,0,0,0,0,0,0,0,0,0,0,0,0,0,
0,0,0,0,0,0,0,0,0,0,0,0,0,0,0,0,0,0,0,0,0,0,0,0,0,0,0,0,0,0,0,0,0,0,0,0,0,0,0,0,0,0,0,0,0,0,0,0,
0,0,0,0,0,0,0,0,0,0,0,0,0,0,0,0,0,0,0,0,0,0,0,0,0,0,0,0,0,0,0,0,0,0,0,0,0,0,0,0,0,0,0,0,0,0,0,0,
0,0,0,0,0,0,0,0,0,0,0,0,0,0,0,0,0,0,0,0,0,0,0,0,0,0,0,0,0,0,0,0,0,0,0,0,0,0,0,0,0,0,0,0,0,0,0,0
</data>
 </layer>
 <layer id="8" name="Tile Layer 3" width="48" height="18" offsetx="20" offsety="0">
  <data encoding="csv">
0,0,0,0,0,0,0,0,0,0,0,0,0,0,0,0,0,0,0,0,0,0,0,0,0,0,0,0,0,0,0,0,0,0,0,0,0,0,0,0,0,0,0,0,0,0,0,0,
0,0,0,0,0,0,0,0,0,0,0,0,0,0,0,0,0,0,0,0,0,0,0,0,0,0,0,0,0,0,0,0,0,0,0,0,0,0,0,0,0,0,0,0,0,0,0,0,
0,0,0,0,0,0,0,0,0,0,0,0,0,0,0,0,0,0,0,0,0,0,0,0,0,0,0,0,0,0,0,0,0,0,0,0,0,0,0,0,0,0,0,0,0,0,0,0,
0,0,0,0,0,0,0,0,0,0,0,0,0,0,0,0,0,0,0,0,0,0,0,0,0,0,0,0,0,0,0,0,0,0,0,0,0,0,0,0,0,0,0,0,0,0,0,0,
0,0,0,0,0,0,0,0,0,0,0,0,0,0,0,0,0,0,0,0,0,0,0,0,0,0,0,0,0,0,0,0,0,0,0,0,0,0,0,0,0,0,0,0,0,0,0,0,
0,0,0,0,0,0,0,0,0,0,0,0,0,0,0,0,0,0,0,0,0,0,0,0,0,0,0,0,0,0,0,0,0,0,0,0,0,0,0,0,0,0,0,0,0,0,0,0,
0,0,0,0,0,0,0,0,0,0,0,0,0,0,0,0,0,0,0,0,0,0,0,0,0,0,0,0,0,0,0,0,0,0,0,0,0,0,0,0,0,0,0,0,0,0,0,0,
0,0,0,0,0,0,0,0,0,0,0,0,0,0,0,0,0,0,0,0,0,0,0,0,0,0,0,0,0,0,0,0,0,0,0,0,0,0,334,335,0,0,334,335,0,0,334,335,
0,0,0,0,0,0,0,0,0,0,0,0,0,0,0,0,0,0,0,0,0,0,0,0,0,0,0,0,0,0,0,0,0,0,0,0,0,0,340,341,0,0,340,341,0,0,340,341,
0,0,0,0,0,0,0,0,0,0,0,0,0,0,0,0,0,0,0,0,0,0,0,0,0,0,0,0,0,0,0,0,0,0,0,0,0,0,346,347,0,0,346,347,0,0,346,347,
0,0,0,0,0,0,0,0,0,0,0,0,0,0,0,0,0,0,0,0,0,0,0,0,0,0,0,0,0,0,0,0,0,0,0,0,0,0,352,353,0,0,352,353,0,0,352,353,
0,0,0,0,0,0,0,0,0,0,0,0,0,0,0,0,0,0,0,0,0,0,0,0,0,0,0,0,0,0,0,0,0,0,0,0,0,0,0,0,0,0,0,0,0,0,0,0,
0,0,0,0,0,0,0,0,0,0,0,0,0,0,0,0,0,0,0,0,0,0,0,0,0,0,0,0,0,0,0,0,0,0,0,0,0,0,0,0,0,0,0,0,0,0,0,0,
0,0,0,0,0,0,0,0,0,0,0,0,0,0,0,0,0,0,0,0,0,0,0,0,0,0,0,0,0,0,0,0,0,0,0,0,0,0,0,0,0,0,0,0,0,0,0,0,
0,0,0,0,0,0,0,0,0,0,0,0,0,0,0,0,0,0,0,0,0,0,0,0,0,0,0,0,0,0,0,0,0,0,0,0,0,0,0,0,0,0,0,0,0,0,0,0,
0,0,0,0,0,0,0,0,0,0,0,0,0,0,0,0,0,0,0,0,0,0,0,0,0,0,0,0,0,0,0,0,0,0,0,0,0,0,0,0,0,0,0,0,0,0,0,0,
0,0,0,0,0,0,0,0,0,0,0,0,0,0,0,2684355119,2684355119,2684355113,2684355107,2684355101,0,0,0,0,0,0,0,0,0,0,0,0,0,0,0,0,0,0,0,0,0,0,0,0,0,0,0,0,
0,0,0,0,0,0,0,0,0,0,0,0,0,0,0,0,0,0,0,0,0,0,0,0,0,0,0,0,0,0,0,0,0,0,0,0,0,0,0,0,0,0,0,0,0,0,0,0
</data>
 </layer>
 <objectgroup id="19" name="objects_belower_than_party">
  <object id="199" name="churchmagicglass" x="-240" y="360" width="480" height="80">
   <properties>
    <property name="idlealpha" type="float" value="0"/>
    <property name="starthidden" type="bool" value="true"/>
   </properties>
  </object>
  <object id="206" name="window_oscillate" x="460" y="680">
   <properties>
    <property name="texture" value="window_knight_oscillate"/>
   </properties>
   <point/>
  </object>
 </objectgroup>
 <layer id="1" name="Tile Layer 1" width="48" height="18">
  <data encoding="csv">
0,0,0,0,0,0,0,0,0,0,0,0,0,0,0,0,0,0,0,0,0,0,0,0,0,0,0,0,0,0,0,0,0,0,0,0,0,0,0,0,0,0,0,0,0,0,0,0,
0,0,0,0,0,0,0,0,0,0,0,0,0,0,0,0,0,0,0,0,0,0,0,0,0,0,0,0,0,0,0,0,0,0,0,0,0,0,0,0,0,0,0,0,0,0,0,0,
10,10,10,10,10,10,10,10,10,195,10,10,10,10,10,10,0,0,0,0,0,0,0,0,0,0,0,0,0,0,0,0,0,0,0,0,0,0,0,0,0,0,0,0,0,0,0,0,
10,10,10,10,10,10,10,10,10,10,10,10,10,10,10,10,0,0,0,0,0,0,0,0,0,0,0,0,0,0,0,0,0,0,0,0,0,0,0,0,0,0,0,0,0,0,0,0,
28,28,28,28,28,28,28,28,28,28,28,28,28,28,28,28,0,0,0,0,0,0,0,0,0,0,0,0,0,0,0,0,0,0,0,0,0,0,0,0,0,0,0,0,0,0,0,0,
0,0,0,0,0,0,0,0,0,0,0,0,0,0,0,0,0,0,0,0,0,0,0,0,0,0,0,0,0,0,0,0,0,0,10,10,10,10,10,10,10,10,10,10,10,10,10,10,
0,0,0,0,0,0,0,0,0,0,0,0,0,0,0,0,0,0,0,0,0,0,0,0,0,0,0,0,0,0,0,0,0,0,10,10,195,10,10,10,10,10,10,10,10,10,10,10,
0,0,0,0,0,0,0,0,0,0,0,0,0,0,0,0,0,0,0,0,0,0,0,0,0,0,0,0,0,0,0,0,0,0,10,10,195,10,10,10,10,10,10,10,10,10,10,10,
0,0,0,0,0,0,0,0,0,0,0,0,0,0,0,0,0,0,0,0,0,0,0,0,0,0,0,0,0,0,0,0,0,0,10,10,195,28,28,28,28,28,28,28,28,28,28,28,
0,0,0,0,0,0,10,10,195,195,195,195,195,10,195,195,0,0,0,0,0,0,0,0,0,0,0,10,10,10,10,10,10,10,10,10,195,0,0,0,0,0,0,0,0,0,0,0,
0,0,0,0,0,0,10,10,195,195,195,195,195,10,195,195,0,0,0,0,0,0,0,0,0,0,0,10,10,10,10,10,10,10,10,10,195,0,0,0,0,0,0,0,0,0,0,0,
0,0,0,0,0,0,10,10,195,195,10,10,10,10,10,10,0,0,0,0,0,0,0,0,0,0,0,10,10,10,10,10,10,10,10,10,195,0,0,0,0,0,0,0,0,0,0,0,
0,0,0,0,0,0,10,10,195,195,28,28,28,28,28,28,0,0,0,0,0,0,0,0,0,0,0,28,28,28,28,28,28,28,10,10,10,10,10,10,10,10,10,10,10,10,10,195,
0,0,0,0,0,0,10,10,195,195,0,0,0,0,0,0,0,0,0,0,0,0,0,0,0,0,0,0,0,0,0,0,0,0,10,10,10,10,10,10,10,10,10,10,10,10,10,195,
0,0,0,0,0,0,10,10,10,10,0,0,0,0,0,0,0,0,0,0,0,0,0,0,0,0,0,0,0,0,0,0,0,0,10,10,10,10,10,10,10,10,10,10,10,10,10,10,
0,0,0,0,0,0,28,28,28,28,0,0,0,0,0,0,0,0,0,0,0,0,0,0,0,0,0,0,0,0,0,0,0,0,28,28,28,28,28,28,28,28,28,28,28,28,28,28,
0,0,0,0,0,0,0,0,0,0,0,0,0,0,0,0,0,0,0,0,0,0,0,0,0,0,0,0,0,0,0,0,0,0,0,0,0,0,0,0,0,0,0,0,0,0,0,0,
0,0,0,0,0,0,0,0,0,0,0,0,0,0,0,0,0,0,0,0,0,0,0,0,0,0,0,0,0,0,0,0,0,0,0,0,0,0,0,0,0,0,0,0,0,0,0,0
</data>
 </layer>
 <layer id="15" name="top_thngs" width="48" height="18">
  <data encoding="csv">
0,0,0,0,0,0,0,0,0,0,0,0,0,0,0,0,0,0,0,0,0,0,0,0,0,0,0,0,0,0,0,0,0,0,0,0,0,0,0,0,0,0,0,0,0,0,0,0,
174,174,174,174,174,174,174,174,174,174,174,174,174,174,0,174,0,0,0,0,0,0,0,0,0,0,0,0,0,0,0,0,0,0,0,0,0,0,0,0,0,0,0,0,0,0,0,0,
0,0,0,0,0,0,0,0,0,0,0,0,0,0,0,0,2684354734,0,0,0,0,0,0,0,0,0,0,0,0,0,0,0,0,0,0,0,0,0,0,0,0,0,0,0,0,0,0,0,
0,0,0,0,0,0,0,0,0,0,0,0,0,0,0,0,2684354734,0,0,0,0,0,0,0,0,0,0,0,0,0,0,0,0,0,0,0,0,0,0,0,0,0,0,0,0,0,0,0,
0,0,0,0,0,0,0,0,0,0,0,0,0,0,0,0,0,0,0,0,0,0,0,0,0,0,0,0,0,0,0,0,0,0,174,174,174,174,174,174,174,174,174,174,174,174,174,174,
0,0,0,0,0,0,0,0,0,0,0,0,0,0,0,0,0,0,0,0,0,0,0,0,0,0,0,0,0,0,0,0,0,0,0,0,0,0,0,0,0,0,0,0,0,0,0,0,
0,0,0,0,0,0,0,0,0,0,0,0,0,0,0,0,0,0,0,0,0,0,0,0,0,0,0,0,0,0,0,0,0,0,0,0,0,0,0,0,0,0,0,0,0,0,0,0,
0,0,0,0,0,0,0,0,0,0,0,0,0,0,0,0,0,0,0,0,0,0,0,0,0,0,0,0,0,0,0,0,0,0,0,0,0,0,0,0,0,0,0,0,0,0,0,0,
0,0,0,0,0,0,174,174,174,174,174,174,174,174,0,174,0,0,0,0,0,0,0,0,0,0,0,174,174,174,174,174,174,174,0,0,0,0,0,0,0,0,0,0,0,0,0,0,
0,0,0,0,0,0,0,0,0,0,0,0,0,0,0,0,2684354734,0,0,0,0,0,0,0,0,0,1610612910,0,0,0,0,0,0,0,0,0,0,0,0,0,0,0,0,0,0,0,0,0,
0,0,0,0,0,0,0,0,0,0,0,0,0,0,0,0,2684354734,0,0,0,0,0,0,0,0,0,1610612910,0,0,0,0,0,0,0,0,0,0,0,0,0,0,0,0,0,0,0,0,0,
0,0,0,0,0,0,0,0,0,0,0,0,0,0,0,0,2684354734,0,0,0,0,0,0,0,0,0,1610612910,0,0,0,0,0,0,0,0,0,0,0,0,0,0,0,0,0,0,0,0,0,
0,0,0,0,0,0,0,0,0,0,0,0,0,0,0,0,0,0,0,0,0,0,0,0,0,0,0,0,0,0,0,0,0,0,0,0,0,0,0,0,0,0,0,0,0,0,0,0,
0,0,0,0,0,0,0,0,0,0,0,0,0,0,0,0,0,0,0,0,0,0,0,0,0,0,0,0,0,0,0,0,0,0,0,0,0,0,0,0,0,0,0,0,0,0,0,0,
0,0,0,0,0,0,0,0,0,0,0,0,0,0,0,0,0,0,0,0,0,0,0,0,0,0,0,0,0,0,0,0,0,0,0,0,0,0,0,0,0,0,0,0,0,0,0,0,
0,0,0,0,0,0,0,0,0,0,0,0,0,0,0,0,0,0,0,0,0,0,0,0,0,0,0,0,0,0,0,0,0,0,0,0,0,0,0,0,0,0,0,0,0,0,0,0,
0,0,0,0,0,0,0,0,0,0,0,0,0,0,0,0,0,0,0,0,0,0,0,0,0,0,0,0,0,0,0,0,0,0,0,0,0,0,0,0,0,0,0,0,0,0,0,0,
0,0,0,0,0,0,0,0,0,0,0,0,0,0,0,0,0,0,0,0,0,0,0,0,0,0,0,0,0,0,0,0,0,0,0,0,0,0,0,0,0,0,0,0,0,0,0,0
</data>
 </layer>
 <objectgroup color="#aa00ff" id="4" name="markers">
  <object id="11" name="entry" x="40" y="120">
   <point/>
  </object>
  <object id="63" name="spawn" x="560" y="120">
   <point/>
  </object>
  <object id="64" name="targ" x="520" y="480">
   <point/>
  </object>
  <object id="69" name="entry2" x="1870" y="520">
   <point/>
  </object>
  <object id="197" name="hell" x="40" y="400">
   <point/>
  </object>
  <object id="207" x="580" y="100">
   <point/>
  </object>
  <object id="208" x="580" y="400">
   <point/>
  </object>
  <object id="209" x="1140" y="400">
   <point/>
  </object>
 </objectgroup>
 <objectgroup color="#00ffff" id="23" name="climbing" class="objects">
  <object id="85" type="climbarea" x="680" y="120" width="40" height="40"/>
  <object id="122" type="climbarea" x="640" y="0" width="80" height="40"/>
  <object id="125" type="climbarea" x="560" y="0" width="40" height="40"/>
  <object id="124" type="climbarea" x="680" y="40" width="40" height="40"/>
  <object id="90" type="climbarea" x="760" y="200" width="40" height="40"/>
  <object id="93" type="climbarea" x="840" y="280" width="40" height="40"/>
  <object id="86" type="climbarea" x="680" y="200" width="40" height="40"/>
  <object id="91" type="climbarea" x="760" y="280" width="40" height="40"/>
  <object id="94" type="climbarea" x="840" y="360" width="40" height="40"/>
  <object id="97" type="climbarea" x="1000" y="400" width="40" height="40"/>
  <object id="162" type="climbarea" x="1000" y="320" width="40" height="40"/>
  <object id="163" type="climbarea" x="1000" y="240" width="80" height="40"/>
  <object id="166" type="climbarea" x="1120" y="280" width="40" height="40"/>
  <object id="165" type="climbarea" x="1040" y="280" width="40" height="40"/>
  <object id="87" type="climbarea" x="680" y="280" width="40" height="40"/>
  <object id="156" type="climbarea" x="560" y="280" width="40" height="40"/>
  <object id="167" type="climbarea" x="600" y="280" width="40" height="40"/>
  <object id="92" type="climbarea" x="760" y="360" width="40" height="40"/>
  <object id="88" type="climbarea" x="680" y="360" width="40" height="40"/>
  <object id="96" type="climbarea" x="920" y="360" width="40" height="80"/>
 </objectgroup>
 <objectgroup color="#ff0000" id="17" name="paths">
  <object id="106" name="enemy" x="700" y="140">
   <polygon points="0,0 0,80 80,80 80,0"/>
  </object>
  <object id="154" name="enemy_2" x="700" y="300">
   <polygon points="0,0 0,80 80,80 80,0"/>
  </object>
  <object id="126" name="enemo" x="580" y="20">
   <polygon points="0,0 100,100 160,160 160,0 0,0"/>
  </object>
  <object id="159" name="enemy_4" x="1020" y="260">
   <polygon points="0,0 0,160 160,0"/>
  </object>
  <object id="168" name="enemy_3" x="860" y="300">
   <polygon points="0,0 0,120 80,120 80,0 0,0"/>
  </object>
  <object id="169" name="enemy_5" x="700" y="140">
   <polygon points="0,0 0,240 240,240 240,0"/>
  </object>
 </objectgroup>
 <objectgroup color="#ff00ff" id="3" name="objects_party">
  <object id="12" name="transition" x="-40" y="80" width="40" height="80">
   <properties>
    <property name="map" value="3_4th_sanctuary/fourth_sanctum_4"/>
    <property name="marker" value="entry2"/>
   </properties>
  </object>
  <object id="59" name="npc" x="320" y="560">
   <properties>
    <property name="actor" value="lobbyman"/>
    <property name="text1" value="* Are you at a [wait:15]loss,[wait:15] yet?"/>
   </properties>
   <point/>
  </object>
  <object id="61" name="cameratarget" x="-200" y="360" width="840" height="320">
   <properties>
    <property name="marker" value="targ"/>
    <property name="returntime" type="float" value="2"/>
    <property name="time" type="float" value="1"/>
   </properties>
  </object>
  <object id="67" name="transition" x="1920" y="480" width="40" height="120">
   <properties>
    <property name="map" value="3_4th_sanctuary/fourth_sanctum_6"/>
    <property name="marker" value="entry"/>
   </properties>
  </object>
  <object id="118" name="pathclimbenemy" x="680" y="160" width="40" height="40">
   <properties>
    <property name="path" value="enemy"/>
    <property name="speed" type="float" value="3.5"/>
   </properties>
  </object>
  <object id="119" name="pathclimbenemy" x="720" y="280" width="40" height="40">
   <properties>
    <property name="path" value="enemy_2"/>
    <property name="speed" type="float" value="4.5"/>
   </properties>
  </object>
  <object id="153" name="pathclimbenemy" x="720" y="80" width="40" height="40">
   <properties>
    <property name="path" value="enemo"/>
    <property name="speed" type="float" value="4"/>
   </properties>
  </object>
  <object id="171" name="pathclimbenemy" x="800" y="120" width="40" height="40">
   <properties>
    <property name="path" value="enemy_5"/>
    <property name="speed" type="float" value="2"/>
   </properties>
  </object>
  <object id="161" name="pathclimbenemy" x="1040" y="360" width="40" height="40">
   <properties>
    <property name="path" value="enemy_4"/>
    <property name="speed" type="float" value="4"/>
   </properties>
  </object>
  <object id="121" name="pathclimbenemy" x="880" y="400" width="40" height="40">
   <properties>
    <property name="path" value="enemy_3"/>
    <property name="progress" type="float" value="2.5"/>
    <property name="speed" type="float" value="5"/>
   </properties>
  </object>
  <object id="170" name="pathclimbenemy" x="800" y="360" width="40" height="40">
   <properties>
    <property name="path" value="enemy_5"/>
    <property name="progress" type="float" value="2.5"/>
    <property name="speed" type="float" value="2"/>
   </properties>
  </object>
  <object id="160" name="pathclimbenemy" x="1080" y="240" width="40" height="40">
   <properties>
    <property name="path" value="enemy_4"/>
    <property name="progress" type="float" value="2.5"/>
    <property name="speed" type="float" value="4"/>
   </properties>
  </object>
  <object id="190" name="npc" x="1864.67" y="264">
   <properties>
    <property name="actor" value="waferr"/>
    <property name="animation" value="right"/>
    <property name="text1" value="* So,[wait:5] there was a man..."/>
   </properties>
   <point/>
  </object>
  <object id="191" name="npc" x="1884.33" y="304">
   <properties>
    <property name="actor" value="waferr"/>
    <property name="animation" value="right"/>
    <property name="text1" value="* So,[wait:5] there was a monster..."/>
   </properties>
   <point/>
  </object>
  <object id="192" name="npc" x="1921.67" y="280">
   <properties>
    <property name="actor" value="waferr"/>
    <property name="animation" value="right"/>
    <property name="text1" value="* So,[wait:5] there was... [wait:5] Something?"/>
   </properties>
   <point/>
  </object>
  <object id="193" name="npc" x="440" y="380">
   <properties>
    <property name="actor" value="wafer"/>
    <property name="text1" value="* Who is this unholy, foolish morton over there?!"/>
    <property name="text2" value="* The devil,[wait:5] I'm telling you,[wait:5] the devil!"/>
   </properties>
   <point/>
  </object>
  <object id="210" name="climbentry" x="1120" y="320" width="40" height="40">
   <properties>
    <property name="target" type="object" value="211"/>
   </properties>
  </object>
  <object id="211" name="climbexit" x="1120" y="280" width="40" height="40">
   <properties>
    <property name="target" type="object" value="209"/>
   </properties>
  </object>
  <object id="212" name="climbentry" x="560" y="320" width="40" height="40">
   <properties>
    <property name="target" type="object" value="213"/>
   </properties>
  </object>
  <object id="213" name="climbexit" x="560" y="280" width="40" height="40">
   <properties>
    <property name="target" type="object" value="208"/>
   </properties>
  </object>
  <object id="216" name="climbentry" x="560" y="40" width="40" height="40">
   <properties>
    <property name="target" type="object" value="217"/>
   </properties>
  </object>
  <object id="217" name="climbexit" x="560" y="0" width="40" height="40">
   <properties>
    <property name="target" type="object" value="207"/>
   </properties>
  </object>
 </objectgroup>
 <layer id="7" name="Tile Layer 2" width="48" height="18">
  <data encoding="csv">
0,0,0,0,0,0,0,0,0,0,0,0,0,0,0,0,0,0,0,0,0,0,0,0,0,0,0,0,0,0,0,0,0,0,0,0,0,0,0,0,0,0,0,0,0,0,0,0,
0,0,0,0,0,0,0,0,0,0,0,0,0,0,0,0,0,0,0,0,0,0,0,0,0,0,0,0,0,0,0,0,0,0,0,0,0,0,0,0,0,0,0,0,0,0,0,0,
0,0,0,0,0,0,0,0,0,0,0,0,0,0,0,0,0,0,0,0,0,0,0,0,0,0,0,0,0,0,0,0,0,0,0,0,0,0,0,0,0,0,0,0,0,0,0,0,
0,0,0,0,0,0,0,0,0,0,0,0,0,0,0,0,0,0,0,0,0,0,0,0,0,0,0,0,0,0,0,0,0,0,0,0,0,0,0,0,0,0,0,0,0,0,0,0,
0,0,0,0,0,0,0,0,0,0,0,0,0,0,0,0,0,0,0,0,0,0,0,0,0,0,0,0,0,0,0,0,0,0,0,0,0,0,0,0,0,0,0,0,0,0,0,0,
0,0,0,0,0,0,0,0,0,0,0,0,0,0,0,0,0,0,0,0,0,0,0,0,0,0,0,0,0,0,0,0,0,0,0,0,0,0,0,0,0,0,0,0,0,0,0,0,
0,0,0,0,0,0,0,0,0,0,0,0,0,0,0,0,0,0,0,0,0,0,0,0,0,0,0,0,0,0,0,0,0,0,0,0,0,0,0,0,0,0,0,0,0,0,0,0,
0,0,0,0,0,0,0,0,0,0,0,0,0,0,0,0,0,0,0,0,0,0,0,0,0,0,0,0,0,0,0,0,0,0,0,0,0,0,0,0,0,0,0,0,0,0,0,0,
0,0,0,0,0,0,0,0,0,0,0,0,0,0,0,0,0,0,0,0,0,0,0,0,0,0,0,0,0,0,0,0,0,0,0,0,0,0,0,0,0,0,0,0,0,0,0,0,
0,0,0,0,0,0,0,0,0,0,0,0,0,0,0,0,0,0,0,0,0,0,0,0,0,0,0,0,0,0,0,0,0,0,0,0,0,541,580,581,582,541,580,581,582,541,580,581,
0,0,0,0,0,0,0,0,0,0,0,0,0,0,0,0,0,0,0,0,0,0,0,0,0,0,0,0,0,0,0,0,0,0,0,0,0,547,586,587,588,547,586,587,588,547,586,587,
0,0,0,0,0,0,0,0,0,0,0,0,0,0,0,0,0,0,0,0,0,0,0,0,0,0,0,0,0,0,0,0,0,0,0,0,0,553,598,599,600,553,598,599,600,553,598,599,
0,0,0,0,0,0,0,0,0,0,0,0,0,0,0,0,0,0,0,0,0,0,0,0,0,0,0,0,0,0,0,0,0,0,0,0,0,559,598,599,600,559,598,599,600,559,598,599,
0,0,0,0,0,0,0,0,0,0,0,0,0,0,0,0,0,0,0,0,0,0,0,0,0,0,0,0,0,0,0,0,0,0,0,0,0,559,604,605,606,559,604,605,606,559,604,605,
0,0,0,0,0,0,0,0,0,0,0,0,0,0,0,0,0,0,0,0,0,0,0,0,0,0,0,0,0,0,0,0,0,0,0,0,0,565,774,774,774,565,774,774,774,565,774,774,
0,0,0,0,0,0,0,0,0,0,0,0,0,0,0,0,0,0,0,0,0,0,0,0,0,0,0,0,0,0,0,0,0,0,0,0,0,0,0,0,0,0,0,0,0,0,0,0,
0,0,0,0,0,0,0,0,0,0,0,0,0,0,0,0,0,0,0,0,0,0,0,0,0,0,0,0,0,0,0,0,0,0,0,0,0,0,0,0,0,0,0,0,0,0,0,0,
0,0,0,0,0,0,0,0,0,0,0,0,0,0,0,0,0,0,0,0,0,0,0,0,0,0,0,0,0,0,0,0,0,0,0,0,0,0,0,0,0,0,0,0,0,0,0,0
</data>
 </layer>
 <objectgroup id="10" name="objects_lightarea" visible="0">
  <object id="31" name="highlight" x="1480" y="360" width="40" height="280"/>
  <object id="32" name="highlight" x="1640" y="360" width="40" height="280"/>
  <object id="33" name="highlight" x="1800" y="360" width="40" height="280"/>
  <object id="34" name="highlight" x="1520" y="560" width="120" height="40"/>
  <object id="35" name="highlight" x="1680" y="560" width="120" height="40"/>
  <object id="36" name="highlight" x="1840" y="560" width="80" height="40"/>
  <object id="37" gid="783" x="160" y="720" width="160" height="880">
   <properties>
    <property name="light" type="bool" value="true"/>
    <property name="light_alpha" type="float" value="0.1"/>
    <property name="light_color" type="color" value="#ffffffff"/>
    <property name="light_dust" type="bool" value="true"/>
    <property name="light_type" type="int" value="1"/>
   </properties>
  </object>
  <object id="40" gid="783" x="640" y="720" width="160" height="880">
   <properties>
    <property name="light" type="bool" value="true"/>
    <property name="light_alpha" type="float" value="0.1"/>
    <property name="light_color" type="color" value="#ffffffff"/>
    <property name="light_dust" type="bool" value="true"/>
    <property name="light_type" type="int" value="1"/>
   </properties>
  </object>
  <object id="42" gid="783" x="1120" y="720" width="160" height="880">
   <properties>
    <property name="light" type="bool" value="true"/>
    <property name="light_alpha" type="float" value="0.1"/>
    <property name="light_color" type="color" value="#ffffffff"/>
    <property name="light_dust" type="bool" value="true"/>
    <property name="light_type" type="int" value="1"/>
   </properties>
  </object>
  <object id="45" gid="783" x="1600" y="720" width="160" height="880">
   <properties>
    <property name="light" type="bool" value="true"/>
    <property name="light_alpha" type="float" value="0.1"/>
    <property name="light_color" type="color" value="#ffffffff"/>
    <property name="light_dust" type="bool" value="true"/>
    <property name="light_type" type="int" value="1"/>
   </properties>
  </object>
  <object id="66" name="darkness" x="120" y="0">
   <properties>
    <property name="alpha" type="float" value="0.2"/>
    <property name="highlight" type="bool" value="true"/>
   </properties>
   <point/>
  </object>
  <object id="70" gid="1073742607" x="160" y="1498" width="160" height="880">
   <properties>
    <property name="light" type="bool" value="true"/>
    <property name="light_alpha" type="float" value="0.1"/>
    <property name="light_color" type="color" value="#ffffffff"/>
    <property name="light_dust" type="bool" value="true"/>
    <property name="light_type" type="int" value="1"/>
   </properties>
  </object>
  <object id="71" gid="1073742607" x="640" y="1498" width="160" height="880">
   <properties>
    <property name="light" type="bool" value="true"/>
    <property name="light_alpha" type="float" value="0.1"/>
    <property name="light_color" type="color" value="#ffffffff"/>
    <property name="light_dust" type="bool" value="true"/>
    <property name="light_type" type="int" value="1"/>
   </properties>
  </object>
  <object id="72" gid="1073742607" x="1120" y="1498" width="160" height="880">
   <properties>
    <property name="light" type="bool" value="true"/>
    <property name="light_alpha" type="float" value="0.1"/>
    <property name="light_color" type="color" value="#ffffffff"/>
    <property name="light_dust" type="bool" value="true"/>
    <property name="light_type" type="int" value="1"/>
   </properties>
  </object>
  <object id="73" gid="1073742607" x="1600" y="1498" width="160" height="880">
   <properties>
    <property name="light" type="bool" value="true"/>
    <property name="light_alpha" type="float" value="0.1"/>
    <property name="light_color" type="color" value="#ffffffff"/>
    <property name="light_dust" type="bool" value="true"/>
    <property name="light_type" type="int" value="1"/>
   </properties>
  </object>
 </objectgroup>
 <objectgroup color="#55aaff" id="2" name="collision" visible="0">
  <object id="1" x="0" y="0" width="640" height="80"/>
  <object id="6" x="240" y="600" width="160" height="120"/>
  <object id="7" x="400" y="480" width="960" height="240"/>
  <object id="8" x="1360" y="0" width="560" height="200"/>
  <object id="9" x="1480" y="320" width="440" height="160"/>
  <object id="10" x="1360" y="600" width="560" height="120"/>
  <object id="68" x="1920" y="160" width="40" height="200"/>
  <object id="74" x="1080" y="0" width="280" height="360"/>
  <object id="78" x="0" y="170" width="640" height="190"/>
  <object id="103" x="640" y="0" width="440" height="480"/>
  <object id="195" x="0" y="440" width="240" height="280"/>
  <object id="196" x="-240" y="360" width="40" height="80"/>
  <object id="200" x="-200" y="320" width="200" height="40"/>
  <object id="201" x="-200" y="440" width="200" height="40"/>
 </objectgroup>
 <objectgroup id="6" name="objects_fog" visible="0">
  <object id="17" name="churchfog" x="40" y="0">
   <point/>
  </object>
 </objectgroup>
 <objectgroup id="5" name="objects_overlay" visible="0">
  <object id="13" name="texturescroller" x="80" y="0">
   <properties>
    <property name="type" value="hsv"/>
   </properties>
   <point/>
  </object>
  <object id="14" name="filter" x="0" y="0">
   <properties>
    <property name="type" value="hsv3"/>
   </properties>
   <point/>
  </object>
 </objectgroup>
</map>
