<?xml version="1.0" encoding="UTF-8"?>
<map version="1.11" tiledversion="1.12.2" orientation="orthogonal" renderorder="right-down" width="17" height="32" tilewidth="40" tileheight="40" infinite="0" nextlayerid="16" nextobjectid="56">
 <editorsettings>
  <export target="data.lua" format="lua"/>
 </editorsettings>
 <properties>
  <property name="border" value="church_d"/>
  <property name="music" value="tiling"/>
  <property name="name" value="Fourth Sanctuary - Precipice"/>
 </properties>
 <tileset firstgid="1" source="../../../tilesets/bg_dw_library_tileset_new.tsx"/>
 <tileset firstgid="831" source="../../../tilesets/church_objects.tsx"/>
 <objectgroup id="12" name="objects_bg2" visible="0" opacity="0.7" parallaxy="0.2">
  <object id="32" gid="832" x="520" y="800" width="200" height="1240">
   <properties>
    <property name="color" type="color" value="#ff6f6f6f"/>
   </properties>
  </object>
 </objectgroup>
 <objectgroup id="11" name="objects_bg" visible="0" parallaxy="0.4">
  <object id="30" gid="923" x="-60" y="890" width="400" height="578"/>
  <object id="31" gid="923" x="340" y="890" width="400" height="578"/>
 </objectgroup>
 <layer id="1" name="Tile Layer 1" width="17" height="32">
  <data encoding="csv">
0,0,0,0,0,0,0,0,0,0,0,0,0,0,0,0,0,
0,0,745,746,746,746,746,746,746,746,746,746,746,746,747,0,0,
0,0,755,717,717,717,717,717,717,717,717,717,717,717,757,0,0,
0,0,755,717,717,717,717,717,717,717,717,717,717,717,757,0,0,
0,0,755,717,717,717,717,717,717,717,717,717,717,717,757,0,0,
0,0,755,717,717,717,717,717,717,717,717,717,717,717,757,0,0,
0,0,755,717,717,717,717,717,717,717,717,717,717,717,757,0,0,
0,0,755,717,717,717,717,717,717,717,717,717,717,717,757,0,0,
0,0,755,717,717,717,717,717,717,717,717,717,717,717,757,0,0,
0,0,755,717,717,717,717,717,717,717,717,717,717,717,757,0,0,
0,0,755,717,717,717,717,717,717,717,717,717,717,717,757,0,0,
0,0,755,717,717,717,717,717,717,717,717,717,717,717,757,0,0,
0,0,755,717,717,717,717,717,717,717,717,717,717,717,757,0,0,
0,0,755,717,717,717,717,717,717,717,717,717,717,717,757,0,0,
0,0,755,717,717,717,717,717,717,717,717,717,717,717,757,0,0,
0,0,755,717,717,717,717,717,717,717,717,717,717,717,757,0,0,
0,0,755,717,717,717,717,717,717,717,717,717,717,717,757,0,0,
0,0,755,717,717,717,717,717,717,717,717,717,717,717,757,0,0,
0,0,799,800,799,800,717,717,717,717,717,799,800,799,800,0,0,
0,0,809,810,809,810,717,717,717,717,717,809,810,809,810,0,0,
0,0,819,820,819,820,717,717,717,717,717,819,820,819,820,0,0,
0,0,755,717,717,717,717,717,717,717,717,717,717,717,757,0,0,
0,0,755,717,717,717,717,717,717,717,717,717,717,717,757,0,0,
0,0,755,717,717,717,717,717,717,717,717,717,717,717,757,0,0,
0,0,755,717,717,717,717,717,717,717,717,717,717,717,757,0,0,
0,0,765,755,717,717,717,717,717,717,717,717,717,757,767,0,0,
0,0,0,765,755,717,717,717,717,717,717,717,757,767,0,0,0,
0,0,0,0,755,717,717,717,717,717,717,717,757,0,0,0,0,
0,0,0,0,765,755,717,717,717,717,717,757,767,0,0,0,0,
0,0,0,0,0,765,766,755,717,757,766,767,0,0,0,0,0,
0,0,0,0,0,0,0,755,717,757,0,0,0,0,0,0,0,
0,0,0,0,0,0,0,755,717,757,0,0,0,0,0,0,0
</data>
 </layer>
 <layer id="5" name="Tile Layer 2" width="17" height="32">
  <data encoding="csv">
0,0,0,0,0,0,0,0,0,0,0,0,0,0,0,0,0,
0,0,0,0,0,0,0,0,0,0,0,0,0,0,0,0,0,
0,0,0,0,0,0,0,0,0,0,0,0,0,0,0,0,0,
0,0,0,0,0,0,0,0,0,0,0,0,0,0,0,0,0,
0,0,0,0,0,0,0,0,0,0,0,0,0,0,0,0,0,
0,0,0,0,0,0,0,0,0,0,0,0,0,0,0,0,0,
0,0,0,0,0,0,0,0,0,0,0,0,0,0,0,0,0,
0,0,745,746,746,746,747,0,0,0,745,746,746,746,747,0,0,
0,0,766,766,766,766,767,0,0,0,766,766,766,766,767,0,0,
0,0,799,800,799,800,771,0,0,0,771,799,800,799,800,0,0,
0,0,809,810,809,810,821,0,0,0,821,809,810,809,810,0,0,
0,0,819,820,819,820,811,0,0,0,811,819,820,819,820,0,0,
0,0,0,0,0,551,0,0,0,0,0,0,0,0,0,0,0,
0,0,0,0,571,0,0,561,0,0,0,0,0,0,0,0,0,
0,0,0,0,0,0,0,0,0,0,0,0,0,0,0,0,0,
0,0,0,0,0,0,0,0,0,0,0,0,0,0,0,0,0,
0,0,0,0,0,0,750,0,552,0,750,0,0,0,0,0,0,
0,0,0,0,0,0,760,0,0,0,760,0,0,0,0,0,0,
0,0,0,0,0,0,791,0,793,0,791,0,0,0,0,0,0,
0,0,0,0,0,0,801,551,803,0,801,0,0,0,0,0,0,
0,0,0,0,0,0,811,0,813,0,811,0,0,0,0,0,0,
0,0,0,0,0,0,0,0,0,0,0,0,0,0,0,0,0,
0,0,0,0,0,561,0,0,0,0,0,0,0,563,0,0,0,
0,0,0,0,0,0,0,0,0,0,0,0,0,0,0,0,0,
0,0,0,0,0,0,0,0,0,0,0,0,0,0,0,0,0,
0,0,0,0,0,0,0,0,0,0,0,552,0,0,0,0,0,
0,0,0,0,0,0,561,0,0,0,0,0,0,0,0,0,0,
0,0,0,0,0,0,0,0,0,0,0,0,0,0,0,0,0,
0,0,0,0,0,0,0,0,0,0,0,0,0,0,0,0,0,
0,0,0,0,750,0,0,0,0,0,0,0,750,0,0,0,0,
0,0,0,0,760,0,0,0,0,0,0,0,760,0,0,0,0,
0,0,0,0,801,0,0,0,0,0,0,0,801,0,0,0,0
</data>
 </layer>
 <objectgroup id="15" name="objects_under_party">
  <object id="49" name="churchmagicglass" x="600" y="80" width="80" height="80">
   <properties>
    <property name="hiddenalpha" type="float" value="0.01"/>
    <property name="idlealpha" type="float" value="0.01"/>
    <property name="starthidden" type="bool" value="false"/>
   </properties>
  </object>
 </objectgroup>
 <objectgroup id="2" name="objects_party">
  <object id="23" name="chest" x="120" y="680" width="40" height="40">
   <properties>
    <property name="item" value="tensionband"/>
   </properties>
  </object>
  <object id="27" name="transition" x="280" y="1280" width="120" height="40">
   <properties>
    <property name="map" value="3_4th_sanctuary/fourth_sanctum_10"/>
    <property name="marker" value="entry2"/>
   </properties>
  </object>
  <object id="39" name="npc" x="340" y="140">
   <properties>
    <property name="actor" value="cultist1"/>
    <property name="flagcheck" value="!fought_apathy"/>
    <property name="sprite" value="walk/up"/>
    <property name="text1_1" value="* (...)"/>
    <property name="text2_1" value="* (Red robes.)"/>
    <property name="text3_1" value="* (No longer of interest.)"/>
   </properties>
   <point/>
  </object>
  <object id="45" name="script" x="280" y="440" width="120" height="40">
   <properties>
    <property name="cutscene" value="primary.apathy_intro"/>
   </properties>
  </object>
  <object id="50" name="transition" x="680" y="80" width="40" height="80">
   <properties>
    <property name="flagcheck" value="fought_apathy"/>
    <property name="map" value="3_4th_sanctuary/fourth_sanctum_12_final"/>
    <property name="marker" value="entry"/>
   </properties>
  </object>
  <object id="55" name="savepoint" x="160" y="920">
   <properties>
    <property name="text1" value="* (That same sense of finality came back.)"/>
    <property name="text2" value="* (This time, [wait:5]with a layer of dread.)"/>
    <property name="text3" value="* (The power of persistence even in utmost danger shines within.)"/>
   </properties>
  </object>
 </objectgroup>
 <objectgroup id="10" name="markers">
  <object id="28" name="entry" x="340" y="1230">
   <point/>
  </object>
  <object id="29" name="spawn" x="340" y="990">
   <point/>
  </object>
  <object id="40" name="r_hide" x="160" y="500">
   <point/>
  </object>
  <object id="41" name="j_hide" x="130" y="510">
   <point/>
  </object>
  <object id="42" name="k_hide" x="160" y="530">
   <point/>
  </object>
  <object id="43" name="s_hide" x="190" y="510">
   <point/>
  </object>
  <object id="44" name="path1" x="340" y="530">
   <point/>
  </object>
  <object id="52" name="plorgentry" x="640" y="120">
   <point/>
  </object>
 </objectgroup>
 <objectgroup id="14" name="objects_onefuckingbalthizard">
  <object id="36" name="enemy" x="530" y="710">
   <properties>
    <property name="actor" value="balthizard"/>
    <property name="chase" type="bool" value="false"/>
    <property name="encounter" value="singular_balthizard"/>
   </properties>
  </object>
 </objectgroup>
 <layer id="6" name="Tile Layer 3" width="17" height="32">
  <data encoding="csv">
0,0,0,0,0,0,0,0,0,0,0,0,0,0,0,0,0,
0,0,0,0,0,0,0,0,0,0,0,0,0,0,0,0,0,
0,0,0,0,0,0,0,0,0,0,0,0,0,0,0,0,0,
0,0,0,0,0,0,0,0,0,0,0,0,0,0,0,0,0,
0,0,0,0,0,0,0,0,0,0,0,0,0,0,0,0,0,
0,0,0,0,0,0,0,0,0,0,0,0,0,0,0,0,0,
0,0,0,0,0,0,0,0,0,0,0,0,0,0,0,0,0,
0,0,0,0,0,0,0,0,0,0,0,0,0,0,0,0,0,
0,0,0,0,0,0,0,0,0,0,0,0,0,0,0,0,0,
0,0,0,0,0,0,0,0,0,0,0,0,0,0,0,0,0,
0,0,0,0,0,0,0,0,0,0,0,0,0,0,0,0,0,
0,0,0,0,0,0,0,0,0,0,0,0,0,0,0,0,0,
0,0,0,0,0,0,0,0,0,0,0,0,0,0,0,0,0,
0,0,745,746,746,746,746,746,746,746,746,746,746,746,747,0,0,
0,0,755,756,756,756,756,756,756,756,756,756,756,756,757,0,0,
0,0,765,766,766,766,766,766,766,766,766,766,766,766,767,0,0,
0,0,779,780,779,780,0,0,0,0,0,779,780,779,780,0,0,
0,0,789,790,789,790,0,0,0,0,0,789,790,789,790,0,0,
0,0,0,0,0,0,0,0,0,0,0,0,0,0,0,0,0,
0,0,0,0,0,0,0,0,0,0,0,0,0,0,0,0,0,
0,0,0,0,0,0,0,0,0,0,0,0,0,0,0,0,0,
0,0,0,0,0,0,0,0,0,0,0,0,0,0,0,0,0,
0,0,0,0,0,0,0,0,0,0,0,0,0,0,0,0,0,
0,0,0,0,0,0,0,0,0,0,0,0,0,0,0,0,0,
0,0,0,0,0,0,0,0,0,0,0,0,0,0,0,0,0,
0,0,0,0,0,0,0,0,0,0,0,0,0,0,0,0,0,
0,0,0,0,0,0,0,0,0,0,0,0,0,0,0,0,0,
0,0,0,0,0,0,0,0,0,0,0,0,0,0,0,0,0,
0,0,0,0,0,0,0,0,0,0,0,0,0,0,0,0,0,
0,0,0,0,0,0,0,0,0,0,0,0,0,0,0,0,0,
0,0,0,0,0,0,0,0,0,0,0,0,0,0,0,0,0,
0,0,0,0,0,0,0,0,0,0,0,0,0,0,0,0,0
</data>
 </layer>
 <objectgroup id="13" name="objects_over_party">
  <object id="33" name="highlight" x="80" y="550" width="160" height="170"/>
  <object id="35" name="highlight" x="240" y="550" width="200" height="90"/>
 </objectgroup>
 <objectgroup color="#ff0000" id="4" name="collision">
  <object id="2" x="200" y="1160" width="80" height="200"/>
  <object id="3" x="400" y="1160" width="80" height="200"/>
  <object id="4" x="200" y="1160">
   <polygon points="0,0 0,-40 -40,-40 -40,-120 -80,-120 -80,-160 -120,-160 -120,0"/>
  </object>
  <object id="5" x="480" y="1160">
   <polygon points="0,0 0,-40 40,-40 40,-120 80,-120 80,-160 120,-160 120,0"/>
  </object>
  <object id="6" x="80" y="40" width="600" height="40"/>
  <object id="7" x="40" y="40" width="40" height="960"/>
  <object id="8" x="600" y="160" width="40" height="880"/>
  <object id="16" x="240" y="640" width="40" height="200"/>
  <object id="17" x="400" y="640" width="40" height="200"/>
  <object id="19" x="440" y="720" width="160" height="120"/>
  <object id="20" x="80" y="720" width="160" height="120"/>
  <object id="37" x="63.75" y="310" width="212.5" height="170"/>
  <object id="38" x="403.75" y="310" width="212.5" height="170"/>
  <object id="46" x="640" y="160" width="40" height="40"/>
 </objectgroup>
 <objectgroup id="3" name="objects_cameratarget" visible="0" locked="1">
  <object id="1" name="cameratarget" x="0" y="0" width="680" height="1280">
   <properties>
    <property name="lockx" type="bool" value="true"/>
    <property name="locky" type="bool" value="false"/>
    <property name="target_x" type="int" value="340"/>
    <property name="time" type="float" value="1e-07"/>
   </properties>
  </object>
 </objectgroup>
 <objectgroup id="9" name="objects_top">
  <object id="25" name="churchfog" x="-36.6667" y="609.333">
   <point/>
  </object>
  <object id="26" name="filter" x="3.33333" y="609.333">
   <properties>
    <property name="type" value="hsv3"/>
   </properties>
   <point/>
  </object>
 </objectgroup>
</map>
