<?xml version="1.0" encoding="UTF-8"?>
<map version="1.11" tiledversion="1.12.2" orientation="orthogonal" renderorder="right-down" width="27" height="48" tilewidth="40" tileheight="40" infinite="0" nextlayerid="12" nextobjectid="166">
 <editorsettings>
  <export target="data.lua" format="lua"/>
 </editorsettings>
 <properties>
  <property name="border" value="blank"/>
  <property name="music" value="fast-travel"/>
  <property name="name" value="??? - Fast Travel"/>
 </properties>
 <tileset firstgid="1" source="../../../tilesets/bg_dw_church_library_2_tileset.tsx"/>
 <tileset firstgid="261" source="../../../tilesets/church_objects.tsx"/>
 <tileset firstgid="371" source="../../../tilesets/light_areas.tsx"/>
 <tileset firstgid="381" source="../../../tilesets/tiles_moss.tsx"/>
 <tileset firstgid="383" source="../../../tilesets/bg_dw_church_tileset_new.tsx"/>
 <tileset firstgid="965" source="../../../tilesets/fast_travel_doors.tsx"/>
 <tileset firstgid="975" source="../../../tilesets/bg_dw_church_2_tileset.tsx"/>
 <tileset firstgid="1173" source="../../../tilesets/bg_dw_dither_overlay_tileset.tsx"/>
 <layer id="9" name="tile_osc_optimize" width="27" height="48" locked="1">
  <data encoding="csv">
0,0,0,0,0,0,0,0,0,0,0,0,0,0,0,0,0,0,0,0,0,0,0,0,0,0,0,
0,0,0,0,0,0,0,0,0,0,0,0,0,0,0,0,0,0,0,0,0,0,0,0,0,0,0,
0,0,0,0,0,0,0,0,0,0,0,0,0,0,0,0,0,0,0,0,0,0,0,0,0,0,0,
0,0,0,0,0,0,0,0,0,0,0,0,0,0,0,0,0,0,0,0,0,0,0,0,0,0,0,
0,0,0,0,0,0,0,0,0,0,0,0,0,0,0,0,0,0,0,0,0,0,0,0,0,0,0,
0,0,0,0,0,0,0,0,0,0,0,0,0,0,0,260,0,0,0,0,0,0,0,0,0,0,0,
0,0,0,0,0,0,0,0,0,0,0,0,0,0,0,0,260,0,0,0,0,0,0,0,0,0,0,
0,0,0,0,0,0,0,0,0,0,0,0,0,260,0,0,0,0,0,0,0,0,0,0,0,0,0,
0,0,0,0,0,0,0,0,0,0,0,0,0,0,0,0,0,0,0,0,0,0,0,0,0,0,0,
0,0,0,0,0,0,0,0,0,0,0,0,0,0,0,0,0,0,0,0,0,0,0,0,0,0,0,
0,0,0,0,0,0,0,0,0,0,0,0,0,0,260,0,0,0,0,0,0,0,0,0,0,0,0,
0,0,0,0,0,0,0,0,0,0,0,0,0,260,260,260,0,0,0,0,0,0,0,0,0,0,0,
0,0,0,0,0,0,0,0,0,0,0,0,0,260,0,0,0,0,0,0,0,0,0,0,0,0,0,
0,0,0,0,0,0,0,0,0,0,0,0,0,0,483,0,260,0,0,0,0,0,0,0,0,0,0,
0,0,0,0,0,0,0,0,0,0,0,0,0,0,260,0,0,0,0,0,0,0,0,0,0,0,0,
0,0,0,0,0,0,0,0,0,0,0,0,0,260,260,260,0,0,0,0,0,0,0,0,0,0,0,
0,0,0,0,0,0,0,0,0,0,0,0,0,260,260,260,260,0,0,0,0,0,0,0,0,0,0,
0,0,0,0,0,0,0,0,0,0,0,0,0,260,0,0,0,0,0,0,0,0,0,0,0,0,0,
0,0,0,0,0,0,0,0,0,0,0,0,0,0,0,260,0,0,0,0,0,0,0,0,0,0,0,
0,0,0,0,0,0,0,0,0,0,0,0,0,0,0,0,260,0,0,0,0,0,0,0,0,0,0,
0,0,0,0,0,0,0,0,0,0,0,0,0,0,260,260,260,0,0,0,0,0,0,0,0,0,0,
0,0,0,0,0,0,0,0,0,0,0,0,0,0,0,260,260,0,0,0,0,0,0,0,0,0,0,
0,0,0,0,0,0,0,0,0,0,0,0,0,0,0,0,260,0,0,0,0,0,0,0,0,0,0,
0,0,0,0,0,0,0,0,0,0,0,0,0,260,0,0,260,0,0,0,0,0,0,0,0,0,0,
0,0,0,0,0,0,0,0,0,0,0,0,260,260,260,0,0,0,260,260,0,0,0,0,0,0,0,
0,0,0,0,0,0,260,260,260,260,260,260,260,260,260,0,0,260,260,260,0,0,0,0,0,0,0,
0,0,0,0,0,0,0,0,0,0,0,0,0,0,0,0,0,0,0,0,0,0,0,0,0,0,0,
0,0,0,0,0,0,0,0,0,0,0,0,0,0,0,260,260,0,0,0,0,0,0,0,0,0,0,
0,0,0,0,0,0,0,0,0,0,0,0,0,0,0,260,0,0,0,0,0,0,0,0,0,0,0,
0,0,0,0,0,0,0,0,0,0,0,0,0,0,0,0,0,0,0,0,0,0,0,0,0,0,0,
0,0,0,0,0,0,0,0,0,0,0,0,0,0,0,0,0,0,0,0,0,0,0,0,0,0,0,
0,0,0,0,0,0,0,0,0,0,0,0,0,0,0,0,0,0,0,0,0,0,0,0,0,0,0,
0,0,0,0,0,0,0,0,0,0,0,260,260,260,0,0,0,0,0,0,0,0,0,0,0,0,0,
0,0,0,0,0,0,0,0,0,0,0,0,0,0,0,0,0,0,260,260,260,260,260,260,260,0,0,
0,0,0,0,0,0,0,0,0,0,0,0,0,0,0,0,0,0,0,0,0,0,0,0,0,0,0,
0,0,0,0,0,0,0,0,0,0,0,0,0,0,0,0,0,0,0,0,0,0,0,0,0,0,0,
0,0,0,0,0,0,0,0,0,0,0,0,0,0,0,0,0,0,0,0,0,0,0,0,0,0,0,
0,0,0,0,0,0,0,0,0,0,0,0,0,0,0,260,260,0,0,0,0,0,0,0,0,0,0,
0,0,0,0,0,0,0,0,0,0,0,0,0,260,260,260,0,0,0,0,0,0,0,0,0,0,0,
0,0,0,0,0,0,0,0,0,0,0,0,0,0,0,0,0,0,0,0,0,0,0,0,0,0,0,
0,0,0,0,0,0,0,0,260,260,260,0,0,0,0,0,0,0,0,0,0,0,260,260,260,0,0,
0,0,0,0,260,260,0,0,0,0,0,0,0,0,0,0,0,0,0,0,0,0,0,0,0,0,0,
0,0,0,0,0,0,0,0,0,0,0,0,0,0,0,0,0,0,0,0,0,0,0,0,0,0,0,
0,0,0,0,0,0,0,0,0,0,0,0,0,0,0,0,0,0,0,0,0,0,0,0,0,0,0,
0,0,0,0,0,0,0,0,0,0,0,0,0,0,260,260,0,0,0,0,0,0,0,0,0,0,0,
0,0,0,0,0,0,0,0,0,0,0,0,0,0,0,260,0,0,0,0,0,0,0,0,0,0,0,
0,0,0,0,0,0,0,0,0,0,0,0,0,0,260,0,0,0,0,0,0,0,0,0,0,0,0,
0,0,0,0,0,0,0,0,0,0,0,0,0,0,0,0,0,0,0,0,0,0,0,0,0,0,0
</data>
 </layer>
 <objectgroup id="10" name="objects_tile_oscillate" locked="1">
  <object id="98" name="tile_oscillate" x="200" y="1280" width="320" height="80">
   <properties>
    <property name="type" value="library"/>
   </properties>
  </object>
  <object id="99" name="tile_oscillate" x="520" y="0" width="160" height="1920">
   <properties>
    <property name="type" value="library"/>
   </properties>
  </object>
  <object id="100" name="tile_oscillate" x="680" y="1280" width="360" height="80">
   <properties>
    <property name="type" value="library"/>
   </properties>
  </object>
  <object id="101" name="tile_oscillate" x="40" y="1600" width="480" height="80">
   <properties>
    <property name="type" value="library"/>
   </properties>
  </object>
  <object id="102" name="tile_oscillate" x="680" y="1600" width="360" height="80">
   <properties>
    <property name="type" value="library"/>
   </properties>
  </object>
  <object id="103" name="texturescroller" x="0" y="0">
   <properties>
    <property name="base_tex" value="backgrounds/glow_purple_tile_oscillate"/>
    <property name="scroll_tex" value="backgrounds/perlin_noise_purple_looping"/>
    <property name="type" value="library"/>
   </properties>
   <point/>
  </object>
 </objectgroup>
 <layer id="1" name="Tile Layer 1" width="27" height="48">
  <data encoding="csv">
0,0,0,0,0,0,0,0,0,0,0,0,0,171,173,163,174,0,0,0,0,0,0,0,0,0,0,
0,0,0,0,0,0,0,0,0,0,0,0,0,171,162,173,174,0,0,0,0,0,0,0,0,0,0,
0,0,0,0,0,0,0,0,0,0,0,0,0,171,173,172,174,0,0,0,0,0,0,0,0,0,0,
0,0,0,0,0,0,0,0,0,0,0,0,0,171,163,173,174,0,0,0,0,0,0,0,0,0,0,
0,0,0,0,0,0,0,0,0,0,0,0,0,171,163,173,174,0,0,0,0,0,0,0,0,0,0,
0,0,0,0,0,0,0,0,0,0,0,0,0,171,173,188,174,0,0,0,0,0,0,0,0,0,0,
0,0,0,0,0,0,0,0,0,0,0,0,0,171,173,173,174,0,0,0,0,0,0,0,0,0,0,
0,0,0,0,0,0,0,0,0,0,0,0,0,171,173,173,174,0,0,0,0,0,0,0,0,0,0,
0,0,0,0,0,0,0,0,0,0,0,0,0,171,173,173,174,0,0,0,0,0,0,0,0,0,0,
0,0,0,0,0,0,0,0,0,0,0,0,0,171,173,173,174,0,0,0,0,0,0,0,0,0,0,
0,0,0,0,0,0,0,0,0,0,0,0,0,171,219,173,174,0,0,0,0,0,0,0,0,0,0,
0,0,0,0,0,0,0,0,0,0,0,0,0,171,199,209,174,0,0,0,0,0,0,0,0,0,0,
0,0,0,0,0,0,0,0,0,0,0,0,0,191,173,173,174,0,0,0,0,0,0,0,0,0,0,
0,0,0,0,0,0,0,0,0,0,0,0,0,171,173,173,184,0,0,0,0,0,0,0,0,0,0,
0,0,0,0,0,0,0,0,0,0,0,0,0,171,218,173,174,0,0,0,0,0,0,0,0,0,0,
0,0,0,0,0,0,0,0,0,0,0,0,0,171,199,208,174,0,0,0,0,0,0,0,0,0,0,
0,0,0,0,0,0,0,0,0,0,0,0,0,171,199,199,174,0,0,0,0,0,0,0,0,0,0,
0,0,0,0,0,0,0,0,0,0,0,0,0,171,173,173,174,0,0,0,0,0,0,0,0,0,0,
0,0,0,0,0,0,0,0,0,0,0,0,0,171,173,209,174,0,0,0,0,0,0,0,0,0,0,
0,0,0,0,0,0,0,0,0,0,0,0,0,171,182,173,174,0,0,0,0,0,0,0,0,0,0,
0,0,0,0,0,0,0,0,0,0,0,0,0,171,199,199,174,0,0,0,0,0,0,0,0,0,0,
0,0,0,0,0,0,0,0,0,0,0,0,0,171,173,188,174,0,0,0,0,0,0,0,0,0,0,
0,0,0,0,0,0,0,0,0,0,0,0,0,171,173,173,194,0,0,0,0,0,0,0,0,0,0,
0,0,0,0,0,201,202,202,202,202,202,202,203,171,173,173,174,202,202,202,203,0,0,0,0,0,0,
0,0,0,0,0,171,173,173,173,173,173,173,199,189,199,173,173,173,212,163,174,0,0,0,0,0,0,
0,0,0,0,0,171,199,199,219,199,199,162,173,163,198,173,173,199,199,208,174,0,0,0,0,0,0,
0,0,0,0,0,221,222,222,222,222,222,222,223,171,173,173,174,222,222,222,223,0,0,0,0,0,0,
0,0,0,0,0,0,0,0,0,0,0,0,0,171,173,209,174,0,0,0,0,0,0,0,0,0,0,
0,0,0,0,0,0,0,0,0,0,0,0,0,171,173,199,174,0,0,0,0,0,0,0,0,0,0,
0,0,0,0,0,0,0,0,0,0,0,0,0,171,173,173,174,0,0,0,0,0,0,0,0,0,0,
0,0,0,0,0,0,0,0,0,0,0,0,0,171,173,193,174,0,0,0,0,0,0,0,0,0,0,
0,0,0,0,0,201,202,202,202,202,202,202,203,171,173,173,174,202,202,202,202,202,202,202,202,203,0,
0,0,0,0,0,171,173,173,163,173,173,199,199,189,162,173,173,163,173,173,173,173,173,212,163,174,0,
0,0,0,0,0,171,173,173,173,173,173,192,173,163,173,173,173,173,219,199,199,199,199,199,208,174,0,
0,0,0,0,0,221,222,222,222,222,222,222,223,171,173,173,174,221,222,222,222,222,222,222,222,223,0,
0,0,0,0,0,0,0,0,0,0,0,0,0,171,163,173,174,0,0,0,0,0,0,0,0,0,0,
0,0,0,0,0,0,0,0,0,0,0,0,0,171,173,182,174,0,0,0,0,0,0,0,0,0,0,
0,0,0,0,0,0,0,0,0,0,0,0,0,171,173,199,174,0,0,0,0,0,0,0,0,0,0,
0,0,1167,0,0,0,0,0,0,0,0,0,0,181,199,199,174,0,0,0,0,0,0,0,0,0,0,
0,201,202,202,202,202,202,202,202,202,202,202,203,171,173,173,174,202,202,202,202,202,202,202,202,203,0,
0,171,173,173,173,173,173,173,189,199,199,173,173,163,173,173,173,163,173,173,173,173,199,198,189,174,0,
0,171,173,173,219,199,173,173,173,173,173,192,173,163,212,173,173,173,193,173,173,173,173,173,182,174,0,
0,221,222,222,222,222,222,222,222,222,222,222,223,171,173,173,174,221,222,222,222,222,222,222,222,223,0,
0,12,13,13,13,13,13,13,13,13,13,13,14,171,173,173,184,12,13,13,13,13,13,13,13,24,0,
0,12,23,23,23,23,23,23,23,23,23,13,14,171,208,188,174,12,23,23,23,23,23,23,23,24,0,
0,12,13,13,13,13,13,13,13,13,13,13,14,171,173,199,174,12,13,13,13,13,13,13,13,24,0,
0,12,13,13,23,23,23,23,23,23,23,23,14,191,199,173,174,12,13,13,23,23,23,23,23,24,0,
0,12,23,23,23,23,23,23,23,23,23,23,14,171,173,173,174,12,23,23,23,23,23,23,23,24,0
</data>
 </layer>
 <layer id="8" name="decal" width="27" height="48">
  <data encoding="csv">
0,0,0,0,0,0,0,0,0,0,0,0,0,0,0,0,0,0,0,0,0,0,0,0,0,0,0,
0,0,0,0,0,0,0,0,0,0,0,0,0,0,0,0,0,0,0,0,0,0,0,0,0,0,0,
0,0,0,0,0,0,0,0,0,0,0,0,0,0,0,0,0,0,0,0,0,0,0,0,0,0,0,
0,0,0,0,0,0,0,0,0,0,0,0,0,0,0,0,0,0,0,0,0,0,0,0,0,0,0,
0,0,0,0,0,0,0,0,0,0,0,0,0,0,0,0,0,0,0,0,0,0,0,0,0,0,0,
0,0,0,0,0,0,0,0,0,0,0,0,0,0,0,0,0,0,0,0,0,0,0,0,0,0,0,
0,0,0,0,0,0,0,0,0,0,0,0,0,0,0,0,0,0,0,0,0,0,0,0,0,0,0,
0,0,0,0,0,0,0,0,0,0,0,0,0,0,0,0,0,0,0,0,0,0,0,0,0,0,0,
0,0,0,0,0,0,0,0,0,0,0,0,0,0,0,0,0,0,0,0,0,0,0,0,0,0,0,
0,0,0,0,0,0,0,0,0,0,0,0,0,0,0,0,0,0,0,0,0,0,0,0,0,0,0,
0,0,0,0,0,0,0,0,0,0,0,0,0,0,0,0,0,0,0,0,0,0,0,0,0,0,0,
0,0,0,0,0,0,0,0,0,0,0,0,0,0,0,0,0,0,0,0,0,0,0,0,0,0,0,
0,0,0,0,0,0,0,0,0,0,0,0,0,0,0,0,0,0,0,0,0,0,0,0,0,0,0,
0,0,0,0,0,0,0,0,0,0,0,0,0,0,0,0,0,0,0,0,0,0,0,0,0,0,0,
0,0,0,0,0,0,0,0,0,0,0,0,0,0,0,0,0,0,0,0,0,0,0,0,0,0,0,
0,0,0,0,0,0,0,0,0,0,0,0,0,0,0,0,0,0,0,0,0,0,0,0,0,0,0,
0,0,0,0,0,0,0,0,0,0,0,0,0,0,0,0,0,0,0,0,0,0,0,0,0,0,0,
0,0,0,0,0,0,0,0,0,0,0,0,0,0,0,0,0,0,0,0,0,0,0,0,0,0,0,
0,0,0,0,0,0,0,0,0,0,0,0,0,0,0,0,0,0,0,0,0,0,0,0,0,0,0,
0,0,0,0,0,0,0,0,0,0,0,0,0,0,0,0,0,0,0,0,0,0,0,0,0,0,0,
0,0,0,0,0,0,0,0,0,0,0,0,0,0,0,0,0,0,0,0,0,0,0,0,0,0,0,
0,0,0,0,0,0,0,0,0,0,0,0,0,0,0,0,0,0,0,0,0,0,0,0,0,0,0,
0,0,0,0,0,0,0,0,0,0,0,0,0,0,0,0,0,0,0,0,0,0,0,0,0,0,0,
0,0,0,0,0,0,0,0,0,0,0,0,0,0,0,0,0,0,0,0,0,0,0,0,0,0,0,
0,0,0,0,0,0,0,0,0,0,0,0,0,0,0,0,0,0,0,0,0,0,0,0,0,0,0,
0,0,0,0,0,0,0,0,0,0,0,0,0,0,0,0,0,0,0,0,0,0,0,0,0,0,0,
0,0,0,0,0,0,0,0,0,0,0,0,0,0,0,0,0,0,0,0,0,0,0,0,0,0,0,
0,0,0,0,0,0,0,0,0,0,0,0,0,0,0,0,0,0,0,0,0,0,0,0,0,0,0,
0,0,0,0,0,0,0,0,0,0,0,0,0,0,0,0,0,0,0,0,0,0,0,0,0,0,0,
0,0,0,0,0,0,0,0,0,0,0,0,0,0,0,0,0,0,0,0,0,0,0,0,0,0,0,
0,0,0,0,0,0,0,0,0,0,0,0,0,0,0,0,0,0,0,0,0,0,0,0,0,0,0,
0,0,0,0,0,0,0,0,0,0,0,0,0,0,0,0,0,0,0,0,0,0,0,0,0,0,0,
0,0,0,0,0,0,0,0,0,0,0,0,0,0,0,0,0,0,0,0,0,0,0,0,0,0,0,
0,0,0,0,0,0,0,0,0,0,0,0,0,0,0,0,0,0,0,0,0,0,0,0,0,0,0,
0,0,0,0,0,0,0,0,0,0,0,0,0,0,0,0,0,0,0,0,0,0,0,0,0,0,0,
0,0,0,0,0,0,0,0,0,0,0,0,0,0,0,0,0,0,0,0,0,0,0,0,0,0,0,
0,0,0,0,0,0,0,0,0,0,0,0,0,0,0,0,0,0,0,0,0,0,0,0,0,0,0,
0,0,0,0,0,0,0,0,0,0,0,0,0,0,0,0,0,0,0,0,0,0,0,0,0,0,0,
0,0,0,0,0,0,0,0,0,0,0,0,0,0,0,101,0,0,0,0,0,0,0,0,0,0,0,
0,0,0,0,0,0,0,0,0,0,0,0,0,0,81,0,0,0,0,0,0,0,0,0,0,0,0,
0,0,0,0,91,0,0,0,0,0,0,0,0,0,0,0,0,91,0,0,0,0,0,82,0,0,0,
0,0,0,82,0,0,0,0,101,0,0,0,0,0,0,0,0,0,0,0,0,0,0,0,101,0,0,
0,0,0,0,0,0,0,0,0,0,0,0,0,0,0,0,0,0,0,0,0,0,0,0,0,0,0,
0,0,0,0,0,0,0,0,0,0,0,0,0,0,0,0,82,0,0,0,0,0,0,0,0,0,0,
0,0,0,0,0,0,0,0,0,0,0,0,0,0,0,0,0,0,0,0,0,0,0,0,0,0,0,
0,0,0,0,0,0,0,0,0,0,0,0,0,0,0,0,0,0,0,0,0,0,0,0,0,0,0,
0,0,0,0,0,0,0,0,0,0,0,0,0,0,0,0,0,0,0,0,0,0,0,0,0,0,0,
0,0,0,0,0,0,0,0,0,0,0,0,0,0,0,0,0,0,0,0,0,0,0,0,0,0,0
</data>
 </layer>
 <layer id="2" name="decal_moss" width="27" height="48" tintcolor="#a274eb">
  <data encoding="csv">
0,0,0,0,0,0,0,0,0,0,0,0,0,0,0,0,0,0,0,0,0,0,0,0,0,0,0,
0,0,0,0,0,0,0,0,0,0,0,0,0,0,0,0,0,0,0,0,0,0,0,0,0,0,0,
0,0,0,0,0,0,0,0,0,0,0,0,0,0,0,0,0,0,0,0,0,0,0,0,0,0,0,
0,0,0,0,0,0,0,0,0,0,0,0,0,0,0,0,0,0,0,0,0,0,0,0,0,0,0,
0,0,0,0,0,0,0,0,0,0,0,0,0,0,0,0,0,0,0,0,0,0,0,0,0,0,0,
0,0,0,0,0,0,0,0,0,0,0,0,0,0,0,0,0,0,0,0,0,0,0,0,0,0,0,
0,0,0,0,0,0,0,0,0,0,0,0,0,0,0,0,0,0,0,0,0,0,0,0,0,0,0,
0,0,0,0,0,0,0,0,0,0,0,0,0,0,0,0,0,0,0,0,0,0,0,0,0,0,0,
0,0,0,0,0,0,0,0,0,0,0,0,0,0,0,0,0,0,0,0,0,0,0,0,0,0,0,
0,0,0,0,0,0,0,0,0,0,0,0,0,0,0,0,0,0,0,0,0,0,0,0,0,0,0,
0,0,0,0,0,0,0,0,0,0,0,0,0,0,0,0,0,0,0,0,0,0,0,0,0,0,0,
0,0,0,0,0,0,0,0,0,0,0,0,0,0,0,0,0,0,0,0,0,0,0,0,0,0,0,
0,0,0,0,0,0,0,0,0,0,0,0,0,0,0,0,0,0,0,0,0,0,0,0,0,0,0,
0,0,0,0,0,0,0,0,0,0,0,0,0,0,0,0,0,0,0,0,0,0,0,0,0,0,0,
0,0,0,0,0,0,0,0,0,0,0,0,0,0,0,0,0,0,0,0,0,0,0,0,0,0,0,
0,0,0,0,0,0,0,0,0,0,0,0,0,0,0,0,0,0,0,0,0,0,0,0,0,0,0,
0,0,0,0,0,0,0,0,0,0,0,0,0,0,0,0,0,0,0,0,0,0,0,0,0,0,0,
0,0,0,0,0,0,0,0,0,0,0,0,0,0,0,0,0,0,0,0,0,0,0,0,0,0,0,
0,0,0,0,0,0,0,0,0,0,0,0,0,0,0,0,0,0,0,0,0,0,0,0,0,0,0,
0,0,0,0,0,0,0,0,0,0,0,0,0,0,0,0,0,0,0,0,0,0,0,0,0,0,0,
0,0,0,0,0,0,0,0,0,0,0,0,0,0,0,0,0,0,0,0,0,0,0,0,0,0,0,
0,0,0,0,0,0,0,0,0,0,0,0,0,0,0,0,0,0,0,0,0,0,0,0,0,0,0,
0,0,0,0,0,0,0,0,0,0,0,0,0,0,0,0,0,0,0,0,0,0,0,0,0,0,0,
0,0,0,0,0,0,0,0,0,0,0,0,0,0,0,0,0,0,0,0,0,0,0,0,0,0,0,
0,0,0,0,0,0,0,0,0,0,0,0,0,0,0,0,0,0,0,0,0,0,0,0,0,0,0,
0,0,0,0,0,0,0,0,0,0,0,0,0,0,0,0,0,0,0,0,0,0,0,0,0,0,0,
0,0,0,0,0,0,0,0,0,0,0,0,0,0,0,0,0,0,0,0,0,0,0,0,0,0,0,
0,0,0,0,0,0,0,0,0,0,0,0,0,0,0,0,0,0,0,0,0,0,0,0,0,0,0,
0,0,0,0,0,0,0,0,0,0,0,0,0,0,0,0,0,0,0,0,0,0,0,0,0,0,0,
0,0,0,0,0,0,0,0,0,0,0,0,0,0,0,0,0,0,0,0,0,0,0,0,0,0,0,
0,0,0,0,0,0,0,0,0,0,0,0,0,0,0,0,0,0,0,0,0,0,0,0,0,0,0,
0,0,0,0,0,0,0,0,0,0,0,0,0,0,0,0,0,0,0,0,0,0,0,0,0,0,0,
0,0,0,0,0,0,0,0,0,0,0,0,0,0,0,0,0,0,0,0,0,0,0,0,0,0,0,
0,0,0,0,0,0,0,0,0,0,0,0,0,0,0,0,0,0,0,0,0,0,0,0,0,0,0,
0,0,0,0,0,0,0,0,0,0,0,0,0,0,0,0,0,0,0,0,0,0,0,0,0,0,0,
0,0,0,0,0,0,0,0,0,0,0,0,0,0,0,0,0,0,0,0,0,0,0,0,0,0,0,
0,0,0,0,0,0,0,0,0,0,0,0,0,0,0,0,0,0,0,0,0,0,0,0,0,0,0,
0,0,0,0,0,0,0,0,0,0,0,0,0,0,0,0,0,0,0,0,0,0,0,0,0,0,0,
0,0,0,0,0,0,0,0,0,0,0,0,0,0,0,0,0,0,0,0,0,0,0,0,0,0,0,
0,0,0,0,0,0,0,0,0,0,0,0,0,0,0,0,0,0,0,0,0,0,0,0,0,0,0,
0,0,0,0,0,0,0,0,0,0,0,0,0,0,0,0,0,0,0,0,0,0,0,0,0,0,0,
0,0,0,0,0,0,0,0,0,0,0,0,0,0,0,0,0,0,0,0,3221225853,1073742205,0,0,0,0,0,
0,0,0,0,0,0,0,0,0,0,0,0,0,0,0,0,0,0,0,0,0,0,0,0,0,0,0,
0,0,0,0,0,0,0,0,0,0,0,0,0,0,0,0,0,0,0,0,0,0,0,0,0,0,0,
0,0,0,0,0,0,0,0,0,0,0,0,0,0,0,0,0,0,0,0,0,0,0,0,0,0,0,
0,0,0,0,0,0,0,0,0,0,0,0,0,0,0,0,0,0,0,0,0,0,0,0,0,0,0,
0,0,0,0,0,0,0,0,0,0,0,0,0,0,0,0,0,0,0,0,0,0,0,0,0,0,0,
0,0,0,0,0,0,0,0,0,0,0,0,0,0,0,0,0,0,0,0,0,0,0,0,0,0,0
</data>
 </layer>
 <layer id="5" name="Tile Layer 3" width="27" height="48">
  <data encoding="csv">
0,0,0,0,0,0,0,0,0,0,0,0,0,0,0,0,0,0,0,0,0,0,0,0,0,0,0,
0,0,0,0,0,0,0,0,0,0,0,0,0,0,0,0,0,0,0,0,0,0,0,0,0,0,0,
0,0,0,0,0,0,0,0,0,0,0,0,0,0,0,0,0,0,0,0,0,0,0,0,0,0,0,
0,0,0,0,0,0,0,0,0,0,0,0,0,0,0,0,0,0,0,0,0,0,0,0,0,0,0,
0,0,0,0,0,0,0,0,0,0,0,0,0,0,0,0,0,0,0,0,0,0,0,0,0,0,0,
0,0,0,0,0,0,0,0,0,0,0,0,0,0,0,0,0,0,0,0,0,0,0,0,0,0,0,
0,0,0,0,0,0,0,0,0,0,0,0,0,0,0,0,0,0,0,0,0,0,0,0,0,0,0,
0,0,0,0,0,0,0,0,0,0,0,0,0,0,0,0,0,0,0,0,0,0,0,0,0,0,0,
0,0,0,0,0,0,0,0,0,0,0,0,0,0,0,0,0,0,0,0,0,0,0,0,0,0,0,
0,0,0,0,0,0,0,0,0,0,0,0,0,0,0,0,0,0,0,0,0,0,0,0,0,0,0,
0,0,0,0,0,0,0,0,0,0,0,0,0,0,0,0,0,0,0,0,0,0,0,0,0,0,0,
0,0,0,0,0,0,0,0,0,0,0,0,0,0,0,0,0,0,0,0,0,0,0,0,0,0,0,
0,0,0,0,0,0,0,0,0,0,0,0,0,0,0,0,0,0,0,0,0,0,0,0,0,0,0,
0,0,0,0,0,0,0,0,0,0,0,0,0,0,0,0,0,0,0,0,0,0,0,0,0,0,0,
0,0,0,0,0,0,0,0,0,0,0,0,0,0,0,0,0,0,0,0,0,0,0,0,0,0,0,
0,0,0,0,0,0,0,0,0,0,0,0,0,0,0,0,0,0,0,0,0,0,0,0,0,0,0,
0,0,0,0,0,0,0,0,0,0,0,0,0,0,0,0,0,0,0,0,0,0,0,0,0,0,0,
0,0,0,0,0,0,0,0,0,0,0,0,0,0,0,0,0,0,0,0,0,0,0,0,0,0,0,
0,0,0,0,0,0,0,0,0,0,0,0,0,0,0,0,0,0,0,0,0,0,0,0,0,0,0,
0,0,0,0,0,0,0,0,0,0,0,0,0,0,0,0,0,0,0,0,0,0,0,0,0,0,0,
0,0,0,0,0,0,0,0,0,0,0,0,0,0,0,0,0,0,0,0,0,0,0,0,0,0,0,
0,0,0,0,0,0,0,0,0,0,0,0,0,0,0,0,0,0,0,0,0,0,0,0,0,0,0,
0,0,0,0,0,0,0,0,0,0,0,0,0,0,0,0,0,0,0,0,0,0,0,0,0,0,0,
0,0,0,0,0,0,0,0,0,0,0,0,0,0,0,0,0,0,0,0,0,0,0,0,0,0,0,
0,0,0,0,0,0,0,0,0,0,0,0,0,0,0,0,0,0,0,0,0,0,0,0,0,0,0,
0,0,0,0,0,0,0,0,0,0,0,0,0,0,0,0,0,0,0,0,0,0,0,0,0,0,0,
0,0,0,0,0,0,0,0,0,0,0,0,0,0,0,0,0,0,0,0,0,0,0,0,0,0,0,
0,0,0,0,0,0,0,0,0,0,0,0,0,0,0,0,0,0,0,0,0,0,0,0,0,0,0,
0,0,0,0,0,0,0,0,0,725,0,0,725,0,0,0,0,0,0,0,0,0,0,0,0,0,0,
0,0,0,0,0,0,0,0,0,731,0,0,731,0,0,0,0,0,0,0,0,0,0,0,0,0,0,
0,0,0,0,0,0,0,0,0,737,0,0,737,0,0,0,0,0,0,0,0,0,0,0,0,0,0,
0,0,0,0,0,0,0,0,0,743,202,202,743,0,0,0,0,0,0,0,0,0,0,0,0,0,0,
0,0,0,0,0,0,0,0,0,0,0,0,0,0,0,0,0,0,0,0,0,0,0,0,0,0,0,
0,0,0,0,0,0,0,0,0,0,0,0,0,0,0,0,0,0,0,0,0,0,0,0,0,0,0,
0,0,0,0,0,0,0,0,0,0,0,0,0,0,0,0,0,0,0,0,0,0,0,0,0,0,0,
0,0,0,0,0,0,0,0,0,0,0,0,0,0,0,0,0,0,0,0,0,0,0,0,0,0,0,
0,0,0,0,0,0,0,0,0,0,0,0,0,0,0,0,0,0,0,0,0,0,0,0,0,0,0,
0,0,0,0,0,0,0,0,0,0,0,0,0,0,0,0,0,0,0,0,0,0,0,0,0,0,0,
0,0,0,0,0,0,0,0,0,0,0,0,0,0,0,0,0,0,0,0,0,0,0,0,0,0,0,
0,0,0,0,0,202,202,202,202,202,202,202,203,0,0,0,0,0,0,0,0,0,0,0,0,0,0,
0,0,0,0,0,0,0,0,0,0,0,0,0,0,0,0,0,0,0,0,0,0,0,0,0,0,0,
0,0,0,0,0,0,0,0,0,0,0,0,0,0,0,0,0,0,0,0,0,0,0,0,0,0,0,
0,0,0,0,0,0,0,0,0,0,0,0,0,0,0,0,0,0,0,0,0,0,0,0,0,0,0,
0,0,0,0,0,0,0,0,0,0,0,0,0,0,0,0,0,0,0,0,0,0,0,0,0,0,0,
0,0,0,0,0,0,0,0,0,0,0,0,0,0,0,0,0,0,0,0,0,0,0,0,0,0,0,
0,0,0,0,0,0,0,0,0,0,0,0,0,0,0,0,0,0,0,0,0,0,0,0,0,0,0,
0,0,0,0,0,0,0,0,0,0,0,0,0,0,0,0,0,0,0,0,0,0,0,0,0,0,0,
0,0,0,0,0,0,0,0,0,0,0,0,0,0,0,0,0,0,0,0,0,0,0,0,0,0,0
</data>
 </layer>
 <objectgroup color="#0000ff" id="3" name="collision" locked="1">
  <object id="1" x="40" y="1680" width="480" height="240"/>
  <object id="2" x="680" y="1680" width="400" height="240"/>
  <object id="4" x="0" y="1600" width="40" height="80"/>
  <object id="7" x="680" y="0" width="400" height="960"/>
  <object id="21" x="0" y="1360" width="520" height="240"/>
  <object id="52" x="1040" y="1600" width="40" height="80"/>
  <object id="83" x="680" y="1360" width="400" height="240"/>
  <object id="85" x="1040" y="1280" width="40" height="80"/>
  <object id="88" x="0" y="1280" width="200" height="80"/>
  <object id="107" x="680" y="1040" width="400" height="240"/>
  <object id="108" x="840" y="960" width="240" height="80"/>
  <object id="116" x="0" y="1040" width="520" height="240"/>
  <object id="117" x="0" y="960" width="200" height="80"/>
  <object id="118" x="0" y="0" width="520" height="960"/>
 </objectgroup>
 <objectgroup id="4" name="objects_party">
  <object id="22" name=" " gid="965" x="200" y="1280" width="160" height="160"/>
  <object id="23" name=" " gid="965" x="200" y="1600" width="160" height="160"/>
  <object id="25" name="shard_door" x="220" y="1251" width="120" height="30">
   <properties>
    <property name="map" value="3_4th_sanctuary/fourth_sanctum_1"/>
    <property name="map_name" value="Fourth Sanctuary"/>
    <property name="req" value="2"/>
    <property name="solid" type="bool" value="true"/>
    <property name="text" value="* A door. [wait:5]It needs [color:9999ff]2 Dark Shards[color:white] to open."/>
   </properties>
  </object>
  <object id="26" name="shard_door" x="220" y="1570" width="120" height="30">
   <properties>
    <property name="hidden" value="true"/>
    <property name="map" value="1_dark_sanctuary/dark_sanctum_1"/>
    <property name="map_name" value="Dark Sanctuary"/>
    <property name="marker" value="entry"/>
    <property name="req" value="4"/>
    <property name="restricted" type="bool" value="true"/>
    <property name="solid" type="bool" value="true"/>
    <property name="text" value="* A door. [wait:10]It needs [color:9999ff]3 Dark Shards[color:white] to open.[wait:10] However,[wait:5] it seems the door has been blocked off..."/>
   </properties>
  </object>
  <object id="54" name="interactable" x="803.636" y="1640" width="74" height="40">
   <properties>
    <property name="cutscene" value="events.moss2"/>
   </properties>
  </object>
  <object id="64" name="transition" x="520" y="-40" width="160" height="40">
   <properties>
    <property name="map" value="0_base_sanctum/base_grand_door"/>
    <property name="marker" value="entry_ft"/>
   </properties>
  </object>
  <object id="91" name=" " gid="965" x="200" y="960" width="160" height="160"/>
  <object id="92" name=" " gid="972" x="360" y="1280" width="160" height="160"/>
  <object id="93" name=" " gid="967" x="680" y="1280" width="160" height="160"/>
  <object id="94" name="shard_door" x="220" y="930" width="120" height="30">
   <properties>
    <property name="map" value="secrets/citadel_room/citadel_room_1"/>
    <property name="map_name" value="a special place"/>
    <property name="req" value="0"/>
    <property name="solid" type="bool" value="true"/>
    <property name="text" value="* A door. [wait:5]It needs [color:9999ff]no Dark Shards[color:white] to open."/>
   </properties>
  </object>
  <object id="95" name="shard_door" x="380" y="1250" width="120" height="30">
   <properties>
    <property name="map" value="1_2nd_sanctuary/second_sanctum_4_crossroad"/>
    <property name="map_name" value="Second Sanctuary"/>
    <property name="req" value="1"/>
    <property name="solid" type="bool" value="true"/>
    <property name="text" value="* A door. [wait:5]It needs [color:9999ff]1 Dark Shard[color:white] to open."/>
   </properties>
  </object>
  <object id="96" name="shard_door" x="700" y="1250" width="120" height="30">
   <properties>
    <property name="map" value="2_flooded_sanctuary/flooded_1"/>
    <property name="map_name" value="Flooded Sanctuary"/>
    <property name="req" value="3"/>
    <property name="solid" type="bool" value="true"/>
    <property name="text" value="* A watery door. [wait:5]It needs [color:9999ff]3 Dark Shards[color:white] to open."/>
   </properties>
  </object>
  <object id="105" name="ft_transition" x="520" y="1920" width="160" height="40">
   <properties>
    <property name="map" value="0_base_sanctum/base_center"/>
    <property name="marker" value="entry_north"/>
   </properties>
  </object>
  <object id="134" gid="973" x="200" y="1600" width="160" height="160"/>
  <object id="141" name="savepoint" x="760" y="1000"/>
  <object id="153" name="interactable" gid="965" x="360" y="1600" width="160" height="160">
   <properties>
    <property name="text" value="* (Locked.)"/>
    <property name="usetile" value="yes"/>
   </properties>
  </object>
  <object id="155" name="interactable" gid="965" x="680" y="1600" width="160" height="160">
   <properties>
    <property name="text" value="* (Locked.)"/>
    <property name="usetile" value="yes"/>
   </properties>
  </object>
  <object id="156" name="interactable" gid="965" x="880" y="1600" width="160" height="160">
   <properties>
    <property name="text" value="* (Locked.)"/>
    <property name="usetile" value="yes"/>
   </properties>
  </object>
  <object id="158" name="shard_door_vapor" gid="966" x="880" y="1280" width="160" height="160"/>
  <object id="159" name="shard_door" x="900" y="1250" width="120" height="30">
   <properties>
    <property name="map" value="4_5th_sanctuary/fifth_sanctum_1"/>
    <property name="map_name" value="Fifth Sanctuary"/>
    <property name="marker" value="entry"/>
    <property name="req" value="4"/>
    <property name="restricted" type="bool" value="true"/>
    <property name="solid" type="bool" value="true"/>
    <property name="text" value="* A neon door. [wait:10]When you tried to open it, [wait:5]a hatted figure pushed you back from beyond."/>
   </properties>
  </object>
  <object id="161" name="interactable" x="40" y="1560" width="120" height="40">
   <properties>
    <property name="text1" value="* It seems like a lock for something."/>
    <property name="text2" value="* Unfortunately, it doesn't seem like you have a key."/>
   </properties>
  </object>
 </objectgroup>
 <objectgroup id="7" name="objects_lightarea" visible="0">
  <object id="28" gid="373" x="40" y="2040" width="160" height="1980">
   <properties>
    <property name="light" type="bool" value="true"/>
    <property name="light_alpha" type="float" value="0.1"/>
    <property name="light_color" type="color" value="#ffffffff"/>
    <property name="light_type" type="int" value="1"/>
   </properties>
  </object>
  <object id="31" gid="373" x="200" y="2040" width="160" height="1980">
   <properties>
    <property name="light" type="bool" value="true"/>
    <property name="light_alpha" type="float" value="0.1"/>
    <property name="light_color" type="color" value="#ffffffff"/>
    <property name="light_type" type="int" value="1"/>
   </properties>
  </object>
  <object id="32" gid="2147484021" x="360" y="2040" width="160" height="1980">
   <properties>
    <property name="light" type="bool" value="true"/>
    <property name="light_alpha" type="float" value="0.1"/>
    <property name="light_color" type="color" value="#ffffffff"/>
    <property name="light_type" type="int" value="1"/>
   </properties>
  </object>
  <object id="38" name="darkness" x="0" y="0">
   <properties>
    <property name="alpha" type="float" value="0.2"/>
    <property name="highlight" type="bool" value="true"/>
   </properties>
   <point/>
  </object>
  <object id="62" gid="373" x="680" y="2040" width="160" height="1980">
   <properties>
    <property name="light" type="bool" value="true"/>
    <property name="light_alpha" type="float" value="0.1"/>
    <property name="light_color" type="color" value="#ffffffff"/>
    <property name="light_type" type="int" value="1"/>
   </properties>
  </object>
  <object id="63" gid="2147484021" x="880" y="2040" width="160" height="1980">
   <properties>
    <property name="light" type="bool" value="true"/>
    <property name="light_alpha" type="float" value="0.1"/>
    <property name="light_color" type="color" value="#ffffffff"/>
    <property name="light_type" type="int" value="1"/>
   </properties>
  </object>
 </objectgroup>
 <objectgroup id="6" name="markers">
  <object id="12" name="entry_primary" x="600" y="1880">
   <point/>
  </object>
  <object id="19" name="spawn" x="600" y="1640">
   <point/>
  </object>
  <object id="66" name="entry_grand" x="600" y="80">
   <point/>
  </object>
  <object id="90" name="entry_citadel" x="280" y="1000">
   <point/>
  </object>
  <object id="121" x="360" y="1280" width="160" height="40">
   <text fontfamily="8bitoperator JVE" pixelsize="32" wrap="1" color="#00ff00" halign="center" valign="center">2nd</text>
  </object>
  <object id="122" x="680" y="1280" width="160" height="40">
   <text fontfamily="8bitoperator JVE" pixelsize="32" wrap="1" color="#ff0004" halign="center" valign="center">Flooded</text>
  </object>
  <object id="123" x="360" y="1600" width="160" height="40">
   <text fontfamily="8bitoperator JVE" pixelsize="32" wrap="1" color="#ff0004" halign="center" valign="center">???</text>
  </object>
  <object id="124" x="880" y="1280" width="160" height="40">
   <text fontfamily="8bitoperator JVE" pixelsize="32" wrap="1" color="#ff0004" halign="center" valign="center">Vapor</text>
  </object>
  <object id="126" x="200" y="1280" width="160" height="40">
   <text fontfamily="8bitoperator JVE" pixelsize="32" wrap="1" color="#aaff00" halign="center" valign="center">4th</text>
  </object>
  <object id="160" x="40" y="1600" width="160" height="80">
   <text fontfamily="8bitoperator JVE" pixelsize="32" wrap="1" color="#aaff00" halign="center" valign="center">2nd Floor
Entrance</text>
  </object>
  <object id="127" x="200" y="1600" width="160" height="40">
   <text fontfamily="8bitoperator JVE" pixelsize="32" wrap="1" color="#ff5500" halign="center" valign="center">Dark</text>
  </object>
  <object id="128" x="680" y="1600" width="160" height="40">
   <text fontfamily="8bitoperator JVE" pixelsize="32" wrap="1" color="#ff0004" halign="center" valign="center">???</text>
  </object>
  <object id="129" x="880" y="1600" width="160" height="40">
   <text fontfamily="8bitoperator JVE" pixelsize="32" wrap="1" color="#ff0004" halign="center" valign="center">???</text>
  </object>
  <object id="131" x="200" y="960" width="160" height="40">
   <text fontfamily="8bitoperator JVE" pixelsize="32" wrap="1" color="#ffaa00" halign="center" valign="center">Citadel</text>
  </object>
  <object id="149" name="kristo" x="600" y="1610">
   <point/>
  </object>
  <object id="150" name="susieto" x="520" y="1640">
   <point/>
  </object>
  <object id="151" name="ralseito" x="680" y="1640">
   <point/>
  </object>
  <object id="152" name="jammto" x="600" y="1680">
   <point/>
  </object>
 </objectgroup>
</map>
