<?xml version="1.0" encoding="UTF-8"?>
<map version="1.11" tiledversion="1.12.2" orientation="orthogonal" renderorder="right-down" width="34" height="18" tilewidth="40" tileheight="40" infinite="0" nextlayerid="13" nextobjectid="111">
 <editorsettings>
  <export target="data.lua" format="lua"/>
 </editorsettings>
 <properties>
  <property name="border" value="church_b"/>
  <property name="music" value="second_church"/>
  <property name="name" value="Second Sanctuary - End"/>
 </properties>
 <tileset firstgid="1" source="../../../tilesets/bg_dw_church_2_tileset.tsx"/>
 <tileset firstgid="199" source="../../../tilesets/bg_dw_church_c_tileset.tsx"/>
 <tileset firstgid="478" source="../../../tilesets/bg_dw_church_tileset_new.tsx"/>
 <tileset firstgid="1060" source="../../../tilesets/church_objects.tsx"/>
 <objectgroup id="12" name="objects_towers3" visible="0" offsetx="0" offsety="-80" parallaxx="0.3">
  <object id="102" gid="1060" x="220" y="-310" width="400" height="578" rotation="-180">
   <properties>
    <property name="color" type="color" value="#ff00007f"/>
   </properties>
  </object>
  <object id="103" gid="1060" x="620" y="-310" width="400" height="578" rotation="-180">
   <properties>
    <property name="color" type="color" value="#ff00007f"/>
   </properties>
  </object>
  <object id="104" gid="1060" x="1020" y="-310" width="400" height="578" rotation="-180">
   <properties>
    <property name="color" type="color" value="#ff00007f"/>
   </properties>
  </object>
 </objectgroup>
 <objectgroup id="11" name="objects_towers2" visible="0" parallaxx="0.4">
  <object id="100" gid="2147484740" x="-130" y="-210" width="1920" height="200" rotation="45">
   <properties>
    <property name="color" type="color" value="#ff2525ba"/>
   </properties>
  </object>
  <object id="101" gid="2147484740" x="50" y="1070" width="1920" height="200" rotation="-45">
   <properties>
    <property name="color" type="color" value="#ff2525ba"/>
   </properties>
  </object>
 </objectgroup>
 <objectgroup id="10" name="objects_towers1" visible="0" parallaxx="0.5">
  <object id="70" gid="1160" x="200" y="1280" width="640" height="1600">
   <properties>
    <property name="color" type="color" value="#ff2b2b79"/>
   </properties>
  </object>
  <object id="108" gid="1160" x="610" y="1290" width="640" height="1600">
   <properties>
    <property name="color" type="color" value="#ff2b2b79"/>
   </properties>
  </object>
 </objectgroup>
 <objectgroup id="4" name="objects_tile_oscillate">
  <object id="35" name="tile_oscillate" x="560" y="200" width="560" height="320"/>
  <object id="39" name="texturescroller" x="40" y="0">
   <properties>
    <property name="type" value="hsv"/>
   </properties>
   <point/>
  </object>
  <object id="82" name="tile_oscillate" x="600" y="440" width="120" height="120"/>
  <object id="83" name="tile_oscillate" x="600" y="160" width="120" height="120"/>
  <object id="90" name="tile_oscillate" x="600" y="160" width="480" height="40"/>
  <object id="92" name="tile_oscillate" x="600" y="520" width="480" height="40"/>
  <object id="109" name="tile_oscillate" x="1120" y="280" width="40" height="160"/>
  <object id="110" name="tile_oscillate" x="520" y="280" width="40" height="160"/>
 </objectgroup>
 <layer id="5" name="Tile Layer 2" width="34" height="18">
  <data encoding="csv">
0,0,0,0,0,0,0,0,0,0,0,0,0,0,0,0,0,0,0,0,0,0,0,0,0,0,0,0,0,0,0,0,0,0,
0,859,860,861,0,859,860,861,0,859,860,861,0,0,0,0,0,0,0,0,0,0,0,0,0,0,0,0,0,0,859,860,861,0,
0,865,866,867,0,865,866,867,0,865,866,867,0,0,0,0,0,0,0,0,0,0,0,0,0,0,0,0,0,0,865,866,867,0,
0,871,872,873,0,871,872,873,0,871,872,873,0,0,0,0,0,0,0,0,0,0,0,0,0,0,0,0,0,0,871,872,873,0,
410,877,878,879,0,877,878,879,0,877,878,879,0,0,0,0,0,0,0,0,0,0,0,0,0,0,0,0,0,0,877,878,879,0,
410,877,878,879,0,883,884,885,0,877,878,879,0,0,0,0,0,0,0,0,0,0,0,0,0,0,0,0,0,0,877,878,879,0,
410,877,878,879,0,877,878,879,0,877,878,879,0,0,0,0,0,0,0,0,0,0,0,0,0,0,0,0,0,0,877,878,879,0,
410,883,884,885,0,883,884,885,0,883,884,885,0,0,0,0,0,0,0,0,0,0,0,0,0,0,0,0,0,0,883,884,885,0,
0,0,0,0,0,0,0,0,0,0,0,0,0,0,0,0,0,0,0,0,0,0,0,0,0,0,0,0,0,0,0,0,0,0,
0,0,0,0,0,0,0,0,0,0,0,0,0,0,0,0,0,0,0,0,0,0,0,0,0,0,0,0,0,0,0,0,0,0,
0,0,0,0,0,0,0,0,0,0,0,0,0,0,0,0,0,0,0,0,0,0,0,0,0,0,0,0,0,0,0,0,0,0,
610,610,610,610,610,610,610,610,610,610,610,610,610,0,0,0,0,0,0,0,0,0,0,0,0,0,0,0,0,610,610,610,610,610,
610,610,610,610,610,610,610,610,610,610,610,610,610,610,0,0,0,0,0,0,0,0,0,0,0,0,0,0,610,610,610,610,610,610,
610,610,610,610,610,610,610,610,610,610,610,610,610,610,0,0,0,0,0,0,0,0,0,0,0,0,0,0,610,610,610,610,610,610,
610,610,610,610,610,610,610,610,610,610,610,610,610,610,610,0,0,0,0,0,0,0,0,0,0,0,0,610,610,610,610,610,610,610,
610,610,610,610,610,610,610,610,610,610,610,610,610,610,610,610,610,0,0,0,0,0,0,0,0,610,610,610,610,610,610,610,610,610,
610,610,610,610,610,610,610,610,610,610,610,610,610,610,610,610,610,610,610,610,610,610,610,610,610,610,610,610,610,610,610,610,610,610,
610,610,610,610,610,610,610,610,610,610,610,610,610,610,610,610,610,610,610,610,610,610,610,610,610,610,610,610,610,610,610,610,610,610
</data>
 </layer>
 <layer id="1" name="Tile Layer 1" width="34" height="18">
  <data encoding="csv">
127,1016,1016,1016,127,1016,1016,1016,127,1016,1016,1016,127,0,0,0,0,0,0,0,0,0,0,0,0,0,0,0,0,127,1016,1016,1016,127,
136,0,0,0,136,0,0,0,136,0,0,0,136,0,0,0,0,0,0,0,0,0,0,0,0,0,0,0,0,136,0,0,0,136,
136,0,0,0,136,0,0,0,136,0,0,0,136,0,0,0,0,174,174,174,174,174,174,174,174,0,0,0,0,136,0,0,0,136,
136,0,0,0,136,0,0,0,136,0,0,0,136,0,0,174,174,22,10,19,19,10,10,10,31,174,174,0,0,136,0,0,0,136,
136,0,0,0,136,0,0,0,136,0,0,0,136,0,174,7,8,9,10,10,10,19,10,10,19,23,31,174,0,136,0,0,0,136,
145,0,0,0,145,0,0,0,145,0,0,0,145,0,10,16,17,18,23,10,10,10,10,4,4,20,21,22,0,145,0,0,0,145,
154,0,0,0,154,0,0,0,154,0,0,0,154,174,10,25,26,5,6,4,13,19,10,19,19,29,30,19,174,154,0,0,0,154,
163,1053,1053,1053,163,1053,1053,1053,163,1053,1053,1053,163,10,168,169,170,14,15,19,10,23,20,21,132,133,134,135,10,163,1053,1053,1053,163,
19,10,10,19,19,31,4,10,19,10,2,3,10,10,177,178,179,187,170,171,19,10,29,30,141,142,143,151,36,19,19,22,13,19,
19,10,19,19,19,19,10,10,13,19,11,12,10,10,186,187,188,17,17,187,170,34,10,43,24,151,152,33,45,10,13,10,19,10,
28,28,28,28,28,28,28,28,28,28,28,28,28,10,195,196,197,179,17,17,178,150,151,44,44,142,161,53,54,28,28,28,28,28,
958,959,960,961,913,821,822,823,913,958,959,960,961,28,10,7,8,171,179,17,187,159,160,161,53,20,21,10,28,958,959,960,961,913,
964,965,966,967,919,827,828,829,919,964,965,966,967,913,10,16,17,187,178,179,188,189,10,10,10,29,30,23,913,964,965,966,967,919,
970,971,972,973,919,833,834,835,919,970,971,972,973,919,28,25,26,197,198,4,197,198,20,21,19,10,31,28,919,970,971,972,973,919,
976,977,978,979,919,839,840,841,919,976,977,978,979,919,0,28,28,13,10,10,13,10,29,30,31,28,28,0,919,976,977,978,979,919,
982,983,984,985,919,845,846,847,919,982,983,984,985,919,0,913,0,28,28,28,28,28,28,28,28,0,913,0,919,982,983,984,985,919,
0,0,0,0,950,0,0,0,950,0,0,0,0,919,0,919,966,0,913,958,959,960,961,913,0,0,919,0,919,0,0,0,0,950,
0,0,0,0,0,0,0,0,0,0,0,0,0,919,0,919,0,0,919,964,965,966,967,919,0,0,919,0,919,0,0,0,0,0
</data>
 </layer>
 <objectgroup id="7" name="markers">
  <object id="4" name="entry" x="40" y="360">
   <point/>
  </object>
  <object id="5" name="spawn" x="260" y="360">
   <point/>
  </object>
  <object id="72" x="40" y="340">
   <point/>
  </object>
  <object id="73" x="40" y="380">
   <point/>
  </object>
  <object id="88" name="entry2" x="1320" y="360">
   <point/>
  </object>
 </objectgroup>
 <objectgroup id="9" name="collision">
  <object id="7" x="0" y="280" width="520" height="40"/>
  <object id="8" x="0" y="400" width="520" height="40"/>
  <object id="10" x="520" y="200" width="40" height="80"/>
  <object id="11" x="560" y="160" width="40" height="40"/>
  <object id="13" x="600" y="120" width="80" height="40"/>
  <object id="14" x="1160" y="280" width="200" height="40"/>
  <object id="15" x="1120" y="200" width="40" height="80"/>
  <object id="20" x="1000" y="120" width="80" height="40"/>
  <object id="21" x="1080" y="160" width="40" height="40"/>
  <object id="22" x="1160" y="400" width="200" height="40"/>
  <object id="24" x="520" y="440" width="40" height="80"/>
  <object id="27" x="560" y="520" width="40" height="40"/>
  <object id="28" x="680" y="600" width="320" height="40"/>
  <object id="29" x="1080" y="520" width="40" height="40"/>
  <object id="31" x="1120" y="440" width="40" height="80"/>
  <object id="76" x="680" y="80" width="320" height="40"/>
  <object id="77" x="600" y="560" width="80" height="40"/>
  <object id="78" x="1000" y="560" width="80" height="40"/>
 </objectgroup>
 <objectgroup id="8" name="objects_party">
  <object id="6" name="npc" x="1040" y="370">
   <properties>
    <property name="actor" value="guei"/>
    <property name="cond" value="Game:getFlag(&quot;chase_cutscene_prog&quot;, 0) &lt; 2"/>
   </properties>
   <point/>
  </object>
  <object id="32" name="transition" x="-40" y="320" width="40" height="80">
   <properties>
    <property name="map" value="1_2nd_sanctuary/second_sanctum_9"/>
    <property name="marker" value="entry2"/>
   </properties>
  </object>
  <object id="84" name="window_glow" x="100" y="220">
   <point/>
  </object>
  <object id="85" name="window_glow" x="260" y="220">
   <point/>
  </object>
  <object id="86" name="window_glow" x="420" y="220">
   <point/>
  </object>
  <object id="87" name="transition" x="1360" y="320" width="40" height="80">
   <properties>
    <property name="flagcheck" value="creature_a_defeat"/>
    <property name="map" value="1_2nd_sanctuary/second_sanctum_11_exit"/>
    <property name="marker" value="entry"/>
   </properties>
  </object>
  <object id="89" name="window_glow" x="1260" y="220">
   <point/>
  </object>
  <object id="97" name="script" x="0" y="320" width="40" height="80">
   <properties>
    <property name="cutscene" value="events.postchase"/>
    <property name="once" value="true"/>
   </properties>
  </object>
 </objectgroup>
 <objectgroup id="3" name="objects_fog">
  <object id="2" name="churchfog" x="80" y="0">
   <point/>
  </object>
 </objectgroup>
 <objectgroup id="2" name="objects_top">
  <object id="1" name="filter" x="0" y="0">
   <properties>
    <property name="type" value="hsv"/>
   </properties>
   <point/>
  </object>
 </objectgroup>
</map>
